Submissions/LUTs/Samples/LUTS-s01.cube
#Created by: Adobe Photoshop Export Color Lookup Plugin
TITLE "LUTS"
#LUT size
LUT_3D_SIZE 32
#data domain
DOMAIN_MIN 0.0 0.0 0.0
DOMAIN_MAX 1.0 1.0 1.0
#LUT data points
0.000000 0.000000 0.000000
0.000000 0.000000 0.000000
0.000000 0.000000 0.000000
0.000000 0.000000 0.000000
0.000000 0.000000 0.000000
0.000000 0.000000 0.000000
0.000000 0.000000 0.000000
0.000000 0.000000 0.000000
0.000000 0.000000 0.000000
0.000000 0.000000 0.000000
0.000000 0.000000 0.000000
0.000000 0.000000 0.000000
0.000000 0.000000 0.000000
0.000000 0.000000 0.000000
0.000000 0.000000 0.000000
0.000000 0.000000 0.000000
0.000000 0.000000 0.000000
0.000000 0.000000 0.000000
0.036682 0.000000 0.000000
0.110779 0.000000 0.000000
0.184875 0.000000 0.000000
0.258972 0.000000 0.000000
0.333099 0.000000 0.000000
0.407166 0.000000 0.000000
0.481262 0.000000 0.000000
0.555389 0.000000 0.000000
0.629486 0.000000 0.000000
0.703583 0.000000 0.000000
0.777679 0.000000 0.000000
0.851807 0.000000 0.000000
0.925903 0.000000 0.000000
1.000000 0.000000 0.000000
0.000000 0.000000 0.000000
0.000000 0.000000 0.000000
0.000000 0.000000 0.000000
0.000000 0.000000 0.000000
0.000000 0.000000 0.000000
0.000000 0.000000 0.000000
0.000000 0.000000 0.000000
0.000000 0.000000 0.000000
0.000000 0.000000 0.000000
0.000000 0.000000 0.000000
0.000000 0.000000 0.000000
0.000000 0.000000 0.000000
0.000000 0.000000 0.000000
0.000000 0.000000 0.000000
0.000000 0.000000 0.000000
0.000000 0.000000 0.000000
0.000000 0.000000 0.000000
0.000000 0.000000 0.000000
0.036682 0.000000 0.000000
0.110779 0.000000 0.000000
0.184875 0.000000 0.000000
0.258972 0.000000 0.000000
0.333099 0.000000 0.000000
0.407166 0.000000 0.000000
0.481262 0.000000 0.000000
0.555389 0.000000 0.000000
0.629486 0.000000 0.000000
0.703583 0.000000 0.000000
0.777679 0.000000 0.000000
0.851807 0.000000 0.000000
0.925903 0.000000 0.000000
1.000000 0.000000 0.000000
0.000000 0.000000 0.000000
0.000000 0.000000 0.000000
0.000000 0.000000 0.000000
0.000000 0.000000 0.000000
0.000000 0.000000 0.000000
0.000000 0.000000 0.000000
0.000000 0.000000 0.000000
0.000000 0.000000 0.000000
0.000000 0.000000 0.000000
0.000000 0.000000 0.000000
0.000000 0.000000 0.000000
0.000000 0.000000 0.000000
0.000000 0.000000 0.000000
0.000000 0.000000 0.000000
0.000000 0.000000 0.000000
0.000000 0.000000 0.000000
0.000000 0.000000 0.000000
0.000000 0.000000 0.000000
0.036682 0.000000 0.000000
0.110779 0.000000 0.000000
0.184875 0.000000 0.000000
0.258972 0.000000 0.000000
0.333099 0.000000 0.000000
0.407166 0.000000 0.000000
0.481262 0.000000 0.000000
0.555389 0.000000 0.000000
0.629486 0.000000 0.000000
0.703583 0.000000 0.000000
0.777679 0.000000 0.000000
0.851807 0.000000 0.000000
0.925903 0.000000 0.000000
1.000000 0.000000 0.000000
0.000000 0.000000 0.000000
0.000000 0.000000 0.000000
0.000000 0.000000 0.000000
0.000000 0.000000 0.000000
0.000000 0.000000 0.000000
0.000000 0.000000 0.000000
0.000000 0.000000 0.000000
0.000000 0.000000 0.000000
0.000000 0.000000 0.000000
0.000000 0.000000 0.000000
0.000000 0.000000 0.000000
0.000000 0.000000 0.000000
0.000000 0.000000 0.000000
0.000000 0.000000 0.000000
0.000000 0.000000 0.000000
0.000000 0.000000 0.000000
0.000000 0.000000 0.000000
0.000000 0.000000 0.000000
0.036682 0.000000 0.000000
0.110779 0.000000 0.000000
0.184875 0.000000 0.000000
0.258972 0.000000 0.000000
0.333099 0.000000 0.000000
0.407166 0.000000 0.000000
0.481262 0.000000 0.000000
0.555389 0.000000 0.000000
0.629486 0.000000 0.000000
0.703583 0.000000 0.000000
0.777679 0.000000 0.000000
0.851807 0.000000 0.000000
0.925903 0.000000 0.000000
1.000000 0.000000 0.000000
0.000000 0.000000 0.000000
0.000000 0.000000 0.000000
0.000000 0.000000 0.000000
0.000000 0.000000 0.000000
0.000000 0.000000 0.000000
0.000000 0.000000 0.000000
0.000000 0.000000 0.000000
0.000000 0.000000 0.000000
0.000000 0.000000 0.000000
0.000000 0.000000 0.000000
0.000000 0.000000 0.000000
0.000000 0.000000 0.000000
0.000000 0.000000 0.000000
0.000000 0.000000 0.000000
0.000000 0.000000 0.000000
0.000000 0.000000 0.000000
0.000000 0.000000 0.000000
0.000000 0.000000 0.000000
0.036682 0.000000 0.000000
0.110779 0.000000 0.000000
0.184875 0.000000 0.000000
0.258972 0.000000 0.000000
0.333099 0.000000 0.000000
0.407166 0.000000 0.000000
0.481262 0.000000 0.000000
0.555389 0.000000 0.000000
0.629486 0.000000 0.000000
0.703583 0.000000 0.000000
0.777679 0.000000 0.000000
0.851807 0.000000 0.000000
0.925903 0.000000 0.000000
1.000000 0.000000 0.000000
0.000000 0.000000 0.000000
0.000000 0.000000 0.000000
0.000000 0.000000 0.000000
0.000000 0.000000 0.000000
0.000000 0.000000 0.000000
0.000000 0.000000 0.000000
0.000000 0.000000 0.000000
0.000000 0.000000 0.000000
0.000000 0.000000 0.000000
0.000000 0.000000 0.000000
0.000000 0.000000 0.000000
0.000000 0.000000 0.000000
0.000000 0.000000 0.000000
0.000000 0.000000 0.000000
0.000000 0.000000 0.000000
0.000000 0.000000 0.000000
0.000000 0.000000 0.000000
0.000000 0.000000 0.000000
0.036682 0.000000 0.000000
0.110779 0.000000 0.000000
0.184875 0.000000 0.000000
0.258972 0.000000 0.000000
0.333099 0.000000 0.000000
0.407166 0.000000 0.000000
0.481262 0.000000 0.000000
0.555389 0.000000 0.000000
0.629486 0.000000 0.000000
0.703583 0.000000 0.000000
0.777679 0.000000 0.000000
0.851807 0.000000 0.000000
0.925903 0.000000 0.000000
1.000000 0.000000 0.000000
0.000000 0.000000 0.000000
0.000000 0.000000 0.000000
0.000000 0.000000 0.000000
0.000000 0.000000 0.000000
0.000000 0.000000 0.000000
0.000000 0.000000 0.000000
0.000000 0.000000 0.000000
0.000000 0.000000 0.000000
0.000000 0.000000 0.000000
0.000000 0.000000 0.000000
0.000000 0.000000 0.000000
0.000000 0.000000 0.000000
0.000000 0.000000 0.000000
0.000000 0.000000 0.000000
0.000000 0.000000 0.000000
0.000000 0.000000 0.000000
0.000000 0.000000 0.000000
0.000000 0.000000 0.000000
0.036682 0.000000 0.000000
0.110779 0.000000 0.000000
0.184875 0.000000 0.000000
0.258972 0.000000 0.000000
0.333099 0.000000 0.000000
0.407166 0.000000 0.000000
0.481262 0.000000 0.000000
0.555389 0.000000 0.000000
0.629486 0.000000 0.000000
0.703583 0.000000 0.000000
0.777679 0.000000 0.000000
0.851807 0.000000 0.000000
0.925903 0.000000 0.000000
1.000000 0.000000 0.000000
0.000000 0.000000 0.000000
0.000000 0.000000 0.000000
0.000000 0.000000 0.000000
0.000000 0.000000 0.000000
0.000000 0.000000 0.000000
0.000000 0.000000 0.000000
0.000000 0.000000 0.000000
0.000000 0.000000 0.000000
0.000000 0.000000 0.000000
0.000000 0.000000 0.000000
0.000000 0.000000 0.000000
0.000000 0.000000 0.000000
0.000000 0.000000 0.000000
0.000000 0.000000 0.000000
0.000000 0.000000 0.000000
0.000000 0.000000 0.000000
0.000000 0.000000 0.000000
0.000000 0.000000 0.000000
0.036682 0.000000 0.000000
0.110779 0.000000 0.000000
0.184875 0.000000 0.000000
0.258972 0.000000 0.000000
0.333099 0.000000 0.000000
0.407166 0.000000 0.000000
0.481262 0.000000 0.000000
0.555389 0.000000 0.000000
0.629486 0.000000 0.000000
0.703583 0.000000 0.000000
0.777679 0.000000 0.000000
0.851807 0.000000 0.000000
0.925903 0.000000 0.000000
1.000000 0.000000 0.000000
0.000000 0.000000 0.000000
0.000000 0.000000 0.000000
0.000000 0.000000 0.000000
0.000000 0.000000 0.000000
0.000000 0.000000 0.000000
0.000000 0.000000 0.000000
0.000000 0.000000 0.000000
0.000000 0.000000 0.000000
0.000000 0.000000 0.000000
0.000000 0.000000 0.000000
0.000000 0.000000 0.000000
0.000000 0.000000 0.000000
0.000000 0.000000 0.000000
0.000000 0.000000 0.000000
0.000000 0.000000 0.000000
0.000000 0.000000 0.000000
0.000000 0.000000 0.000000
0.000000 0.000000 0.000000
0.036682 0.000000 0.000000
0.110779 0.000000 0.000000
0.184875 0.000000 0.000000
0.258972 0.000000 0.000000
0.333099 0.000000 0.000000
0.407166 0.000000 0.000000
0.481262 0.000000 0.000000
0.555389 0.000000 0.000000
0.629486 0.000000 0.000000
0.703583 0.000000 0.000000
0.777679 0.000000 0.000000
0.851807 0.000000 0.000000
0.925903 0.000000 0.000000
1.000000 0.000000 0.000000
0.000000 0.000000 0.000000
0.000000 0.000000 0.000000
0.000000 0.000000 0.000000
0.000000 0.000000 0.000000
0.000000 0.000000 0.000000
0.000000 0.000000 0.000000
0.000000 0.000000 0.000000
0.000000 0.000000 0.000000
0.000000 0.000000 0.000000
0.000000 0.000000 0.000000
0.000000 0.000000 0.000000
0.000000 0.000000 0.000000
0.000000 0.000000 0.000000
0.000000 0.000000 0.000000
0.000000 0.000000 0.000000
0.000000 0.000000 0.000000
0.000000 0.000000 0.000000
0.000000 0.000000 0.000000
0.036682 0.000000 0.000000
0.110779 0.000000 0.000000
0.184875 0.000000 0.000000
0.258972 0.000000 0.000000
0.333099 0.000000 0.000000
0.407166 0.000000 0.000000
0.481262 0.000000 0.000000
0.555389 0.000000 0.000000
0.629486 0.000000 0.000000
0.703583 0.000000 0.000000
0.777679 0.000000 0.000000
0.851807 0.000000 0.000000
0.925903 0.000000 0.000000
1.000000 0.000000 0.000000
0.000000 0.000000 0.000000
0.000000 0.000000 0.000000
0.000000 0.000000 0.000000
0.000000 0.000000 0.000000
0.000000 0.000000 0.000000
0.000000 0.000000 0.000000
0.000000 0.000000 0.000000
0.000000 0.000000 0.000000
0.000000 0.000000 0.000000
0.000000 0.000000 0.000000
0.000000 0.000000 0.000000
0.000000 0.000000 0.000000
0.000000 0.000000 0.000000
0.000000 0.000000 0.000000
0.000000 0.000000 0.000000
0.000000 0.000000 0.000000
0.000000 0.000000 0.000000
0.000000 0.000000 0.000000
0.036682 0.000000 0.000000
0.110779 0.000000 0.000000
0.184875 0.000000 0.000000
0.258972 0.000000 0.000000
0.333099 0.000000 0.000000
0.407166 0.000000 0.000000
0.481262 0.000000 0.000000
0.555389 0.000000 0.000000
0.629486 0.000000 0.000000
0.703583 0.000000 0.000000
0.777679 0.000000 0.000000
0.851807 0.000000 0.000000
0.925903 0.000000 0.000000
1.000000 0.000000 0.000000
0.000000 0.000000 0.000000
0.000000 0.000000 0.000000
0.000000 0.000000 0.000000
0.000000 0.000000 0.000000
0.000000 0.000000 0.000000
0.000000 0.000000 0.000000
0.000000 0.000000 0.000000
0.000000 0.000000 0.000000
0.000000 0.000000 0.000000
0.000000 0.000000 0.000000
0.000000 0.000000 0.000000
0.000000 0.000000 0.000000
0.000000 0.000000 0.000000
0.000000 0.000000 0.000000
0.000000 0.000000 0.000000
0.000000 0.000000 0.000000
0.000000 0.000000 0.000000
0.000000 0.000000 0.000000
0.036682 0.000000 0.000000
0.110779 0.000000 0.000000
0.184875 0.000000 0.000000
0.258972 0.000000 0.000000
0.333099 0.000000 0.000000
0.407166 0.000000 0.000000
0.481262 0.000000 0.000000
0.555389 0.000000 0.000000
0.629486 0.000000 0.000000
0.703583 0.000000 0.000000
0.777679 0.000000 0.000000
0.851807 0.000000 0.000000
0.925903 0.000000 0.000000
1.000000 0.000000 0.000000
0.000000 0.000000 0.000000
0.000000 0.000000 0.000000
0.000000 0.000000 0.000000
0.000000 0.000000 0.000000
0.000000 0.000000 0.000000
0.000000 0.000000 0.000000
0.000000 0.000000 0.000000
0.000000 0.000000 0.000000
0.000000 0.000000 0.000000
0.000000 0.000000 0.000000
0.000000 0.000000 0.000000
0.000000 0.000000 0.000000
0.000000 0.000000 0.000000
0.000000 0.000000 0.000000
0.000000 0.000000 0.000000
0.000000 0.000000 0.000000
0.000000 0.000000 0.000000
0.000000 0.000000 0.000000
0.036682 0.000000 0.000000
0.110779 0.000000 0.000000
0.184875 0.000000 0.000000
0.258972 0.000000 0.000000
0.333099 0.000000 0.000000
0.407166 0.000000 0.000000
0.481262 0.000000 0.000000
0.555389 0.000000 0.000000
0.629486 0.000000 0.000000
0.703583 0.000000 0.000000
0.777679 0.000000 0.000000
0.851807 0.000000 0.000000
0.925903 0.000000 0.000000
1.000000 0.000000 0.000000
0.000000 0.000000 0.000000
0.000000 0.000000 0.000000
0.000000 0.000000 0.000000
0.000000 0.000000 0.000000
0.000000 0.000000 0.000000
0.000000 0.000000 0.000000
0.000000 0.000000 0.000000
0.000000 0.000000 0.000000
0.000000 0.000000 0.000000
0.000000 0.000000 0.000000
0.000000 0.000000 0.000000
0.000000 0.000000 0.000000
0.000000 0.000000 0.000000
0.000000 0.000000 0.000000
0.000000 0.000000 0.000000
0.000000 0.000000 0.000000
0.000000 0.000000 0.000000
0.000000 0.000000 0.000000
0.036682 0.000000 0.000000
0.110779 0.000000 0.000000
0.184875 0.000000 0.000000
0.258972 0.000000 0.000000
0.333099 0.000000 0.000000
0.407166 0.000000 0.000000
0.481262 0.000000 0.000000
0.555389 0.000000 0.000000
0.629486 0.000000 0.000000
0.703583 0.000000 0.000000
0.777679 0.000000 0.000000
0.851807 0.000000 0.000000
0.925903 0.000000 0.000000
1.000000 0.000000 0.000000
0.000000 0.000000 0.000000
0.000000 0.000000 0.000000
0.000000 0.000000 0.000000
0.000000 0.000000 0.000000
0.000000 0.000000 0.000000
0.000000 0.000000 0.000000
0.000000 0.000000 0.000000
0.000000 0.000000 0.000000
0.000000 0.000000 0.000000
0.000000 0.000000 0.000000
0.000000 0.000000 0.000000
0.000000 0.000000 0.000000
0.000000 0.000000 0.000000
0.000000 0.000000 0.000000
0.000000 0.000000 0.000000
0.000000 0.000000 0.000000
0.000000 0.000000 0.000000
0.000000 0.000000 0.000000
0.036682 0.000000 0.000000
0.110779 0.000000 0.000000
0.184875 0.000000 0.000000
0.258972 0.000000 0.000000
0.333099 0.000000 0.000000
0.407166 0.000000 0.000000
0.481262 0.000000 0.000000
0.555389 0.000000 0.000000
0.629486 0.000000 0.000000
0.703583 0.000000 0.000000
0.777679 0.000000 0.000000
0.851807 0.000000 0.000000
0.925903 0.000000 0.000000
1.000000 0.000000 0.000000
0.000000 0.000000 0.000000
0.000000 0.000000 0.000000
0.000000 0.000000 0.000000
0.000000 0.000000 0.000000
0.000000 0.000000 0.000000
0.000000 0.000000 0.000000
0.000000 0.000000 0.000000
0.000000 0.000000 0.000000
0.000000 0.000000 0.000000
0.000000 0.000000 0.000000
0.000000 0.000000 0.000000
0.000000 0.000000 0.000000
0.000000 0.000000 0.000000
0.000000 0.000000 0.000000
0.000000 0.000000 0.000000
0.000000 0.000000 0.000000
0.000000 0.000000 0.000000
0.000000 0.000000 0.000000
0.036682 0.000000 0.000000
0.110779 0.000000 0.000000
0.184875 0.000000 0.000000
0.258972 0.000000 0.000000
0.333099 0.000000 0.000000
0.407166 0.000000 0.000000
0.481262 0.000000 0.000000
0.555389 0.000000 0.000000
0.629486 0.000000 0.000000
0.703583 0.000000 0.000000
0.777679 0.000000 0.000000
0.851807 0.000000 0.000000
0.925903 0.000000 0.000000
1.000000 0.000000 0.000000
0.000000 0.000000 0.000000
0.000000 0.000000 0.000000
0.000000 0.000000 0.000000
0.000000 0.000000 0.000000
0.000000 0.000000 0.000000
0.000000 0.000000 0.000000
0.000000 0.000000 0.000000
0.000000 0.000000 0.000000
0.000000 0.000000 0.000000
0.000000 0.000000 0.000000
0.000000 0.000000 0.000000
0.000000 0.000000 0.000000
0.000000 0.000000 0.000000
0.000000 0.000000 0.000000
0.000000 0.000000 0.000000
0.000000 0.000000 0.000000
0.000000 0.000000 0.000000
0.000000 0.000000 0.000000
0.036682 0.000000 0.000000
0.110779 0.000000 0.000000
0.184875 0.000000 0.000000
0.258972 0.000000 0.000000
0.333099 0.000000 0.000000
0.407166 0.000000 0.000000
0.481262 0.000000 0.000000
0.555389 0.000000 0.000000
0.629486 0.000000 0.000000
0.703583 0.000000 0.000000
0.777679 0.000000 0.000000
0.851807 0.000000 0.000000
0.925903 0.000000 0.000000
1.000000 0.000000 0.000000
0.000000 0.000000 0.000000
0.000000 0.000000 0.000000
0.000000 0.000000 0.000000
0.000000 0.000000 0.000000
0.000000 0.000000 0.000000
0.000000 0.000000 0.000000
0.000000 0.000000 0.000000
0.000000 0.000000 0.000000
0.000000 0.000000 0.000000
0.000000 0.000000 0.000000
0.000000 0.000000 0.000000
0.000000 0.000000 0.000000
0.000000 0.000000 0.000000
0.000000 0.000000 0.000000
0.000000 0.000000 0.000000
0.000000 0.000000 0.000000
0.000000 0.000000 0.000000
0.000000 0.000000 0.000000
0.036682 0.000000 0.000000
0.110779 0.000000 0.000000
0.184875 0.000000 0.000000
0.258972 0.000000 0.000000
0.333099 0.000000 0.000000
0.407166 0.000000 0.000000
0.481262 0.000000 0.000000
0.555389 0.000000 0.000000
0.629486 0.000000 0.000000
0.703583 0.000000 0.000000
0.777679 0.000000 0.000000
0.851807 0.000000 0.000000
0.925903 0.000000 0.000000
1.000000 0.000000 0.000000
0.000000 0.036682 0.000000
0.000000 0.036682 0.000000
0.000000 0.036682 0.000000
0.000000 0.036682 0.000000
0.000000 0.036682 0.000000
0.000000 0.036682 0.000000
0.000000 0.036682 0.000000
0.000000 0.036682 0.000000
0.000000 0.036682 0.000000
0.000000 0.036682 0.000000
0.000000 0.036682 0.000000
0.000000 0.036682 0.000000
0.000000 0.036682 0.000000
0.000000 0.036682 0.000000
0.000000 0.036682 0.000000
0.000000 0.036682 0.000000
0.000000 0.036682 0.000000
0.000000 0.036682 0.000000
0.036682 0.036682 0.000000
0.110779 0.036682 0.000000
0.184875 0.036682 0.000000
0.258972 0.036682 0.000000
0.333099 0.036682 0.000000
0.407166 0.036682 0.000000
0.481262 0.036682 0.000000
0.555389 0.036682 0.000000
0.629486 0.036682 0.000000
0.703583 0.036682 0.000000
0.777679 0.036682 0.000000
0.851807 0.036682 0.000000
0.925903 0.036682 0.000000
1.000000 0.036682 0.000000
0.000000 0.110779 0.000000
0.000000 0.110779 0.000000
0.000000 0.110779 0.000000
0.000000 0.110779 0.000000
0.000000 0.110779 0.000000
0.000000 0.110779 0.000000
0.000000 0.110779 0.000000
0.000000 0.110779 0.000000
0.000000 0.110779 0.000000
0.000000 0.110779 0.000000
0.000000 0.110779 0.000000
0.000000 0.110779 0.000000
0.000000 0.110779 0.000000
0.000000 0.110779 0.000000
0.000000 0.110779 0.000000
0.000000 0.110779 0.000000
0.000000 0.110779 0.000000
0.000000 0.110779 0.000000
0.036682 0.110779 0.000000
0.110779 0.110779 0.000000
0.184875 0.110779 0.000000
0.258972 0.110779 0.000000
0.333099 0.110779 0.000000
0.407166 0.110779 0.000000
0.481262 0.110779 0.000000
0.555389 0.110779 0.000000
0.629486 0.110779 0.000000
0.703583 0.110779 0.000000
0.777679 0.110779 0.000000
0.851807 0.110779 0.000000
0.925903 0.110779 0.000000
1.000000 0.110779 0.000000
0.000000 0.184875 0.000000
0.000000 0.184875 0.000000
0.000000 0.184875 0.000000
0.000000 0.184875 0.000000
0.000000 0.184875 0.000000
0.000000 0.184875 0.000000
0.000000 0.184875 0.000000
0.000000 0.184875 0.000000
0.000000 0.184875 0.000000
0.000000 0.184875 0.000000
0.000000 0.184875 0.000000
0.000000 0.184875 0.000000
0.000000 0.184875 0.000000
0.000000 0.184875 0.000000
0.000000 0.184875 0.000000
0.000000 0.184875 0.000000
0.000000 0.184875 0.000000
0.000000 0.184875 0.000000
0.036682 0.184875 0.000000
0.110779 0.184875 0.000000
0.184875 0.184875 0.000000
0.258972 0.184875 0.000000
0.333099 0.184875 0.000000
0.407166 0.184875 0.000000
0.481262 0.184875 0.000000
0.555389 0.184875 0.000000
0.629486 0.184875 0.000000
0.703583 0.184875 0.000000
0.777679 0.184875 0.000000
0.851807 0.184875 0.000000
0.925903 0.184875 0.000000
1.000000 0.184875 0.000000
0.000000 0.258972 0.000000
0.000000 0.258972 0.000000
0.000000 0.258972 0.000000
0.000000 0.258972 0.000000
0.000000 0.258972 0.000000
0.000000 0.258972 0.000000
0.000000 0.258972 0.000000
0.000000 0.258972 0.000000
0.000000 0.258972 0.000000
0.000000 0.258972 0.000000
0.000000 0.258972 0.000000
0.000000 0.258972 0.000000
0.000000 0.258972 0.000000
0.000000 0.258972 0.000000
0.000000 0.258972 0.000000
0.000000 0.258972 0.000000
0.000000 0.258972 0.000000
0.000000 0.258972 0.000000
0.036682 0.258972 0.000000
0.110779 0.258972 0.000000
0.184875 0.258972 0.000000
0.258972 0.258972 0.000000
0.333099 0.258972 0.000000
0.407166 0.258972 0.000000
0.481262 0.258972 0.000000
0.555389 0.258972 0.000000
0.629486 0.258972 0.000000
0.703583 0.258972 0.000000
0.777679 0.258972 0.000000
0.851807 0.258972 0.000000
0.925903 0.258972 0.000000
1.000000 0.258972 0.000000
0.000000 0.333099 0.000000
0.000000 0.333099 0.000000
0.000000 0.333099 0.000000
0.000000 0.333099 0.000000
0.000000 0.333099 0.000000
0.000000 0.333099 0.000000
0.000000 0.333099 0.000000
0.000000 0.333099 0.000000
0.000000 0.333099 0.000000
0.000000 0.333099 0.000000
0.000000 0.333099 0.000000
0.000000 0.333099 0.000000
0.000000 0.333099 0.000000
0.000000 0.333099 0.000000
0.000000 0.333099 0.000000
0.000000 0.333099 0.000000
0.000000 0.333099 0.000000
0.000000 0.333099 0.000000
0.036682 0.333099 0.000000
0.110779 0.333099 0.000000
0.184875 0.333099 0.000000
0.258972 0.333099 0.000000
0.333099 0.333099 0.000000
0.407166 0.333099 0.000000
0.481262 0.333099 0.000000
0.555389 0.333099 0.000000
0.629486 0.333099 0.000000
0.703583 0.333099 0.000000
0.777679 0.333099 0.000000
0.851807 0.333099 0.000000
0.925903 0.333099 0.000000
1.000000 0.333099 0.000000
0.000000 0.407166 0.000000
0.000000 0.407166 0.000000
0.000000 0.407166 0.000000
0.000000 0.407166 0.000000
0.000000 0.407166 0.000000
0.000000 0.407166 0.000000
0.000000 0.407166 0.000000
0.000000 0.407166 0.000000
0.000000 0.407166 0.000000
0.000000 0.407166 0.000000
0.000000 0.407166 0.000000
0.000000 0.407166 0.000000
0.000000 0.407166 0.000000
0.000000 0.407166 0.000000
0.000000 0.407166 0.000000
0.000000 0.407166 0.000000
0.000000 0.407166 0.000000
0.000000 0.407166 0.000000
0.036682 0.407166 0.000000
0.110779 0.407166 0.000000
0.184875 0.407166 0.000000
0.258972 0.407166 0.000000
0.333099 0.407166 0.000000
0.407166 0.407166 0.000000
0.481262 0.407166 0.000000
0.555389 0.407166 0.000000
0.629486 0.407166 0.000000
0.703583 0.407166 0.000000
0.777679 0.407166 0.000000
0.851807 0.407166 0.000000
0.925903 0.407166 0.000000
1.000000 0.407166 0.000000
0.000000 0.481262 0.000000
0.000000 0.481262 0.000000
0.000000 0.481262 0.000000
0.000000 0.481262 0.000000
0.000000 0.481262 0.000000
0.000000 0.481262 0.000000
0.000000 0.481262 0.000000
0.000000 0.481262 0.000000
0.000000 0.481262 0.000000
0.000000 0.481262 0.000000
0.000000 0.481262 0.000000
0.000000 0.481262 0.000000
0.000000 0.481262 0.000000
0.000000 0.481262 0.000000
0.000000 0.481262 0.000000
0.000000 0.481262 0.000000
0.000000 0.481262 0.000000
0.000000 0.481262 0.000000
0.036682 0.481262 0.000000
0.110779 0.481262 0.000000
0.184875 0.481262 0.000000
0.258972 0.481262 0.000000
0.333099 0.481262 0.000000
0.407166 0.481262 0.000000
0.481262 0.481262 0.000000
0.555389 0.481262 0.000000
0.629486 0.481262 0.000000
0.703583 0.481262 0.000000
0.777679 0.481262 0.000000
0.851807 0.481262 0.000000
0.925903 0.481262 0.000000
1.000000 0.481262 0.000000
0.000000 0.555389 0.000000
0.000000 0.555389 0.000000
0.000000 0.555389 0.000000
0.000000 0.555389 0.000000
0.000000 0.555389 0.000000
0.000000 0.555389 0.000000
0.000000 0.555389 0.000000
0.000000 0.555389 0.000000
0.000000 0.555389 0.000000
0.000000 0.555389 0.000000
0.000000 0.555389 0.000000
0.000000 0.555389 0.000000
0.000000 0.555389 0.000000
0.000000 0.555389 0.000000
0.000000 0.555389 0.000000
0.000000 0.555389 0.000000
0.000000 0.555389 0.000000
0.000000 0.555389 0.000000
0.036682 0.555389 0.000000
0.110779 0.555389 0.000000
0.184875 0.555389 0.000000
0.258972 0.555389 0.000000
0.333099 0.555389 0.000000
0.407166 0.555389 0.000000
0.481262 0.555389 0.000000
0.555389 0.555389 0.000000
0.629486 0.555389 0.000000
0.703583 0.555389 0.000000
0.777679 0.555389 0.000000
0.851807 0.555389 0.000000
0.925903 0.555389 0.000000
1.000000 0.555389 0.000000
0.000000 0.629486 0.000000
0.000000 0.629486 0.000000
0.000000 0.629486 0.000000
0.000000 0.629486 0.000000
0.000000 0.629486 0.000000
0.000000 0.629486 0.000000
0.000000 0.629486 0.000000
0.000000 0.629486 0.000000
0.000000 0.629486 0.000000
0.000000 0.629486 0.000000
0.000000 0.629486 0.000000
0.000000 0.629486 0.000000
0.000000 0.629486 0.000000
0.000000 0.629486 0.000000
0.000000 0.629486 0.000000
0.000000 0.629486 0.000000
0.000000 0.629486 0.000000
0.000000 0.629486 0.000000
0.036682 0.629486 0.000000
0.110779 0.629486 0.000000
0.184875 0.629486 0.000000
0.258972 0.629486 0.000000
0.333099 0.629486 0.000000
0.407166 0.629486 0.000000
0.481262 0.629486 0.000000
0.555389 0.629486 0.000000
0.629486 0.629486 0.000000
0.703583 0.629486 0.000000
0.777679 0.629486 0.000000
0.851807 0.629486 0.000000
0.925903 0.629486 0.000000
1.000000 0.629486 0.000000
0.000000 0.703583 0.000000
0.000000 0.703583 0.000000
0.000000 0.703583 0.000000
0.000000 0.703583 0.000000
0.000000 0.703583 0.000000
0.000000 0.703583 0.000000
0.000000 0.703583 0.000000
0.000000 0.703583 0.000000
0.000000 0.703583 0.000000
0.000000 0.703583 0.000000
0.000000 0.703583 0.000000
0.000000 0.703583 0.000000
0.000000 0.703583 0.000000
0.000000 0.703583 0.000000
0.000000 0.703583 0.000000
0.000000 0.703583 0.000000
0.000000 0.703583 0.000000
0.000000 0.703583 0.000000
