Submissions/LUTs/Samples/LUTs-Export-s01.cube
#Created by: Adobe Photoshop Export Color Lookup Plugin
#Copyright: (C) Copyright 2025 ObsoleteThor
TITLE "LUT-export-s01"
#LUT size
LUT_3D_SIZE 32
#data domain
DOMAIN_MIN 0.0 0.0 0.0
DOMAIN_MAX 1.0 1.0 1.0
#LUT data points
0.000000 0.000000 0.000000
0.000000 0.000000 0.000000
0.000000 0.000000 0.000000
0.000000 0.000000 0.000000
0.000000 0.000000 0.000000
0.000000 0.000000 0.000000
0.000000 0.000000 0.000000
0.000000 0.000000 0.000000
0.000000 0.000000 0.000000
0.000000 0.000000 0.000000
0.000000 0.000000 0.000000
0.000000 0.000000 0.000000
0.035187 0.000000 0.000000
0.085938 0.000000 0.000000
0.136719 0.000000 0.000000
0.187500 0.000000 0.000000
0.238342 0.000000 0.000000
0.289093 0.000000 0.000000
0.339905 0.000000 0.000000
0.390656 0.000000 0.000000
0.441437 0.000000 0.000000
0.492218 0.000000 0.000000
0.542999 0.000000 0.000000
0.593781 0.000000 0.000000
0.644562 0.000000 0.000000
0.695312 0.000000 0.000000
0.746124 0.000000 0.000000
0.796906 0.000000 0.000000
0.847656 0.000000 0.000000
0.898438 0.000000 0.000000
0.949219 0.000000 0.000000
1.000000 0.000000 0.000000
0.000000 0.000000 0.000000
0.000000 0.000000 0.000000
0.000000 0.000000 0.000000
0.000000 0.000000 0.000000
0.000000 0.000000 0.000000
0.000000 0.000000 0.000000
0.000000 0.000000 0.000000
0.000000 0.000000 0.000000
0.000000 0.000000 0.000000
0.000000 0.000000 0.000000
0.000000 0.000000 0.000000
0.000000 0.000000 0.000000
0.035187 0.000000 0.000000
0.085938 0.000000 0.000000
0.136719 0.000000 0.000000
0.187500 0.000000 0.000000
0.238342 0.000000 0.000000
0.289093 0.000000 0.000000
0.339905 0.000000 0.000000
0.390656 0.000000 0.000000
0.441437 0.000000 0.000000
0.492218 0.000000 0.000000
0.542999 0.000000 0.000000
0.593781 0.000000 0.000000
0.644562 0.000000 0.000000
0.695312 0.000000 0.000000
0.746124 0.000000 0.000000
0.796906 0.000000 0.000000
0.847656 0.000000 0.000000
0.898438 0.000000 0.000000
0.949219 0.000000 0.000000
1.000000 0.000000 0.000000
0.000000 0.000000 0.000000
0.000000 0.000000 0.000000
0.000000 0.000000 0.000000
0.000000 0.000000 0.000000
0.000000 0.000000 0.000000
0.000000 0.000000 0.000000
0.000000 0.000000 0.000000
0.000000 0.000000 0.000000
0.000000 0.000000 0.000000
0.000000 0.000000 0.000000
0.000000 0.000000 0.000000
0.000000 0.000000 0.000000
0.035187 0.000000 0.000000
0.085938 0.000000 0.000000
0.136719 0.000000 0.000000
0.187500 0.000000 0.000000
0.238342 0.000000 0.000000
0.289093 0.000000 0.000000
0.339905 0.000000 0.000000
0.390656 0.000000 0.000000
0.441437 0.000000 0.000000
0.492218 0.000000 0.000000
0.542999 0.000000 0.000000
0.593781 0.000000 0.000000
0.644562 0.000000 0.000000
0.695312 0.000000 0.000000
0.746124 0.000000 0.000000
0.796906 0.000000 0.000000
0.847656 0.000000 0.000000
0.898438 0.000000 0.000000
0.949219 0.000000 0.000000
1.000000 0.000000 0.000000
0.000000 0.000000 0.000000
0.000000 0.000000 0.000000
0.000000 0.000000 0.000000
0.000000 0.000000 0.000000
0.000000 0.000000 0.000000
0.000000 0.000000 0.000000
0.000000 0.000000 0.000000
0.000000 0.000000 0.000000
0.000000 0.000000 0.000000
0.000000 0.000000 0.000000
0.000000 0.000000 0.000000
0.000000 0.000000 0.000000
0.035187 0.000000 0.000000
0.085938 0.000000 0.000000
0.136719 0.000000 0.000000
0.187500 0.000000 0.000000
0.238342 0.000000 0.000000
0.289093 0.000000 0.000000
0.339905 0.000000 0.000000
0.390656 0.000000 0.000000
0.441437 0.000000 0.000000
0.492218 0.000000 0.000000
0.542999 0.000000 0.000000
0.593781 0.000000 0.000000
0.644562 0.000000 0.000000
0.695312 0.000000 0.000000
0.746124 0.000000 0.000000
0.796906 0.000000 0.000000
0.847656 0.000000 0.000000
0.898438 0.000000 0.000000
0.949219 0.000000 0.000000
1.000000 0.000000 0.000000
0.000000 0.000000 0.000000
0.000000 0.000000 0.000000
0.000000 0.000000 0.000000
0.000000 0.000000 0.000000
0.000000 0.000000 0.000000
0.000000 0.000000 0.000000
0.000000 0.000000 0.000000
0.000000 0.000000 0.000000
0.000000 0.000000 0.000000
0.000000 0.000000 0.000000
0.000000 0.000000 0.000000
0.000000 0.000000 0.000000
0.035187 0.000000 0.000000
0.085938 0.000000 0.000000
0.136719 0.000000 0.000000
0.187500 0.000000 0.000000
0.238342 0.000000 0.000000
0.289093 0.000000 0.000000
0.339905 0.000000 0.000000
0.390656 0.000000 0.000000
0.441437 0.000000 0.000000
0.492218 0.000000 0.000000
0.542999 0.000000 0.000000
0.593781 0.000000 0.000000
0.644562 0.000000 0.000000
0.695312 0.000000 0.000000
0.746124 0.000000 0.000000
0.796906 0.000000 0.000000
0.847656 0.000000 0.000000
0.898438 0.000000 0.000000
0.949219 0.000000 0.000000
1.000000 0.000000 0.000000
0.000000 0.000000 0.000000
0.000000 0.000000 0.000000
0.000000 0.000000 0.000000
0.000000 0.000000 0.000000
0.000000 0.000000 0.000000
0.000000 0.000000 0.000000
0.000000 0.000000 0.000000
0.000000 0.000000 0.000000
0.000000 0.000000 0.000000
0.000000 0.000000 0.000000
0.000000 0.000000 0.000000
0.000000 0.000000 0.000000
0.035187 0.000000 0.000000
0.085938 0.000000 0.000000
0.136719 0.000000 0.000000
0.187500 0.000000 0.000000
0.238342 0.000000 0.000000
0.289093 0.000000 0.000000
0.339905 0.000000 0.000000
0.390656 0.000000 0.000000
0.441437 0.000000 0.000000
0.492218 0.000000 0.000000
0.542999 0.000000 0.000000
0.593781 0.000000 0.000000
0.644562 0.000000 0.000000
0.695312 0.000000 0.000000
0.746124 0.000000 0.000000
0.796906 0.000000 0.000000
0.847656 0.000000 0.000000
0.898438 0.000000 0.000000
0.949219 0.000000 0.000000
1.000000 0.000000 0.000000
0.000000 0.000000 0.000000
0.000000 0.000000 0.000000
0.000000 0.000000 0.000000
0.000000 0.000000 0.000000
0.000000 0.000000 0.000000
0.000000 0.000000 0.000000
0.000000 0.000000 0.000000
0.000000 0.000000 0.000000
0.000000 0.000000 0.000000
0.000000 0.000000 0.000000
0.000000 0.000000 0.000000
0.000000 0.000000 0.000000
0.035187 0.000000 0.000000
0.085938 0.000000 0.000000
0.136719 0.000000 0.000000
0.187500 0.000000 0.000000
0.238342 0.000000 0.000000
0.289093 0.000000 0.000000
0.339905 0.000000 0.000000
0.390656 0.000000 0.000000
0.441437 0.000000 0.000000
0.492218 0.000000 0.000000
0.542999 0.000000 0.000000
0.593781 0.000000 0.000000
0.644562 0.000000 0.000000
0.695312 0.000000 0.000000
0.746124 0.000000 0.000000
0.796906 0.000000 0.000000
0.847656 0.000000 0.000000
0.898438 0.000000 0.000000
0.949219 0.000000 0.000000
1.000000 0.000000 0.000000
0.000000 0.000000 0.000000
0.000000 0.000000 0.000000
0.000000 0.000000 0.000000
0.000000 0.000000 0.000000
0.000000 0.000000 0.000000
0.000000 0.000000 0.000000
0.000000 0.000000 0.000000
0.000000 0.000000 0.000000
0.000000 0.000000 0.000000
0.000000 0.000000 0.000000
0.000000 0.000000 0.000000
0.000000 0.000000 0.000000
0.035187 0.000000 0.000000
0.085938 0.000000 0.000000
0.136719 0.000000 0.000000
0.187500 0.000000 0.000000
0.238342 0.000000 0.000000
0.289093 0.000000 0.000000
0.339905 0.000000 0.000000
0.390656 0.000000 0.000000
0.441437 0.000000 0.000000
0.492218 0.000000 0.000000
0.542999 0.000000 0.000000
0.593781 0.000000 0.000000
0.644562 0.000000 0.000000
0.695312 0.000000 0.000000
0.746124 0.000000 0.000000
0.796906 0.000000 0.000000
0.847656 0.000000 0.000000
0.898438 0.000000 0.000000
0.949219 0.000000 0.000000
1.000000 0.000000 0.000000
0.000000 0.000000 0.000000
0.000000 0.000000 0.000000
0.000000 0.000000 0.000000
0.000000 0.000000 0.000000
0.000000 0.000000 0.000000
0.000000 0.000000 0.000000
0.000000 0.000000 0.000000
0.000000 0.000000 0.000000
0.000000 0.000000 0.000000
0.000000 0.000000 0.000000
0.000000 0.000000 0.000000
0.000000 0.000000 0.000000
0.035187 0.000000 0.000000
0.085938 0.000000 0.000000
0.136719 0.000000 0.000000
0.187500 0.000000 0.000000
0.238342 0.000000 0.000000
0.289093 0.000000 0.000000
0.339905 0.000000 0.000000
0.390656 0.000000 0.000000
0.441437 0.000000 0.000000
0.492218 0.000000 0.000000
0.542999 0.000000 0.000000
0.593781 0.000000 0.000000
0.644562 0.000000 0.000000
0.695312 0.000000 0.000000
0.746124 0.000000 0.000000
0.796906 0.000000 0.000000
0.847656 0.000000 0.000000
0.898438 0.000000 0.000000
0.949219 0.000000 0.000000
1.000000 0.000000 0.000000
0.000000 0.000000 0.000000
0.000000 0.000000 0.000000
0.000000 0.000000 0.000000
0.000000 0.000000 0.000000
0.000000 0.000000 0.000000
0.000000 0.000000 0.000000
0.000000 0.000000 0.000000
0.000000 0.000000 0.000000
0.000000 0.000000 0.000000
0.000000 0.000000 0.000000
0.000000 0.000000 0.000000
0.000000 0.000000 0.000000
0.035187 0.000000 0.000000
0.085938 0.000000 0.000000
0.136719 0.000000 0.000000
0.187500 0.000000 0.000000
0.238342 0.000000 0.000000
0.289093 0.000000 0.000000
0.339905 0.000000 0.000000
0.390656 0.000000 0.000000
0.441437 0.000000 0.000000
0.492218 0.000000 0.000000
0.542999 0.000000 0.000000
0.593781 0.000000 0.000000
0.644562 0.000000 0.000000
0.695312 0.000000 0.000000
0.746124 0.000000 0.000000
0.796906 0.000000 0.000000
0.847656 0.000000 0.000000
0.898438 0.000000 0.000000
0.949219 0.000000 0.000000
1.000000 0.000000 0.000000
0.000000 0.000000 0.000000
0.000000 0.000000 0.000000
0.000000 0.000000 0.000000
0.000000 0.000000 0.000000
0.000000 0.000000 0.000000
0.000000 0.000000 0.000000
0.000000 0.000000 0.000000
0.000000 0.000000 0.000000
0.000000 0.000000 0.000000
0.000000 0.000000 0.000000
0.000000 0.000000 0.000000
0.000000 0.000000 0.000000
0.035187 0.000000 0.000000
0.085938 0.000000 0.000000
0.136719 0.000000 0.000000
0.187500 0.000000 0.000000
0.238342 0.000000 0.000000
0.289093 0.000000 0.000000
0.339905 0.000000 0.000000
0.390656 0.000000 0.000000
0.441437 0.000000 0.000000
0.492218 0.000000 0.000000
0.542999 0.000000 0.000000
0.593781 0.000000 0.000000
0.644562 0.000000 0.000000
0.695312 0.000000 0.000000
0.746124 0.000000 0.000000
0.796906 0.000000 0.000000
0.847656 0.000000 0.000000
0.898438 0.000000 0.000000
0.949219 0.000000 0.000000
1.000000 0.000000 0.000000
0.000000 0.000000 0.000000
0.000000 0.000000 0.000000
0.000000 0.000000 0.000000
0.000000 0.000000 0.000000
0.000000 0.000000 0.000000
0.000000 0.000000 0.000000
0.000000 0.000000 0.000000
0.000000 0.000000 0.000000
0.000000 0.000000 0.000000
0.000000 0.000000 0.000000
0.000000 0.000000 0.000000
0.000000 0.000000 0.000000
0.035187 0.000000 0.000000
0.085938 0.000000 0.000000
0.136719 0.000000 0.000000
0.187500 0.000000 0.000000
0.238342 0.000000 0.000000
0.289093 0.000000 0.000000
0.339905 0.000000 0.000000
0.390656 0.000000 0.000000
0.441437 0.000000 0.000000
0.492218 0.000000 0.000000
0.542999 0.000000 0.000000
0.593781 0.000000 0.000000
0.644562 0.000000 0.000000
0.695312 0.000000 0.000000
0.746124 0.000000 0.000000
0.796906 0.000000 0.000000
0.847656 0.000000 0.000000
0.898438 0.000000 0.000000
0.949219 0.000000 0.000000
1.000000 0.000000 0.000000
0.000000 0.035187 0.000000
0.000000 0.035187 0.000000
0.000000 0.035187 0.000000
0.000000 0.035187 0.000000
0.000000 0.035187 0.000000
0.000000 0.035187 0.000000
0.000000 0.035187 0.000000
0.000000 0.035187 0.000000
0.000000 0.035187 0.000000
0.000000 0.035187 0.000000
0.000000 0.035187 0.000000
0.000000 0.035187 0.000000
0.035187 0.035187 0.000000
0.085938 0.035187 0.000000
0.136719 0.035187 0.000000
0.187500 0.035187 0.000000
0.238342 0.035187 0.000000
0.289093 0.035187 0.000000
0.339905 0.035187 0.000000
0.390656 0.035187 0.000000
0.441437 0.035187 0.000000
0.492218 0.035187 0.000000
0.542999 0.035187 0.000000
0.593781 0.035187 0.000000
0.644562 0.035187 0.000000
0.695312 0.035187 0.000000
0.746124 0.035187 0.000000
0.796906 0.035187 0.000000
0.847656 0.035187 0.000000
0.898438 0.035187 0.000000
0.949219 0.035187 0.000000
1.000000 0.035187 0.000000
0.000000 0.085938 0.000000
0.000000 0.085938 0.000000
0.000000 0.085938 0.000000
0.000000 0.085938 0.000000
0.000000 0.085938 0.000000
0.000000 0.085938 0.000000
0.000000 0.085938 0.000000
0.000000 0.085938 0.000000
0.000000 0.085938 0.000000
0.000000 0.085938 0.000000
0.000000 0.085938 0.000000
0.000000 0.085938 0.000000
0.035187 0.085938 0.000000
0.085938 0.085938 0.000000
0.136719 0.085938 0.000000
0.187500 0.085938 0.000000
0.238342 0.085938 0.000000
0.289093 0.085938 0.000000
0.339905 0.085938 0.000000
0.390656 0.085938 0.000000
0.441437 0.085938 0.000000
0.492218 0.085938 0.000000
0.542999 0.085938 0.000000
0.593781 0.085938 0.000000
0.644562 0.085938 0.000000
0.695312 0.085938 0.000000
0.746124 0.085938 0.000000
0.796906 0.085938 0.000000
0.847656 0.085938 0.000000
0.898438 0.085938 0.000000
0.949219 0.085938 0.000000
1.000000 0.085938 0.000000
0.000000 0.136719 0.000000
0.000000 0.136719 0.000000
0.000000 0.136719 0.000000
0.000000 0.136719 0.000000
0.000000 0.136719 0.000000
0.000000 0.136719 0.000000
0.000000 0.136719 0.000000
0.000000 0.136719 0.000000
0.000000 0.136719 0.000000
0.000000 0.136719 0.000000
0.000000 0.136719 0.000000
0.000000 0.136719 0.000000
0.035187 0.136719 0.000000
0.085938 0.136719 0.000000
0.136719 0.136719 0.000000
0.187500 0.136719 0.000000
0.238342 0.136719 0.000000
0.289093 0.136719 0.000000
0.339905 0.136719 0.000000
0.390656 0.136719 0.000000
0.441437 0.136719 0.000000
0.492218 0.136719 0.000000
0.542999 0.136719 0.000000
0.593781 0.136719 0.000000
0.644562 0.136719 0.000000
0.695312 0.136719 0.000000
0.746124 0.136719 0.000000
0.796906 0.136719 0.000000
0.847656 0.136719 0.000000
0.898438 0.136719 0.000000
0.949219 0.136719 0.000000
1.000000 0.136719 0.000000
0.000000 0.187500 0.000000
0.000000 0.187500 0.000000
0.000000 0.187500 0.000000
0.000000 0.187500 0.000000
0.000000 0.187500 0.000000
0.000000 0.187500 0.000000
0.000000 0.187500 0.000000
0.000000 0.187500 0.000000
0.000000 0.187500 0.000000
0.000000 0.187500 0.000000
0.000000 0.187500 0.000000
0.000000 0.187500 0.000000
0.035187 0.187500 0.000000
0.085938 0.187500 0.000000
0.136719 0.187500 0.000000
0.187500 0.187500 0.000000
0.238342 0.187500 0.000000
0.289093 0.187500 0.000000
0.339905 0.187500 0.000000
0.390656 0.187500 0.000000
0.441437 0.187500 0.000000
0.492218 0.187500 0.000000
0.542999 0.187500 0.000000
0.593781 0.187500 0.000000
0.644562 0.187500 0.000000
0.695312 0.187500 0.000000
0.746124 0.187500 0.000000
0.796906 0.187500 0.000000
0.847656 0.187500 0.000000
0.898438 0.187500 0.000000
0.949219 0.187500 0.000000
1.000000 0.187500 0.000000
0.000000 0.238342 0.000000
0.000000 0.238342 0.000000
0.000000 0.238342 0.000000
0.000000 0.238342 0.000000
0.000000 0.238342 0.000000
0.000000 0.238342 0.000000
0.000000 0.238342 0.000000
0.000000 0.238342 0.000000
0.000000 0.238342 0.000000
0.000000 0.238342 0.000000
0.000000 0.238342 0.000000
0.000000 0.238342 0.000000
0.035187 0.238342 0.000000
0.085938 0.238342 0.000000
0.136719 0.238342 0.000000
0.187500 0.238342 0.000000
0.238342 0.238342 0.000000
0.289093 0.238342 0.000000
0.339905 0.238342 0.000000
0.390656 0.238342 0.000000
0.441437 0.238342 0.000000
0.492218 0.238342 0.000000
0.542999 0.238342 0.000000
0.593781 0.238342 0.000000
0.644562 0.238342 0.000000
0.695312 0.238342 0.000000
0.746124 0.238342 0.000000
0.796906 0.238342 0.000000
0.847656 0.238342 0.000000
0.898438 0.238342 0.000000
0.949219 0.238342 0.000000
1.000000 0.238342 0.000000
0.000000 0.289093 0.000000
0.000000 0.289093 0.000000
0.000000 0.289093 0.000000
0.000000 0.289093 0.000000
0.000000 0.289093 0.000000
0.000000 0.289093 0.000000
0.000000 0.289093 0.000000
0.000000 0.289093 0.000000
0.000000 0.289093 0.000000
0.000000 0.289093 0.000000
0.000000 0.289093 0.000000
0.000000 0.289093 0.000000
0.035187 0.289093 0.000000
0.085938 0.289093 0.000000
0.136719 0.289093 0.000000
0.187500 0.289093 0.000000
0.238342 0.289093 0.000000
0.289093 0.289093 0.000000
0.339905 0.289093 0.000000
0.390656 0.289093 0.000000
0.441437 0.289093 0.000000
0.492218 0.289093 0.000000
0.542999 0.289093 0.000000
0.593781 0.289093 0.000000
0.644562 0.289093 0.000000
0.695312 0.289093 0.000000
0.746124 0.289093 0.000000
0.796906 0.289093 0.000000
0.847656 0.289093 0.000000
0.898438 0.289093 0.000000
0.949219 0.289093 0.000000
1.000000 0.289093 0.000000
0.000000 0.339905 0.000000
0.000000 0.339905 0.000000
0.000000 0.339905 0.000000
0.000000 0.339905 0.000000
0.000000 0.339905 0.000000
0.000000 0.339905 0.000000
0.000000 0.339905 0.000000
0.000000 0.339905 0.000000
0.000000 0.339905 0.000000
0.000000 0.339905 0.000000
0.000000 0.339905 0.000000
0.000000 0.339905 0.000000
0.035187 0.339905 0.000000
0.085938 0.339905 0.000000
0.136719 0.339905 0.000000
0.187500 0.339905 0.000000
0.238342 0.339905 0.000000
0.289093 0.339905 0.000000
0.339905 0.339905 0.000000
0.390656 0.339905 0.000000
0.441437 0.339905 0.000000
0.492218 0.339905 0.000000
0.542999 0.339905 0.000000
0.593781 0.339905 0.000000
0.644562 0.339905 0.000000
0.695312 0.339905 0.000000
0.746124 0.339905 0.000000
0.796906 0.339905 0.000000
0.847656 0.339905 0.000000
0.898438 0.339905 0.000000
0.949219 0.339905 0.000000
1.000000 0.339905 0.000000
0.000000 0.390656 0.000000
0.000000 0.390656 0.000000
0.000000 0.390656 0.000000
0.000000 0.390656 0.000000
0.000000 0.390656 0.000000
0.000000 0.390656 0.000000
0.000000 0.390656 0.000000
0.000000 0.390656 0.000000
0.000000 0.390656 0.000000
0.000000 0.390656 0.000000
0.000000 0.390656 0.000000
0.000000 0.390656 0.000000
0.035187 0.390656 0.000000
0.085938 0.390656 0.000000
0.136719 0.390656 0.000000
0.187500 0.390656 0.000000
0.238342 0.390656 0.000000
0.289093 0.390656 0.000000
0.339905 0.390656 0.000000
0.390656 0.390656 0.000000
0.441437 0.390656 0.000000
0.492218 0.390656 0.000000
0.542999 0.390656 0.000000
0.593781 0.390656 0.000000
0.644562 0.390656 0.000000
0.695312 0.390656 0.000000
0.746124 0.390656 0.000000
0.796906 0.390656 0.000000
0.847656 0.390656 0.000000
0.898438 0.390656 0.000000
0.949219 0.390656 0.000000
1.000000 0.390656 0.000000
0.000000 0.441437 0.000000
0.000000 0.441437 0.000000
0.000000 0.441437 0.000000
0.000000 0.441437 0.000000
0.000000 0.441437 0.000000
0.000000 0.441437 0.000000
0.000000 0.441437 0.000000
0.000000 0.441437 0.000000
0.000000 0.441437 0.000000
0.000000 0.441437 0.000000
0.000000 0.441437 0.000000
0.000000 0.441437 0.000000
0.035187 0.441437 0.000000
0.085938 0.441437 0.000000
0.136719 0.441437 0.000000
0.187500 0.441437 0.000000
0.238342 0.441437 0.000000
0.289093 0.441437 0.000000
0.339905 0.441437 0.000000
0.390656 0.441437 0.000000
0.441437 0.441437 0.000000
0.492218 0.441437 0.000000
0.542999 0.441437 0.000000
0.593781 0.441437 0.000000
0.644562 0.441437 0.000000
0.695312 0.441437 0.000000
0.746124 0.441437 0.000000
0.796906 0.441437 0.000000
0.847656 0.441437 0.000000
0.898438 0.441437 0.000000
0.949219 0.441437 0.000000
1.000000 0.441437 0.000000
0.000000 0.492218 0.000000
0.000000 0.492218 0.000000
0.000000 0.492218 0.000000
0.000000 0.492218 0.000000
0.000000 0.492218 0.000000
0.000000 0.492218 0.000000
0.000000 0.492218 0.000000
0.000000 0.492218 0.000000
0.000000 0.492218 0.000000
0.000000 0.492218 0.000000
0.000000 0.492218 0.000000
0.000000 0.492218 0.000000
0.035187 0.492218 0.000000
0.085938 0.492218 0.000000
0.136719 0.492218 0.000000
0.187500 0.492218 0.000000
0.238342 0.492218 0.000000
0.289093 0.492218 0.000000
0.339905 0.492218 0.000000
0.390656 0.492218 0.000000
0.441437 0.492218 0.000000
0.492218 0.492218 0.000000
0.542999 0.492218 0.000000
0.593781 0.492218 0.000000
0.644562 0.492218 0.000000
0.695312 0.492218 0.000000
0.746124 0.492218 0.000000
0.796906 0.492218 0.000000
0.847656 0.492218 0.000000
0.898438 0.492218 0.000000
0.949219 0.492218 0.000000
1.000000 0.492218 0.000000
0.000000 0.542999 0.000000
0.000000 0.542999 0.000000
0.000000 0.542999 0.000000
0.000000 0.542999 0.000000
0.000000 0.542999 0.000000
0.000000 0.542999 0.000000
0.000000 0.542999 0.000000
0.000000 0.542999 0.000000
0.000000 0.542999 0.000000
0.000000 0.542999 0.000000
0.000000 0.542999 0.000000
0.000000 0.542999 0.000000
0.035187 0.542999 0.000000
0.085938 0.542999 0.000000
0.136719 0.542999 0.000000
0.187500 0.542999 0.000000
0.238342 0.542999 0.000000
0.289093 0.542999 0.000000
0.339905 0.542999 0.000000
0.390656 0.542999 0.000000
0.441437 0.542999 0.000000
0.492218 0.542999 0.000000
0.542999 0.542999 0.000000
0.593781 0.542999 0.000000
0.644562 0.542999 0.000000
0.695312 0.542999 0.000000
0.746124 0.542999 0.000000
0.796906 0.542999 0.000000
0.847656 0.542999 0.000000
0.898438 0.542999 0.000000
0.949219 0.542999 0.000000
1.000000 0.542999 0.000000
0.000000 0.593781 0.000000
0.000000 0.593781 0.000000
0.000000 0.593781 0.000000
0.000000 0.593781 0.000000
0.000000 0.593781 0.000000
0.000000 0.593781 0.000000
0.000000 0.593781 0.000000
0.000000 0.593781 0.000000
0.000000 0.593781 0.000000
0.000000 0.593781 0.000000
0.000000 0.593781 0.000000
0.000000 0.593781 0.000000
0.035187 0.593781 0.000000
0.085938 0.593781 0.000000
0.136719 0.593781 0.000000
0.187500 0.593781 0.000000
0.238342 0.593781 0.000000
0.289093 0.593781 0.000000
0.339905 0.593781 0.000000
0.390656 0.593781 0.000000
0.441437 0.593781 0.000000
0.492218 0.593781 0.000000
0.542999 0.593781 0.000000
0.593781 0.593781 0.000000
0.644562 0.593781 0.000000
0.695312 0.593781 0.000000
0.746124 0.593781 0.000000
0.796906 0.593781 0.000000
0.847656 0.593781 0.000000
0.898438 0.593781 0.000000
0.949219 0.593781 0.000000
1.000000 0.593781 0.000000
0.000000 0.644562 0.000000
0.000000 0.644562 0.000000
0.000000 0.644562 0.000000
0.000000 0.644562 0.000000
0.000000 0.644562 0.000000
0.000000 0.644562 0.000000
0.000000 0.644562 0.000000
0.000000 0.644562 0.000000
0.000000 0.644562 0.000000
0.000000 0.644562 0.000000
0.000000 0.644562 0.000000
0.000000 0.644562 0.000000
0.035187 0.644562 0.000000
0.085938 0.644562 0.000000
0.136719 0.644562 0.000000
0.187500 0.644562 0.000000
0.238342 0.644562 0.000000
0.289093 0.644562 0.000000
0.339905 0.644562 0.000000
0.390656 0.644562 0.000000
0.441437 0.644562 0.000000
0.492218 0.644562 0.000000
0.542999 0.644562 0.000000
0.593781 0.644562 0.000000
0.644562 0.644562 0.000000
0.695312 0.644562 0.000000
0.746124 0.644562 0.000000
0.796906 0.644562 0.000000
0.847656 0.644562 0.000000
0.898438 0.644562 0.000000
0.949219 0.644562 0.000000
1.000000 0.644562 0.000000
0.000000 0.695312 0.000000
0.000000 0.695312 0.000000
0.000000 0.695312 0.000000
0.000000 0.695312 0.000000
0.000000 0.695312 0.000000
0.000000 0.695312 0.000000
0.000000 0.695312 0.000000
0.000000 0.695312 0.000000
0.000000 0.695312 0.000000
0.000000 0.695312 0.000000
0.000000 0.695312 0.000000
0.000000 0.695312 0.000000
0.035187 0.695312 0.000000
0.085938 0.695312 0.000000
0.136719 0.695312 0.000000
0.187500 0.695312 0.000000
0.238342 0.695312 0.000000
0.289093 0.695312 0.000000
0.339905 0.695312 0.000000
0.390656 0.695312 0.000000
0.441437 0.695312 0.000000
0.492218 0.695312 0.000000
0.542999 0.695312 0.000000
0.593781 0.695312 0.000000
0.644562 0.695312 0.000000
0.695312 0.695312 0.000000
0.746124 0.695312 0.000000
0.796906 0.695312 0.000000
0.847656 0.695312 0.000000
0.898438 0.695312 0.000000
0.949219 0.695312 0.000000
1.000000 0.695312 0.000000
0.000000 0.746124 0.000000
0.000000 0.746124 0.000000
0.000000 0.746124 0.000000
0.000000 0.746124 0.000000
0.000000 0.746124 0.000000
0.000000 0.746124 0.000000
0.000000 0.746124 0.000000
0.000000 0.746124 0.000000
0.000000 0.746124 0.000000
0.000000 0.746124 0.000000
0.000000 0.746124 0.000000
0.000000 0.746124 0.000000
0.035187 0.746124 0.000000
0.085938 0.746124 0.000000
0.136719 0.746124 0.000000
0.187500 0.746124 0.000000
0.238342 0.746124 0.000000
0.289093 0.746124 0.000000
0.339905 0.746124 0.000000
0.390656 0.746124 0.000000
0.441437 0.746124 0.000000
0.492218 0.746124 0.000000
0.542999 0.746124 0.000000
0.593781 0.746124 0.000000
0.644562 0.746124 0.000000
0.695312 0.746124 0.000000
0.746124 0.746124 0.000000
0.796906 0.746124 0.000000
0.847656 0.746124 0.000000
0.898438 0.746124 0.000000
0.949219 0.746124 0.000000
1.000000 0.746124 0.000000
0.000000 0.796906 0.000000
0.000000 0.796906 0.000000
0.000000 0.796906 0.000000
0.000000 0.796906 0.000000
0.000000 0.796906 0.000000
0.000000 0.796906 0.000000
0.000000 0.796906 0.000000
0.000000 0.796906 0.000000
0.000000 0.796906 0.000000
0.000000 0.796906 0.000000
0.000000 0.796906 0.000000
0.000000 0.796906 0.000000
0.035187 0.796906 0.000000
0.085938 0.796906 0.000000
0.136719 0.796906 0.000000
0.187500 0.796906 0.000000
