Submissions/LUTs/Samples/LUTS-s01.cube
#Created by: Adobe Photoshop Export Color Lookup Plugin
TITLE "LUTS"
#LUT size
LUT_3D_SIZE 5
#data domain
#LUT data points
DOMAIN_MIN 0.000000 0.000000 0.000000
DOMAIN_MAX 0.903226 0.903226 0.903226
0.000000 0.000000 0.000000
0.000000 0.000000 0.000000
0.000000 0.000000 0.000000
0.258972 0.000000 0.000000
0.777679 0.000000 0.000000
0.000000 0.000000 0.000000
0.000000 0.000000 0.000000
0.000000 0.000000 0.000000
0.258972 0.000000 0.000000
0.777679 0.000000 0.000000
0.000000 0.000000 0.000000
0.000000 0.000000 0.000000
0.000000 0.000000 0.000000
0.258972 0.000000 0.000000
0.777679 0.000000 0.000000
0.000000 0.258972 0.000000
0.000000 0.258972 0.000000
0.000000 0.258972 0.000000
0.258972 0.258972 0.000000
0.777679 0.258972 0.000000
0.000000 0.777679 0.000000
0.000000 0.777679 0.000000
0.000000 0.777679 0.000000
0.258972 0.777679 0.000000
0.777679 0.777679 0.000000
0.000000 0.000000 0.000000
0.000000 0.000000 0.000000
0.000000 0.000000 0.000000
0.258972 0.000000 0.000000
0.777679 0.000000 0.000000
0.000000 0.000000 0.000000
0.000000 0.000000 0.000000
0.000000 0.000000 0.000000
0.258972 0.000000 0.000000
0.777679 0.000000 0.000000
0.000000 0.000000 0.000000
0.000000 0.000000 0.000000
0.000000 0.000000 0.000000
0.258972 0.000000 0.000000
0.777679 0.000000 0.000000
0.000000 0.258972 0.000000
0.000000 0.258972 0.000000
0.000000 0.258972 0.000000
0.258972 0.258972 0.000000
0.777679 0.258972 0.000000
0.000000 0.777679 0.000000
0.000000 0.777679 0.000000
0.000000 0.777679 0.000000
0.258972 0.777679 0.000000
0.777679 0.777679 0.000000
0.000000 0.000000 0.000000
0.000000 0.000000 0.000000
0.000000 0.000000 0.000000
0.258972 0.000000 0.000000
0.777679 0.000000 0.000000
0.000000 0.000000 0.000000
0.000000 0.000000 0.000000
0.000000 0.000000 0.000000
0.258972 0.000000 0.000000
0.777679 0.000000 0.000000
0.000000 0.000000 0.000000
0.000000 0.000000 0.000000
0.000000 0.000000 0.000000
0.258972 0.000000 0.000000
0.777679 0.000000 0.000000
0.000000 0.258972 0.000000
0.000000 0.258972 0.000000
0.000000 0.258972 0.000000
0.258972 0.258972 0.000000
0.777679 0.258972 0.000000
0.000000 0.777679 0.000000
0.000000 0.777679 0.000000
0.000000 0.777679 0.000000
0.258972 0.777679 0.000000
0.777679 0.777679 0.000000
0.000000 0.000000 0.258972
0.000000 0.000000 0.258972
0.000000 0.000000 0.258972
0.258972 0.000000 0.258972
0.777679 0.000000 0.258972
0.000000 0.000000 0.258972
0.000000 0.000000 0.258972
0.000000 0.000000 0.258972
0.258972 0.000000 0.258972
0.777679 0.000000 0.258972
0.000000 0.000000 0.258972
0.000000 0.000000 0.258972
0.000000 0.000000 0.258972
0.258972 0.000000 0.258972
0.777679 0.000000 0.258972
0.000000 0.258972 0.258972
0.000000 0.258972 0.258972
0.000000 0.258972 0.258972
0.258972 0.258972 0.258972
0.777679 0.258972 0.258972
0.000000 0.777679 0.258972
0.000000 0.777679 0.258972
0.000000 0.777679 0.258972
0.258972 0.777679 0.258972
0.777679 0.777679 0.258972
0.000000 0.000000 0.777679
0.000000 0.000000 0.777679
0.000000 0.000000 0.777679
0.258972 0.000000 0.777679
0.777679 0.000000 0.777679
0.000000 0.000000 0.777679
0.000000 0.000000 0.777679
0.000000 0.000000 0.777679
0.258972 0.000000 0.777679
0.777679 0.000000 0.777679
0.000000 0.000000 0.777679
0.000000 0.000000 0.777679
0.000000 0.000000 0.777679
0.258972 0.000000 0.777679
0.777679 0.000000 0.777679
0.000000 0.258972 0.777679
0.000000 0.258972 0.777679
0.000000 0.258972 0.777679
0.258972 0.258972 0.777679
0.777679 0.258972 0.777679
0.000000 0.777679 0.777679
0.000000 0.777679 0.777679
0.000000 0.777679 0.777679
0.258972 0.777679 0.777679
0.777679 0.777679 0.777679
