Submissions/LUTs/Samples/LUTs-Export-s01.cube
#Created by: Adobe Photoshop Export Color Lookup Plugin
#Copyright: (C) Copyright 2025 ObsoleteThor
TITLE "LUT-export-s01"
#LUT size
LUT_3D_SIZE 5
#data domain
#LUT data points
DOMAIN_MIN 0.000000 0.000000 0.000000
DOMAIN_MAX 0.903226 0.903226 0.903226
0.000000 0.000000 0.000000
0.000000 0.000000 0.000000
0.136719 0.000000 0.000000
0.492218 0.000000 0.000000
0.847656 0.000000 0.000000
0.000000 0.000000 0.000000
0.000000 0.000000 0.000000
0.136719 0.000000 0.000000
0.492218 0.000000 0.000000
0.847656 0.000000 0.000000
0.000000 0.136719 0.000000
0.000000 0.136719 0.000000
0.136719 0.136719 0.000000
0.492218 0.136719 0.000000
0.847656 0.136719 0.000000
0.000000 0.492218 0.000000
0.000000 0.492218 0.000000
0.136719 0.492218 0.000000
0.492218 0.492218 0.000000
0.847656 0.492218 0.000000
0.000000 0.847656 0.000000
0.000000 0.847656 0.000000
0.136719 0.847656 0.000000
0.492218 0.847656 0.000000
0.847656 0.847656 0.000000
0.000000 0.000000 0.000000
0.000000 0.000000 0.000000
0.136719 0.000000 0.000000
0.492218 0.000000 0.000000
0.847656 0.000000 0.000000
0.000000 0.000000 0.000000
0.000000 0.000000 0.000000
0.136719 0.000000 0.000000
0.492218 0.000000 0.000000
0.847656 0.000000 0.000000
0.000000 0.136719 0.000000
0.000000 0.136719 0.000000
0.136719 0.136719 0.000000
0.492218 0.136719 0.000000
0.847656 0.136719 0.000000
0.000000 0.492218 0.000000
0.000000 0.492218 0.000000
0.136719 0.492218 0.000000
0.492218 0.492218 0.000000
0.847656 0.492218 0.000000
0.000000 0.847656 0.000000
0.000000 0.847656 0.000000
0.136719 0.847656 0.000000
0.492218 0.847656 0.000000
0.847656 0.847656 0.000000
0.000000 0.000000 0.136719
0.000000 0.000000 0.136719
0.136719 0.000000 0.136719
0.492218 0.000000 0.136719
0.847656 0.000000 0.136719
0.000000 0.000000 0.136719
0.000000 0.000000 0.136719
0.136719 0.000000 0.136719
0.492218 0.000000 0.136719
0.847656 0.000000 0.136719
0.000000 0.136719 0.136719
0.000000 0.136719 0.136719
0.136719 0.136719 0.136719
0.492218 0.136719 0.136719
0.847656 0.136719 0.136719
0.000000 0.492218 0.136719
0.000000 0.492218 0.136719
0.136719 0.492218 0.136719
0.492218 0.492218 0.136719
0.847656 0.492218 0.136719
0.000000 0.847656 0.136719
0.000000 0.847656 0.136719
0.136719 0.847656 0.136719
0.492218 0.847656 0.136719
0.847656 0.847656 0.136719
0.000000 0.000000 0.492218
0.000000 0.000000 0.492218
0.136719 0.000000 0.492218
0.492218 0.000000 0.492218
0.847656 0.000000 0.492218
0.000000 0.000000 0.492218
0.000000 0.000000 0.492218
0.136719 0.000000 0.492218
0.492218 0.000000 0.492218
0.847656 0.000000 0.492218
0.000000 0.136719 0.492218
0.000000 0.136719 0.492218
0.136719 0.136719 0.492218
0.492218 0.136719 0.492218
0.847656 0.136719 0.492218
0.000000 0.492218 0.492218
0.000000 0.492218 0.492218
0.136719 0.492218 0.492218
0.492218 0.492218 0.492218
0.847656 0.492218 0.492218
0.000000 0.847656 0.492218
0.000000 0.847656 0.492218
0.136719 0.847656 0.492218
0.492218 0.847656 0.492218
0.847656 0.847656 0.492218
0.000000 0.000000 0.847656
0.000000 0.000000 0.847656
0.136719 0.000000 0.847656
0.492218 0.000000 0.847656
0.847656 0.000000 0.847656
0.000000 0.000000 0.847656
0.000000 0.000000 0.847656
0.136719 0.000000 0.847656
0.492218 0.000000 0.847656
0.847656 0.000000 0.847656
0.000000 0.136719 0.847656
0.000000 0.136719 0.847656
0.136719 0.136719 0.847656
0.492218 0.136719 0.847656
0.847656 0.136719 0.847656
0.000000 0.492218 0.847656
0.000000 0.492218 0.847656
0.136719 0.492218 0.847656
0.492218 0.492218 0.847656
0.847656 0.492218 0.847656
0.000000 0.847656 0.847656
0.000000 0.847656 0.847656
0.136719 0.847656 0.847656
0.492218 0.847656 0.847656
0.847656 0.847656 0.847656
