Submissions/LUTs/Samples/LUTS-s01.3dl
#Created by: Adobe Photoshop Export Color Lookup Plugin
#Description: LUTS
0 33 66 99 132 165 198 231 264 297 330 363 396 429 462 495 528 561 594 627 660 693 726 759 792 825 858 891 924 957 990 1023
0 0 0
0 0 0
0 0 0
0 0 0
0 0 0
0 0 0
0 0 0
0 0 0
0 0 0
0 0 0
0 0 0
0 0 0
0 0 0
0 0 0
0 0 0
0 0 0
0 0 0
0 0 0
0 0 150
0 0 454
0 0 757
0 0 1060
0 0 1364
0 0 1667
0 0 1971
0 0 2274
0 0 2578
0 0 2881
0 0 3185
0 0 3488
0 0 3792
0 0 4095
0 0 0
0 0 0
0 0 0
0 0 0
0 0 0
0 0 0
0 0 0
0 0 0
0 0 0
0 0 0
0 0 0
0 0 0
0 0 0
0 0 0
0 0 0
0 0 0
0 0 0
0 0 0
0 0 150
0 0 454
0 0 757
0 0 1060
0 0 1364
0 0 1667
0 0 1971
0 0 2274
0 0 2578
0 0 2881
0 0 3185
0 0 3488
0 0 3792
0 0 4095
0 0 0
0 0 0
0 0 0
0 0 0
0 0 0
0 0 0
0 0 0
0 0 0
0 0 0
0 0 0
0 0 0
0 0 0
0 0 0
0 0 0
0 0 0
0 0 0
0 0 0
0 0 0
0 0 150
0 0 454
0 0 757
0 0 1060
0 0 1364
0 0 1667
0 0 1971
0 0 2274
0 0 2578
0 0 2881
0 0 3185
0 0 3488
0 0 3792
0 0 4095
0 0 0
0 0 0
0 0 0
0 0 0
0 0 0
0 0 0
0 0 0
0 0 0
0 0 0
0 0 0
0 0 0
0 0 0
0 0 0
0 0 0
0 0 0
0 0 0
0 0 0
0 0 0
0 0 150
0 0 454
0 0 757
0 0 1060
0 0 1364
0 0 1667
0 0 1971
0 0 2274
0 0 2578
0 0 2881
0 0 3185
0 0 3488
0 0 3792
0 0 4095
0 0 0
0 0 0
0 0 0
0 0 0
0 0 0
0 0 0
0 0 0
0 0 0
0 0 0
0 0 0
0 0 0
0 0 0
0 0 0
0 0 0
0 0 0
0 0 0
0 0 0
0 0 0
0 0 150
0 0 454
0 0 757
0 0 1060
0 0 1364
0 0 1667
0 0 1971
0 0 2274
0 0 2578
0 0 2881
0 0 3185
0 0 3488
0 0 3792
0 0 4095
0 0 0
0 0 0
0 0 0
0 0 0
0 0 0
0 0 0
0 0 0
0 0 0
0 0 0
0 0 0
0 0 0
0 0 0
0 0 0
0 0 0
0 0 0
0 0 0
0 0 0
0 0 0
0 0 150
0 0 454
0 0 757
0 0 1060
0 0 1364
0 0 1667
0 0 1971
0 0 2274
0 0 2578
0 0 2881
0 0 3185
0 0 3488
0 0 3792
0 0 4095
0 0 0
0 0 0
0 0 0
0 0 0
0 0 0
0 0 0
0 0 0
0 0 0
0 0 0
0 0 0
0 0 0
0 0 0
0 0 0
0 0 0
0 0 0
0 0 0
0 0 0
0 0 0
0 0 150
0 0 454
0 0 757
0 0 1060
0 0 1364
0 0 1667
0 0 1971
0 0 2274
0 0 2578
0 0 2881
0 0 3185
0 0 3488
0 0 3792
0 0 4095
0 0 0
0 0 0
0 0 0
0 0 0
0 0 0
0 0 0
0 0 0
0 0 0
0 0 0
0 0 0
0 0 0
0 0 0
0 0 0
0 0 0
0 0 0
0 0 0
0 0 0
0 0 0
0 0 150
0 0 454
0 0 757
0 0 1060
0 0 1364
0 0 1667
0 0 1971
0 0 2274
0 0 2578
0 0 2881
0 0 3185
0 0 3488
0 0 3792
0 0 4095
0 0 0
0 0 0
0 0 0
0 0 0
0 0 0
0 0 0
0 0 0
0 0 0
0 0 0
0 0 0
0 0 0
0 0 0
0 0 0
0 0 0
0 0 0
0 0 0
0 0 0
0 0 0
0 0 150
0 0 454
0 0 757
0 0 1060
0 0 1364
0 0 1667
0 0 1971
0 0 2274
0 0 2578
0 0 2881
0 0 3185
0 0 3488
0 0 3792
0 0 4095
0 0 0
0 0 0
0 0 0
0 0 0
0 0 0
0 0 0
0 0 0
0 0 0
0 0 0
0 0 0
0 0 0
0 0 0
0 0 0
0 0 0
0 0 0
0 0 0
0 0 0
0 0 0
0 0 150
0 0 454
0 0 757
0 0 1060
0 0 1364
0 0 1667
0 0 1971
0 0 2274
0 0 2578
0 0 2881
0 0 3185
0 0 3488
0 0 3792
0 0 4095
0 0 0
0 0 0
0 0 0
0 0 0
0 0 0
0 0 0
0 0 0
0 0 0
0 0 0
0 0 0
0 0 0
0 0 0
0 0 0
0 0 0
0 0 0
0 0 0
0 0 0
0 0 0
0 0 150
0 0 454
0 0 757
0 0 1060
0 0 1364
0 0 1667
0 0 1971
0 0 2274
0 0 2578
0 0 2881
0 0 3185
0 0 3488
0 0 3792
0 0 4095
0 0 0
0 0 0
0 0 0
0 0 0
0 0 0
0 0 0
0 0 0
0 0 0
0 0 0
0 0 0
0 0 0
0 0 0
0 0 0
0 0 0
0 0 0
0 0 0
0 0 0
0 0 0
0 0 150
0 0 454
0 0 757
0 0 1060
0 0 1364
0 0 1667
0 0 1971
0 0 2274
0 0 2578
0 0 2881
0 0 3185
0 0 3488
0 0 3792
0 0 4095
0 0 0
0 0 0
0 0 0
0 0 0
0 0 0
0 0 0
0 0 0
0 0 0
0 0 0
0 0 0
0 0 0
0 0 0
0 0 0
0 0 0
0 0 0
0 0 0
0 0 0
0 0 0
0 0 150
0 0 454
0 0 757
0 0 1060
0 0 1364
0 0 1667
0 0 1971
0 0 2274
0 0 2578
0 0 2881
0 0 3185
0 0 3488
0 0 3792
0 0 4095
0 0 0
0 0 0
0 0 0
0 0 0
0 0 0
0 0 0
0 0 0
0 0 0
0 0 0
0 0 0
0 0 0
0 0 0
0 0 0
0 0 0
0 0 0
0 0 0
0 0 0
0 0 0
0 0 150
0 0 454
0 0 757
0 0 1060
0 0 1364
0 0 1667
0 0 1971
0 0 2274
0 0 2578
0 0 2881
0 0 3185
0 0 3488
0 0 3792
0 0 4095
0 0 0
0 0 0
0 0 0
0 0 0
0 0 0
0 0 0
0 0 0
0 0 0
0 0 0
0 0 0
0 0 0
0 0 0
0 0 0
0 0 0
0 0 0
0 0 0
0 0 0
0 0 0
0 0 150
0 0 454
0 0 757
0 0 1060
0 0 1364
0 0 1667
0 0 1971
0 0 2274
0 0 2578
0 0 2881
0 0 3185
0 0 3488
0 0 3792
0 0 4095
0 0 0
0 0 0
0 0 0
0 0 0
0 0 0
0 0 0
0 0 0
0 0 0
0 0 0
0 0 0
0 0 0
0 0 0
0 0 0
0 0 0
0 0 0
0 0 0
0 0 0
0 0 0
0 0 150
0 0 454
0 0 757
0 0 1060
0 0 1364
0 0 1667
0 0 1971
0 0 2274
0 0 2578
0 0 2881
0 0 3185
0 0 3488
0 0 3792
0 0 4095
0 0 0
0 0 0
0 0 0
0 0 0
0 0 0
0 0 0
0 0 0
0 0 0
0 0 0
0 0 0
0 0 0
0 0 0
0 0 0
0 0 0
0 0 0
0 0 0
0 0 0
0 0 0
0 0 150
0 0 454
0 0 757
0 0 1060
0 0 1364
0 0 1667
0 0 1971
0 0 2274
0 0 2578
0 0 2881
0 0 3185
0 0 3488
0 0 3792
0 0 4095
0 0 0
0 0 0
0 0 0
0 0 0
0 0 0
0 0 0
0 0 0
0 0 0
0 0 0
0 0 0
0 0 0
0 0 0
0 0 0
0 0 0
0 0 0
0 0 0
0 0 0
0 0 0
0 0 150
0 0 454
0 0 757
0 0 1060
0 0 1364
0 0 1667
0 0 1971
0 0 2274
0 0 2578
0 0 2881
0 0 3185
0 0 3488
0 0 3792
0 0 4095
0 150 0
0 150 0
0 150 0
0 150 0
0 150 0
0 150 0
0 150 0
0 150 0
0 150 0
0 150 0
0 150 0
0 150 0
0 150 0
0 150 0
0 150 0
0 150 0
0 150 0
0 150 0
0 150 150
0 150 454
0 150 757
0 150 1060
0 150 1364
0 150 1667
0 150 1971
0 150 2274
0 150 2578
0 150 2881
0 150 3185
0 150 3488
0 150 3792
0 150 4095
0 454 0
0 454 0
0 454 0
0 454 0
0 454 0
0 454 0
0 454 0
0 454 0
0 454 0
0 454 0
0 454 0
0 454 0
0 454 0
0 454 0
0 454 0
0 454 0
0 454 0
0 454 0
0 454 150
0 454 454
0 454 757
0 454 1060
0 454 1364
0 454 1667
0 454 1971
0 454 2274
0 454 2578
0 454 2881
0 454 3185
0 454 3488
0 454 3792
0 454 4095
0 757 0
0 757 0
0 757 0
0 757 0
0 757 0
0 757 0
0 757 0
0 757 0
0 757 0
0 757 0
0 757 0
0 757 0
0 757 0
0 757 0
0 757 0
0 757 0
0 757 0
0 757 0
0 757 150
0 757 454
0 757 757
0 757 1060
0 757 1364
0 757 1667
0 757 1971
0 757 2274
0 757 2578
0 757 2881
0 757 3185
0 757 3488
0 757 3792
0 757 4095
0 1060 0
0 1060 0
0 1060 0
0 1060 0
0 1060 0
0 1060 0
0 1060 0
0 1060 0
0 1060 0
0 1060 0
0 1060 0
0 1060 0
0 1060 0
0 1060 0
0 1060 0
0 1060 0
0 1060 0
0 1060 0
0 1060 150
0 1060 454
0 1060 757
0 1060 1060
0 1060 1364
0 1060 1667
0 1060 1971
0 1060 2274
0 1060 2578
0 1060 2881
0 1060 3185
0 1060 3488
0 1060 3792
0 1060 4095
0 1364 0
0 1364 0
0 1364 0
0 1364 0
0 1364 0
0 1364 0
0 1364 0
0 1364 0
0 1364 0
0 1364 0
0 1364 0
0 1364 0
0 1364 0
0 1364 0
0 1364 0
0 1364 0
0 1364 0
0 1364 0
0 1364 150
0 1364 454
0 1364 757
0 1364 1060
0 1364 1364
0 1364 1667
0 1364 1971
0 1364 2274
0 1364 2578
0 1364 2881
0 1364 3185
0 1364 3488
0 1364 3792
0 1364 4095
0 1667 0
0 1667 0
0 1667 0
0 1667 0
0 1667 0
0 1667 0
0 1667 0
0 1667 0
0 1667 0
0 1667 0
0 1667 0
0 1667 0
0 1667 0
0 1667 0
0 1667 0
0 1667 0
0 1667 0
0 1667 0
0 1667 150
0 1667 454
0 1667 757
0 1667 1060
0 1667 1364
0 1667 1667
0 1667 1971
0 1667 2274
0 1667 2578
0 1667 2881
0 1667 3185
0 1667 3488
0 1667 3792
0 1667 4095
0 1971 0
0 1971 0
0 1971 0
0 1971 0
0 1971 0
0 1971 0
0 1971 0
0 1971 0
0 1971 0
0 1971 0
0 1971 0
0 1971 0
0 1971 0
0 1971 0
0 1971 0
0 1971 0
0 1971 0
0 1971 0
0 1971 150
0 1971 454
0 1971 757
0 1971 1060
0 1971 1364
0 1971 1667
0 1971 1971
0 1971 2274
0 1971 2578
0 1971 2881
0 1971 3185
0 1971 3488
0 1971 3792
0 1971 4095
0 2274 0
0 2274 0
0 2274 0
0 2274 0
0 2274 0
0 2274 0
0 2274 0
0 2274 0
0 2274 0
0 2274 0
0 2274 0
0 2274 0
0 2274 0
0 2274 0
0 2274 0
0 2274 0
0 2274 0
0 2274 0
0 2274 150
0 2274 454
0 2274 757
0 2274 1060
0 2274 1364
0 2274 1667
0 2274 1971
0 2274 2274
0 2274 2578
0 2274 2881
0 2274 3185
0 2274 3488
0 2274 3792
0 2274 4095
0 2578 0
0 2578 0
0 2578 0
0 2578 0
0 2578 0
0 2578 0
0 2578 0
0 2578 0
0 2578 0
0 2578 0
0 2578 0
0 2578 0
0 2578 0
0 2578 0
0 2578 0
0 2578 0
0 2578 0
0 2578 0
0 2578 150
0 2578 454
0 2578 757
0 2578 1060
0 2578 1364
0 2578 1667
0 2578 1971
0 2578 2274
0 2578 2578
0 2578 2881
0 2578 3185
0 2578 3488
0 2578 3792
0 2578 4095
0 2881 0
0 2881 0
0 2881 0
0 2881 0
0 2881 0
0 2881 0
0 2881 0
0 2881 0
0 2881 0
0 2881 0
0 2881 0
0 2881 0
0 2881 0
0 2881 0
0 2881 0
0 2881 0
0 2881 0
0 2881 0
0 2881 150
0 2881 454
0 2881 757
0 2881 1060
0 2881 1364
0 2881 1667
0 2881 1971
0 2881 2274
0 2881 2578
0 2881 2881
0 2881 3185
0 2881 3488
0 2881 3792
0 2881 4095
0 3185 0
0 3185 0
0 3185 0
0 3185 0
