Submissions/LUTs/Samples/LUTs-Export-s01.3dl
#Created by: Adobe Photoshop Export Color Lookup Plugin
#Copyright: (C) Copyright 2025 ObsoleteThor
#Description: LUT-export-s01
0 33 66 99 132 165 198 231 264 297 330 363 396 429 462 495 528 561 594 627 660 693 726 759 792 825 858 891 924 957 990 1023
0 0 0
0 0 0
0 0 0
0 0 0
0 0 0
0 0 0
0 0 0
0 0 0
0 0 0
0 0 0
0 0 0
0 0 0
0 0 144
0 0 352
0 0 560
0 0 768
0 0 976
0 0 1184
0 0 1392
0 0 1600
0 0 1808
0 0 2016
0 0 2224
0 0 2432
0 0 2639
0 0 2847
0 0 3055
0 0 3263
0 0 3471
0 0 3679
0 0 3887
0 0 4095
0 0 0
0 0 0
0 0 0
0 0 0
0 0 0
0 0 0
0 0 0
0 0 0
0 0 0
0 0 0
0 0 0
0 0 0
0 0 144
0 0 352
0 0 560
0 0 768
0 0 976
0 0 1184
0 0 1392
0 0 1600
0 0 1808
0 0 2016
0 0 2224
0 0 2432
0 0 2639
0 0 2847
0 0 3055
0 0 3263
0 0 3471
0 0 3679
0 0 3887
0 0 4095
0 0 0
0 0 0
0 0 0
0 0 0
0 0 0
0 0 0
0 0 0
0 0 0
0 0 0
0 0 0
0 0 0
0 0 0
0 0 144
0 0 352
0 0 560
0 0 768
0 0 976
0 0 1184
0 0 1392
0 0 1600
0 0 1808
0 0 2016
0 0 2224
0 0 2432
0 0 2639
0 0 2847
0 0 3055
0 0 3263
0 0 3471
0 0 3679
0 0 3887
0 0 4095
0 0 0
0 0 0
0 0 0
0 0 0
0 0 0
0 0 0
0 0 0
0 0 0
0 0 0
0 0 0
0 0 0
0 0 0
0 0 144
0 0 352
0 0 560
0 0 768
0 0 976
0 0 1184
0 0 1392
0 0 1600
0 0 1808
0 0 2016
0 0 2224
0 0 2432
0 0 2639
0 0 2847
0 0 3055
0 0 3263
0 0 3471
0 0 3679
0 0 3887
0 0 4095
0 0 0
0 0 0
0 0 0
0 0 0
0 0 0
0 0 0
0 0 0
0 0 0
0 0 0
0 0 0
0 0 0
0 0 0
0 0 144
0 0 352
0 0 560
0 0 768
0 0 976
0 0 1184
0 0 1392
0 0 1600
0 0 1808
0 0 2016
0 0 2224
0 0 2432
0 0 2639
0 0 2847
0 0 3055
0 0 3263
0 0 3471
0 0 3679
0 0 3887
0 0 4095
0 0 0
0 0 0
0 0 0
0 0 0
0 0 0
0 0 0
0 0 0
0 0 0
0 0 0
0 0 0
0 0 0
0 0 0
0 0 144
0 0 352
0 0 560
0 0 768
0 0 976
0 0 1184
0 0 1392
0 0 1600
0 0 1808
0 0 2016
0 0 2224
0 0 2432
0 0 2639
0 0 2847
0 0 3055
0 0 3263
0 0 3471
0 0 3679
0 0 3887
0 0 4095
0 0 0
0 0 0
0 0 0
0 0 0
0 0 0
0 0 0
0 0 0
0 0 0
0 0 0
0 0 0
0 0 0
0 0 0
0 0 144
0 0 352
0 0 560
0 0 768
0 0 976
0 0 1184
0 0 1392
0 0 1600
0 0 1808
0 0 2016
0 0 2224
0 0 2432
0 0 2639
0 0 2847
0 0 3055
0 0 3263
0 0 3471
0 0 3679
0 0 3887
0 0 4095
0 0 0
0 0 0
0 0 0
0 0 0
0 0 0
0 0 0
0 0 0
0 0 0
0 0 0
0 0 0
0 0 0
0 0 0
0 0 144
0 0 352
0 0 560
0 0 768
0 0 976
0 0 1184
0 0 1392
0 0 1600
0 0 1808
0 0 2016
0 0 2224
0 0 2432
0 0 2639
0 0 2847
0 0 3055
0 0 3263
0 0 3471
0 0 3679
0 0 3887
0 0 4095
0 0 0
0 0 0
0 0 0
0 0 0
0 0 0
0 0 0
0 0 0
0 0 0
0 0 0
0 0 0
0 0 0
0 0 0
0 0 144
0 0 352
0 0 560
0 0 768
0 0 976
0 0 1184
0 0 1392
0 0 1600
0 0 1808
0 0 2016
0 0 2224
0 0 2432
0 0 2639
0 0 2847
0 0 3055
0 0 3263
0 0 3471
0 0 3679
0 0 3887
0 0 4095
0 0 0
0 0 0
0 0 0
0 0 0
0 0 0
0 0 0
0 0 0
0 0 0
0 0 0
0 0 0
0 0 0
0 0 0
0 0 144
0 0 352
0 0 560
0 0 768
0 0 976
0 0 1184
0 0 1392
0 0 1600
0 0 1808
0 0 2016
0 0 2224
0 0 2432
0 0 2639
0 0 2847
0 0 3055
0 0 3263
0 0 3471
0 0 3679
0 0 3887
0 0 4095
0 0 0
0 0 0
0 0 0
0 0 0
0 0 0
0 0 0
0 0 0
0 0 0
0 0 0
0 0 0
0 0 0
0 0 0
0 0 144
0 0 352
0 0 560
0 0 768
0 0 976
0 0 1184
0 0 1392
0 0 1600
0 0 1808
0 0 2016
0 0 2224
0 0 2432
0 0 2639
0 0 2847
0 0 3055
0 0 3263
0 0 3471
0 0 3679
0 0 3887
0 0 4095
0 0 0
0 0 0
0 0 0
0 0 0
0 0 0
0 0 0
0 0 0
0 0 0
0 0 0
0 0 0
0 0 0
0 0 0
0 0 144
0 0 352
0 0 560
0 0 768
0 0 976
0 0 1184
0 0 1392
0 0 1600
0 0 1808
0 0 2016
0 0 2224
0 0 2432
0 0 2639
0 0 2847
0 0 3055
0 0 3263
0 0 3471
0 0 3679
0 0 3887
0 0 4095
0 144 0
0 144 0
0 144 0
0 144 0
0 144 0
0 144 0
0 144 0
0 144 0
0 144 0
0 144 0
0 144 0
0 144 0
0 144 144
0 144 352
0 144 560
0 144 768
0 144 976
0 144 1184
0 144 1392
0 144 1600
0 144 1808
0 144 2016
0 144 2224
0 144 2432
0 144 2639
0 144 2847
0 144 3055
0 144 3263
0 144 3471
0 144 3679
0 144 3887
0 144 4095
0 352 0
0 352 0
0 352 0
0 352 0
0 352 0
0 352 0
0 352 0
0 352 0
0 352 0
0 352 0
0 352 0
0 352 0
0 352 144
0 352 352
0 352 560
0 352 768
0 352 976
0 352 1184
0 352 1392
0 352 1600
0 352 1808
0 352 2016
0 352 2224
0 352 2432
0 352 2639
0 352 2847
0 352 3055
0 352 3263
0 352 3471
0 352 3679
0 352 3887
0 352 4095
0 560 0
0 560 0
0 560 0
0 560 0
0 560 0
0 560 0
0 560 0
0 560 0
0 560 0
0 560 0
0 560 0
0 560 0
0 560 144
0 560 352
0 560 560
0 560 768
0 560 976
0 560 1184
0 560 1392
0 560 1600
0 560 1808
0 560 2016
0 560 2224
0 560 2432
0 560 2639
0 560 2847
0 560 3055
0 560 3263
0 560 3471
0 560 3679
0 560 3887
0 560 4095
0 768 0
0 768 0
0 768 0
0 768 0
0 768 0
0 768 0
0 768 0
0 768 0
0 768 0
0 768 0
0 768 0
0 768 0
0 768 144
0 768 352
0 768 560
0 768 768
0 768 976
0 768 1184
0 768 1392
0 768 1600
0 768 1808
0 768 2016
0 768 2224
0 768 2432
0 768 2639
0 768 2847
0 768 3055
0 768 3263
0 768 3471
0 768 3679
0 768 3887
0 768 4095
0 976 0
0 976 0
0 976 0
0 976 0
0 976 0
0 976 0
0 976 0
0 976 0
0 976 0
0 976 0
0 976 0
0 976 0
0 976 144
0 976 352
0 976 560
0 976 768
0 976 976
0 976 1184
0 976 1392
0 976 1600
0 976 1808
0 976 2016
0 976 2224
0 976 2432
0 976 2639
0 976 2847
0 976 3055
0 976 3263
0 976 3471
0 976 3679
0 976 3887
0 976 4095
0 1184 0
0 1184 0
0 1184 0
0 1184 0
0 1184 0
0 1184 0
0 1184 0
0 1184 0
0 1184 0
0 1184 0
0 1184 0
0 1184 0
0 1184 144
0 1184 352
0 1184 560
0 1184 768
0 1184 976
0 1184 1184
0 1184 1392
0 1184 1600
0 1184 1808
0 1184 2016
0 1184 2224
0 1184 2432
0 1184 2639
0 1184 2847
0 1184 3055
0 1184 3263
0 1184 3471
0 1184 3679
0 1184 3887
0 1184 4095
0 1392 0
0 1392 0
0 1392 0
0 1392 0
0 1392 0
0 1392 0
0 1392 0
0 1392 0
0 1392 0
0 1392 0
0 1392 0
0 1392 0
0 1392 144
0 1392 352
0 1392 560
0 1392 768
0 1392 976
0 1392 1184
0 1392 1392
0 1392 1600
0 1392 1808
0 1392 2016
0 1392 2224
0 1392 2432
0 1392 2639
0 1392 2847
0 1392 3055
0 1392 3263
0 1392 3471
0 1392 3679
0 1392 3887
0 1392 4095
0 1600 0
0 1600 0
0 1600 0
0 1600 0
0 1600 0
0 1600 0
0 1600 0
0 1600 0
0 1600 0
0 1600 0
0 1600 0
0 1600 0
0 1600 144
0 1600 352
0 1600 560
0 1600 768
0 1600 976
0 1600 1184
0 1600 1392
0 1600 1600
0 1600 1808
0 1600 2016
0 1600 2224
0 1600 2432
0 1600 2639
0 1600 2847
0 1600 3055
0 1600 3263
0 1600 3471
0 1600 3679
0 1600 3887
0 1600 4095
0 1808 0
0 1808 0
0 1808 0
0 1808 0
0 1808 0
0 1808 0
0 1808 0
0 1808 0
0 1808 0
0 1808 0
0 1808 0
0 1808 0
0 1808 144
0 1808 352
0 1808 560
0 1808 768
0 1808 976
0 1808 1184
0 1808 1392
0 1808 1600
0 1808 1808
0 1808 2016
0 1808 2224
0 1808 2432
0 1808 2639
0 1808 2847
0 1808 3055
0 1808 3263
0 1808 3471
0 1808 3679
0 1808 3887
0 1808 4095
0 2016 0
0 2016 0
0 2016 0
0 2016 0
0 2016 0
0 2016 0
0 2016 0
0 2016 0
0 2016 0
0 2016 0
0 2016 0
0 2016 0
0 2016 144
0 2016 352
0 2016 560
0 2016 768
0 2016 976
0 2016 1184
0 2016 1392
0 2016 1600
0 2016 1808
0 2016 2016
0 2016 2224
0 2016 2432
0 2016 2639
0 2016 2847
0 2016 3055
0 2016 3263
0 2016 3471
0 2016 3679
0 2016 3887
0 2016 4095
0 2224 0
0 2224 0
0 2224 0
0 2224 0
0 2224 0
0 2224 0
0 2224 0
0 2224 0
0 2224 0
0 2224 0
0 2224 0
0 2224 0
0 2224 144
0 2224 352
0 2224 560
0 2224 768
0 2224 976
0 2224 1184
0 2224 1392
0 2224 1600
0 2224 1808
0 2224 2016
0 2224 2224
0 2224 2432
0 2224 2639
0 2224 2847
0 2224 3055
0 2224 3263
0 2224 3471
0 2224 3679
0 2224 3887
0 2224 4095
0 2432 0
0 2432 0
0 2432 0
0 2432 0
0 2432 0
0 2432 0
0 2432 0
0 2432 0
0 2432 0
0 2432 0
0 2432 0
0 2432 0
0 2432 144
0 2432 352
0 2432 560
0 2432 768
0 2432 976
0 2432 1184
0 2432 1392
0 2432 1600
0 2432 1808
0 2432 2016
0 2432 2224
0 2432 2432
0 2432 2639
0 2432 2847
0 2432 3055
0 2432 3263
0 2432 3471
0 2432 3679
0 2432 3887
0 2432 4095
0 2639 0
0 2639 0
0 2639 0
0 2639 0
0 2639 0
0 2639 0
0 2639 0
0 2639 0
0 2639 0
0 2639 0
0 2639 0
0 2639 0
0 2639 144
0 2639 352
0 2639 560
0 2639 768
0 2639 976
0 2639 1184
0 2639 1392
0 2639 1600
0 2639 1808
0 2639 2016
0 2639 2224
0 2639 2432
0 2639 2639
0 2639 2847
0 2639 3055
0 2639 3263
0 2639 3471
0 2639 3679
0 2639 3887
0 2639 4095
0 2847 0
0 2847 0
0 2847 0
0 2847 0
0 2847 0
0 2847 0
0 2847 0
0 2847 0
0 2847 0
0 2847 0
0 2847 0
0 2847 0
0 2847 144
0 2847 352
0 2847 560
0 2847 768
0 2847 976
0 2847 1184
0 2847 1392
0 2847 1600
0 2847 1808
0 2847 2016
0 2847 2224
0 2847 2432
0 2847 2639
0 2847 2847
0 2847 3055
0 2847 3263
0 2847 3471
0 2847 3679
0 2847 3887
0 2847 4095
0 3055 0
0 3055 0
0 3055 0
0 3055 0
0 3055 0
0 3055 0
0 3055 0
0 3055 0
0 3055 0
0 3055 0
0 3055 0
0 3055 0
0 3055 144
0 3055 352
0 3055 560
0 3055 768
0 3055 976
0 3055 1184
0 3055 1392
0 3055 1600
0 3055 1808
0 3055 2016
0 3055 2224
0 3055 2432
0 3055 2639
0 3055 2847
0 3055 3055
0 3055 3263
0 3055 3471
0 3055 3679
0 3055 3887
0 3055 4095
0 3263 0
0 3263 0
0 3263 0
0 3263 0
0 3263 0
0 3263 0
0 3263 0
0 3263 0
0 3263 0
0 3263 0
0 3263 0
0 3263 0
0 3263 144
0 3263 352
0 3263 560
0 3263 768
0 3263 976
0 3263 1184
0 3263 1392
0 3263 1600
0 3263 1808
0 3263 2016
0 3263 2224
0 3263 2432
0 3263 2639
0 3263 2847
0 3263 3055
0 3263 3263
0 3263 3471
0 3263 3679
0 3263 3887
0 3263 4095
0 3471 0
0 3471 0
0 3471 0
0 3471 0
