Submissions/LUTs/Samples/LUTs-Export-s01.cube
#Created by: Adobe Photoshop Export Color Lookup Plugin
#Copyright: (C) Copyright 2025 ObsoleteThor
TITLE "LUT-export-s01"
#LUT size
LUT_3D_SIZE 8
#data domain
#LUT data points
DOMAIN_MIN 0.000000 0.000000 0.000000
DOMAIN_MAX 0.903226 0.903226 0.903226
0.000000 0.000000 0.000000
0.000000 0.000000 0.000000
0.000000 0.000000 0.000000
0.035187 0.000000 0.000000
0.238342 0.000000 0.000000
0.441437 0.000000 0.000000
0.644562 0.000000 0.000000
0.847656 0.000000 0.000000
0.000000 0.000000 0.000000
0.000000 0.000000 0.000000
0.000000 0.000000 0.000000
0.035187 0.000000 0.000000
0.238342 0.000000 0.000000
0.441437 0.000000 0.000000
0.644562 0.000000 0.000000
0.847656 0.000000 0.000000
0.000000 0.000000 0.000000
0.000000 0.000000 0.000000
0.000000 0.000000 0.000000
0.035187 0.000000 0.000000
0.238342 0.000000 0.000000
0.441437 0.000000 0.000000
0.644562 0.000000 0.000000
0.847656 0.000000 0.000000
0.000000 0.035187 0.000000
0.000000 0.035187 0.000000
0.000000 0.035187 0.000000
0.035187 0.035187 0.000000
0.238342 0.035187 0.000000
0.441437 0.035187 0.000000
0.644562 0.035187 0.000000
0.847656 0.035187 0.000000
0.000000 0.238342 0.000000
0.000000 0.238342 0.000000
0.000000 0.238342 0.000000
0.035187 0.238342 0.000000
0.238342 0.238342 0.000000
0.441437 0.238342 0.000000
0.644562 0.238342 0.000000
0.847656 0.238342 0.000000
0.000000 0.441437 0.000000
0.000000 0.441437 0.000000
0.000000 0.441437 0.000000
0.035187 0.441437 0.000000
0.238342 0.441437 0.000000
0.441437 0.441437 0.000000
0.644562 0.441437 0.000000
0.847656 0.441437 0.000000
0.000000 0.644562 0.000000
0.000000 0.644562 0.000000
0.000000 0.644562 0.000000
0.035187 0.644562 0.000000
0.238342 0.644562 0.000000
0.441437 0.644562 0.000000
0.644562 0.644562 0.000000
0.847656 0.644562 0.000000
0.000000 0.847656 0.000000
0.000000 0.847656 0.000000
0.000000 0.847656 0.000000
0.035187 0.847656 0.000000
0.238342 0.847656 0.000000
0.441437 0.847656 0.000000
0.644562 0.847656 0.000000
0.847656 0.847656 0.000000
0.000000 0.000000 0.000000
0.000000 0.000000 0.000000
0.000000 0.000000 0.000000
0.035187 0.000000 0.000000
0.238342 0.000000 0.000000
0.441437 0.000000 0.000000
0.644562 0.000000 0.000000
0.847656 0.000000 0.000000
0.000000 0.000000 0.000000
0.000000 0.000000 0.000000
0.000000 0.000000 0.000000
0.035187 0.000000 0.000000
0.238342 0.000000 0.000000
0.441437 0.000000 0.000000
0.644562 0.000000 0.000000
0.847656 0.000000 0.000000
0.000000 0.000000 0.000000
0.000000 0.000000 0.000000
0.000000 0.000000 0.000000
0.035187 0.000000 0.000000
0.238342 0.000000 0.000000
0.441437 0.000000 0.000000
0.644562 0.000000 0.000000
0.847656 0.000000 0.000000
0.000000 0.035187 0.000000
0.000000 0.035187 0.000000
0.000000 0.035187 0.000000
0.035187 0.035187 0.000000
0.238342 0.035187 0.000000
0.441437 0.035187 0.000000
0.644562 0.035187 0.000000
0.847656 0.035187 0.000000
0.000000 0.238342 0.000000
0.000000 0.238342 0.000000
0.000000 0.238342 0.000000
0.035187 0.238342 0.000000
0.238342 0.238342 0.000000
0.441437 0.238342 0.000000
0.644562 0.238342 0.000000
0.847656 0.238342 0.000000
0.000000 0.441437 0.000000
0.000000 0.441437 0.000000
0.000000 0.441437 0.000000
0.035187 0.441437 0.000000
0.238342 0.441437 0.000000
0.441437 0.441437 0.000000
0.644562 0.441437 0.000000
0.847656 0.441437 0.000000
0.000000 0.644562 0.000000
0.000000 0.644562 0.000000
0.000000 0.644562 0.000000
0.035187 0.644562 0.000000
0.238342 0.644562 0.000000
0.441437 0.644562 0.000000
0.644562 0.644562 0.000000
0.847656 0.644562 0.000000
0.000000 0.847656 0.000000
0.000000 0.847656 0.000000
0.000000 0.847656 0.000000
0.035187 0.847656 0.000000
0.238342 0.847656 0.000000
0.441437 0.847656 0.000000
0.644562 0.847656 0.000000
0.847656 0.847656 0.000000
0.000000 0.000000 0.000000
0.000000 0.000000 0.000000
0.000000 0.000000 0.000000
0.035187 0.000000 0.000000
0.238342 0.000000 0.000000
0.441437 0.000000 0.000000
0.644562 0.000000 0.000000
0.847656 0.000000 0.000000
0.000000 0.000000 0.000000
0.000000 0.000000 0.000000
0.000000 0.000000 0.000000
0.035187 0.000000 0.000000
0.238342 0.000000 0.000000
0.441437 0.000000 0.000000
0.644562 0.000000 0.000000
0.847656 0.000000 0.000000
0.000000 0.000000 0.000000
0.000000 0.000000 0.000000
0.000000 0.000000 0.000000
0.035187 0.000000 0.000000
0.238342 0.000000 0.000000
0.441437 0.000000 0.000000
0.644562 0.000000 0.000000
0.847656 0.000000 0.000000
0.000000 0.035187 0.000000
0.000000 0.035187 0.000000
0.000000 0.035187 0.000000
0.035187 0.035187 0.000000
0.238342 0.035187 0.000000
0.441437 0.035187 0.000000
0.644562 0.035187 0.000000
0.847656 0.035187 0.000000
0.000000 0.238342 0.000000
0.000000 0.238342 0.000000
0.000000 0.238342 0.000000
0.035187 0.238342 0.000000
0.238342 0.238342 0.000000
0.441437 0.238342 0.000000
0.644562 0.238342 0.000000
0.847656 0.238342 0.000000
0.000000 0.441437 0.000000
0.000000 0.441437 0.000000
0.000000 0.441437 0.000000
0.035187 0.441437 0.000000
0.238342 0.441437 0.000000
0.441437 0.441437 0.000000
0.644562 0.441437 0.000000
0.847656 0.441437 0.000000
0.000000 0.644562 0.000000
0.000000 0.644562 0.000000
0.000000 0.644562 0.000000
0.035187 0.644562 0.000000
0.238342 0.644562 0.000000
0.441437 0.644562 0.000000
0.644562 0.644562 0.000000
0.847656 0.644562 0.000000
0.000000 0.847656 0.000000
0.000000 0.847656 0.000000
0.000000 0.847656 0.000000
0.035187 0.847656 0.000000
0.238342 0.847656 0.000000
0.441437 0.847656 0.000000
0.644562 0.847656 0.000000
0.847656 0.847656 0.000000
0.000000 0.000000 0.035187
0.000000 0.000000 0.035187
0.000000 0.000000 0.035187
0.035187 0.000000 0.035187
0.238342 0.000000 0.035187
0.441437 0.000000 0.035187
0.644562 0.000000 0.035187
0.847656 0.000000 0.035187
0.000000 0.000000 0.035187
0.000000 0.000000 0.035187
0.000000 0.000000 0.035187
0.035187 0.000000 0.035187
0.238342 0.000000 0.035187
0.441437 0.000000 0.035187
0.644562 0.000000 0.035187
0.847656 0.000000 0.035187
0.000000 0.000000 0.035187
0.000000 0.000000 0.035187
0.000000 0.000000 0.035187
0.035187 0.000000 0.035187
0.238342 0.000000 0.035187
0.441437 0.000000 0.035187
0.644562 0.000000 0.035187
0.847656 0.000000 0.035187
0.000000 0.035187 0.035187
0.000000 0.035187 0.035187
0.000000 0.035187 0.035187
0.035187 0.035187 0.035187
0.238342 0.035187 0.035187
0.441437 0.035187 0.035187
0.644562 0.035187 0.035187
0.847656 0.035187 0.035187
0.000000 0.238342 0.035187
0.000000 0.238342 0.035187
0.000000 0.238342 0.035187
0.035187 0.238342 0.035187
0.238342 0.238342 0.035187
0.441437 0.238342 0.035187
0.644562 0.238342 0.035187
0.847656 0.238342 0.035187
0.000000 0.441437 0.035187
0.000000 0.441437 0.035187
0.000000 0.441437 0.035187
0.035187 0.441437 0.035187
0.238342 0.441437 0.035187
0.441437 0.441437 0.035187
0.644562 0.441437 0.035187
0.847656 0.441437 0.035187
0.000000 0.644562 0.035187
0.000000 0.644562 0.035187
0.000000 0.644562 0.035187
0.035187 0.644562 0.035187
0.238342 0.644562 0.035187
0.441437 0.644562 0.035187
0.644562 0.644562 0.035187
0.847656 0.644562 0.035187
0.000000 0.847656 0.035187
0.000000 0.847656 0.035187
0.000000 0.847656 0.035187
0.035187 0.847656 0.035187
0.238342 0.847656 0.035187
0.441437 0.847656 0.035187
0.644562 0.847656 0.035187
0.847656 0.847656 0.035187
0.000000 0.000000 0.238342
0.000000 0.000000 0.238342
0.000000 0.000000 0.238342
0.035187 0.000000 0.238342
0.238342 0.000000 0.238342
0.441437 0.000000 0.238342
0.644562 0.000000 0.238342
0.847656 0.000000 0.238342
0.000000 0.000000 0.238342
0.000000 0.000000 0.238342
0.000000 0.000000 0.238342
0.035187 0.000000 0.238342
0.238342 0.000000 0.238342
0.441437 0.000000 0.238342
0.644562 0.000000 0.238342
0.847656 0.000000 0.238342
0.000000 0.000000 0.238342
0.000000 0.000000 0.238342
0.000000 0.000000 0.238342
0.035187 0.000000 0.238342
0.238342 0.000000 0.238342
0.441437 0.000000 0.238342
0.644562 0.000000 0.238342
0.847656 0.000000 0.238342
0.000000 0.035187 0.238342
0.000000 0.035187 0.238342
0.000000 0.035187 0.238342
0.035187 0.035187 0.238342
0.238342 0.035187 0.238342
0.441437 0.035187 0.238342
0.644562 0.035187 0.238342
0.847656 0.035187 0.238342
0.000000 0.238342 0.238342
0.000000 0.238342 0.238342
0.000000 0.238342 0.238342
0.035187 0.238342 0.238342
0.238342 0.238342 0.238342
0.441437 0.238342 0.238342
0.644562 0.238342 0.238342
0.847656 0.238342 0.238342
0.000000 0.441437 0.238342
0.000000 0.441437 0.238342
0.000000 0.441437 0.238342
0.035187 0.441437 0.238342
0.238342 0.441437 0.238342
0.441437 0.441437 0.238342
0.644562 0.441437 0.238342
0.847656 0.441437 0.238342
0.000000 0.644562 0.238342
0.000000 0.644562 0.238342
0.000000 0.644562 0.238342
0.035187 0.644562 0.238342
0.238342 0.644562 0.238342
0.441437 0.644562 0.238342
0.644562 0.644562 0.238342
0.847656 0.644562 0.238342
0.000000 0.847656 0.238342
0.000000 0.847656 0.238342
0.000000 0.847656 0.238342
0.035187 0.847656 0.238342
0.238342 0.847656 0.238342
0.441437 0.847656 0.238342
0.644562 0.847656 0.238342
0.847656 0.847656 0.238342
0.000000 0.000000 0.441437
0.000000 0.000000 0.441437
0.000000 0.000000 0.441437
0.035187 0.000000 0.441437
0.238342 0.000000 0.441437
0.441437 0.000000 0.441437
0.644562 0.000000 0.441437
0.847656 0.000000 0.441437
0.000000 0.000000 0.441437
0.000000 0.000000 0.441437
0.000000 0.000000 0.441437
0.035187 0.000000 0.441437
0.238342 0.000000 0.441437
0.441437 0.000000 0.441437
0.644562 0.000000 0.441437
0.847656 0.000000 0.441437
0.000000 0.000000 0.441437
0.000000 0.000000 0.441437
0.000000 0.000000 0.441437
0.035187 0.000000 0.441437
0.238342 0.000000 0.441437
0.441437 0.000000 0.441437
0.644562 0.000000 0.441437
0.847656 0.000000 0.441437
0.000000 0.035187 0.441437
0.000000 0.035187 0.441437
0.000000 0.035187 0.441437
0.035187 0.035187 0.441437
0.238342 0.035187 0.441437
0.441437 0.035187 0.441437
0.644562 0.035187 0.441437
0.847656 0.035187 0.441437
0.000000 0.238342 0.441437
0.000000 0.238342 0.441437
0.000000 0.238342 0.441437
0.035187 0.238342 0.441437
0.238342 0.238342 0.441437
0.441437 0.238342 0.441437
0.644562 0.238342 0.441437
0.847656 0.238342 0.441437
0.000000 0.441437 0.441437
0.000000 0.441437 0.441437
0.000000 0.441437 0.441437
0.035187 0.441437 0.441437
0.238342 0.441437 0.441437
0.441437 0.441437 0.441437
0.644562 0.441437 0.441437
0.847656 0.441437 0.441437
0.000000 0.644562 0.441437
0.000000 0.644562 0.441437
0.000000 0.644562 0.441437
0.035187 0.644562 0.441437
0.238342 0.644562 0.441437
0.441437 0.644562 0.441437
0.644562 0.644562 0.441437
0.847656 0.644562 0.441437
0.000000 0.847656 0.441437
0.000000 0.847656 0.441437
0.000000 0.847656 0.441437
0.035187 0.847656 0.441437
0.238342 0.847656 0.441437
0.441437 0.847656 0.441437
0.644562 0.847656 0.441437
0.847656 0.847656 0.441437
0.000000 0.000000 0.644562
0.000000 0.000000 0.644562
0.000000 0.000000 0.644562
0.035187 0.000000 0.644562
0.238342 0.000000 0.644562
0.441437 0.000000 0.644562
0.644562 0.000000 0.644562
0.847656 0.000000 0.644562
0.000000 0.000000 0.644562
0.000000 0.000000 0.644562
0.000000 0.000000 0.644562
0.035187 0.000000 0.644562
0.238342 0.000000 0.644562
0.441437 0.000000 0.644562
0.644562 0.000000 0.644562
0.847656 0.000000 0.644562
0.000000 0.000000 0.644562
0.000000 0.000000 0.644562
0.000000 0.000000 0.644562
0.035187 0.000000 0.644562
0.238342 0.000000 0.644562
0.441437 0.000000 0.644562
0.644562 0.000000 0.644562
0.847656 0.000000 0.644562
0.000000 0.035187 0.644562
0.000000 0.035187 0.644562
0.000000 0.035187 0.644562
0.035187 0.035187 0.644562
0.238342 0.035187 0.644562
0.441437 0.035187 0.644562
0.644562 0.035187 0.644562
0.847656 0.035187 0.644562
0.000000 0.238342 0.644562
0.000000 0.238342 0.644562
0.000000 0.238342 0.644562
0.035187 0.238342 0.644562
0.238342 0.238342 0.644562
0.441437 0.238342 0.644562
0.644562 0.238342 0.644562
0.847656 0.238342 0.644562
0.000000 0.441437 0.644562
0.000000 0.441437 0.644562
0.000000 0.441437 0.644562
0.035187 0.441437 0.644562
0.238342 0.441437 0.644562
0.441437 0.441437 0.644562
0.644562 0.441437 0.644562
0.847656 0.441437 0.644562
0.000000 0.644562 0.644562
0.000000 0.644562 0.644562
0.000000 0.644562 0.644562
0.035187 0.644562 0.644562
0.238342 0.644562 0.644562
0.441437 0.644562 0.644562
0.644562 0.644562 0.644562
0.847656 0.644562 0.644562
0.000000 0.847656 0.644562
0.000000 0.847656 0.644562
0.000000 0.847656 0.644562
0.035187 0.847656 0.644562
0.238342 0.847656 0.644562
0.441437 0.847656 0.644562
0.644562 0.847656 0.644562
0.847656 0.847656 0.644562
0.000000 0.000000 0.847656
0.000000 0.000000 0.847656
0.000000 0.000000 0.847656
0.035187 0.000000 0.847656
0.238342 0.000000 0.847656
0.441437 0.000000 0.847656
0.644562 0.000000 0.847656
0.847656 0.000000 0.847656
0.000000 0.000000 0.847656
0.000000 0.000000 0.847656
0.000000 0.000000 0.847656
0.035187 0.000000 0.847656
0.238342 0.000000 0.847656
0.441437 0.000000 0.847656
0.644562 0.000000 0.847656
0.847656 0.000000 0.847656
0.000000 0.000000 0.847656
0.000000 0.000000 0.847656
0.000000 0.000000 0.847656
0.035187 0.000000 0.847656
0.238342 0.000000 0.847656
0.441437 0.000000 0.847656
0.644562 0.000000 0.847656
0.847656 0.000000 0.847656
0.000000 0.035187 0.847656
0.000000 0.035187 0.847656
0.000000 0.035187 0.847656
0.035187 0.035187 0.847656
0.238342 0.035187 0.847656
0.441437 0.035187 0.847656
0.644562 0.035187 0.847656
0.847656 0.035187 0.847656
0.000000 0.238342 0.847656
0.000000 0.238342 0.847656
0.000000 0.238342 0.847656
0.035187 0.238342 0.847656
0.238342 0.238342 0.847656
0.441437 0.238342 0.847656
0.644562 0.238342 0.847656
0.847656 0.238342 0.847656
0.000000 0.441437 0.847656
0.000000 0.441437 0.847656
0.000000 0.441437 0.847656
0.035187 0.441437 0.847656
0.238342 0.441437 0.847656
0.441437 0.441437 0.847656
0.644562 0.441437 0.847656
0.847656 0.441437 0.847656
0.000000 0.644562 0.847656
0.000000 0.644562 0.847656
0.000000 0.644562 0.847656
0.035187 0.644562 0.847656
0.238342 0.644562 0.847656
0.441437 0.644562 0.847656
0.644562 0.644562 0.847656
0.847656 0.644562 0.847656
0.000000 0.847656 0.847656
0.000000 0.847656 0.847656
0.000000 0.847656 0.847656
0.035187 0.847656 0.847656
0.238342 0.847656 0.847656
0.441437 0.847656 0.847656
0.644562 0.847656 0.847656
0.847656 0.847656 0.847656
