Submissions/LUTs/Samples/LUT-Calc/Assimilate3D.3dl
# Created with LUTCalc v4.09 by Ben Turley February 2025 #
# IDENTIFICATION: LUTCalc - 3DLUT
# CREATOR: LUTCalc v4.09
# USER: LUTCalc
# DATA: 2025-01-27T04:42:23 #
# NUMBER OF COLUMNS: 3
# NUMBER OF ROWS: 32768
# NUMBER OF NODES: 32
# INPUT RANGE: 10
# OUTPUT RANGE: 12
# TITLE : Custom LUT
# DESCRIPTION : ITU Proposal (400%)/Sony S-Gamut3.cine (Venice) -> S-Log3/Sony S-Gamut3.cine, Stop Shift 0.00, Black Level 3.54% IRE, Legal Input -> Data Output
0 33 66 99 132 165 198 231 264 297 330 363 396 429 462 495 528 561 594 627 660 693 726 759 792 825 858 891 924 957 990 1023
380 380 380
386 378 555
391 376 720
396 374 835
403 372 942
410 369 1044
419 366 1139
430 362 1228
441 357 1311
454 353 1389
468 347 1462
484 341 1532
503 334 1603
526 326 1674
552 316 1747
584 304 1819
621 290 1893
665 274 1967
709 256 2041
753 256 2115
800 256 2190
849 256 2265
902 256 2340
957 256 2415
1014 256 2490
1074 256 2566
1136 256 2641
1200 256 2717
1265 256 2793
1332 256 2868
1400 256 2944
1469 256 3020
365 558 381
370 556 556
375 554 720
381 552 835
387 550 943
395 547 1044
404 543 1139
414 540 1228
426 535 1311
439 531 1389
453 525 1462
469 519 1532
488 512 1603
510 504 1674
537 494 1747
568 482 1820
605 468 1893
649 452 1967
697 432 2041
742 410 2115
790 382 2190
841 350 2265
894 313 2340
950 268 2415
1008 256 2490
1069 256 2566
1131 256 2641
1196 256 2717
1262 256 2793
1329 256 2868
1397 256 2944
1467 256 3020
349 724 382
354 722 557
360 721 721
365 719 836
372 717 943
379 715 1044
388 713 1139
399 710 1228
410 707 1311
423 703 1389
437 699 1462
453 694 1532
472 689 1603
495 682 1674
521 672 1747
553 660 1820
590 646 1893
633 630 1967
685 610 2041
731 587 2115
780 560 2190
832 528 2265
886 491 2340
943 446 2415
1002 393 2490
1064 330 2566
1127 257 2641
1192 256 2717
1258 256 2793
1326 256 2868
1395 256 2944
1465 256 3020
333 840 383
338 839 558
344 837 722
349 836 837
356 835 944
363 833 1045
372 831 1140
383 829 1228
394 827 1311
407 824 1389
421 821 1462
437 817 1532
456 813 1603
479 808 1675
505 802 1747
537 795 1820
574 786 1893
617 776 1967
669 763 2041
720 748 2115
770 729 2190
823 705 2265
878 673 2340
936 628 2415
996 575 2490
1058 513 2566
1122 439 2641
1188 352 2717
1255 256 2793
1323 256 2868
1392 256 2944
1462 256 3020
314 948 385
320 947 560
325 946 723
330 945 837
337 944 944
344 943 1045
353 941 1140
364 939 1229
375 937 1312
388 935 1389
402 933 1462
418 930 1532
437 927 1603
460 923 1675
486 918 1747
518 913 1820
555 906 1893
598 898 1967
650 888 2041
706 876 2115
757 862 2190
811 845 2265
868 823 2340
927 796 2415
988 763 2490
1051 719 2566
1116 656 2641
1183 568 2717
1250 465 2793
1319 343 2868
1389 256 2944
1460 256 3020
292 1049 386
297 1049 561
302 1048 724
308 1047 838
314 1046 945
322 1045 1046
331 1044 1141
341 1043 1229
353 1041 1312
365 1040 1390
380 1038 1462
396 1035 1532
415 1033 1603
437 1030 1675
464 1026 1747
495 1022 1820
532 1016 1893
576 1010 1967
628 1003 2041
688 994 2115
742 983 2190
798 969 2265
856 953 2340
917 933 2415
979 908 2490
1043 877 2566
1109 837 2641
1177 785 2717
1245 714 2793
1315 601 2868
1385 457 2944
1456 286 3020
265 1145 388
271 1144 563
276 1144 725
281 1143 839
288 1142 946
296 1142 1046
305 1141 1141
315 1140 1230
326 1138 1312
339 1137 1390
354 1135 1463
370 1134 1533
389 1131 1603
411 1129 1675
438 1126 1747
469 1122 1820
506 1118 1893
550 1113 1967
601 1107 2041
663 1100 2115
723 1091 2190
781 1081 2265
842 1068 2340
904 1053 2415
968 1034 2490
1034 1010 2566
1101 981 2641
1169 943 2717
1239 895 2793
1309 830 2868
1381 738 2944
1453 586 3020
256 1234 390
256 1234 565
256 1233 727
256 1233 840
258 1232 947
266 1231 1047
275 1231 1142
285 1230 1230
296 1229 1313
309 1227 1390
324 1226 1463
340 1225 1533
359 1223 1604
381 1221 1675
407 1219 1747
439 1216 1820
476 1212 1893
520 1208 1967
571 1203 2041
633 1198 2115
701 1191 2190
762 1182 2265
825 1172 2340
889 1160 2415
955 1145 2490
1023 1127 2566
1092 1104 2641
1161 1076 2717
1232 1040 2793
1303 993 2868
1375 931 2944
1448 846 3020
256 1317 392
256 1317 567
256 1317 728
256 1316 842
256 1316 948
256 1315 1048
256 1314 1142
256 1314 1231
262 1313 1313
275 1312 1391
290 1311 1463
306 1310 1533
325 1308 1604
347 1306 1675
374 1304 1748
405 1302 1820
442 1299 1893
486 1296 1967
538 1292 2041
599 1287 2116
671 1281 2190
738 1275 2265
804 1266 2340
872 1256 2415
940 1244 2490
1010 1230 2566
1080 1212 2641
1152 1190 2717
1224 1162 2793
1296 1127 2868
1370 1082 2944
1443 1021 3020
256 1395 395
256 1395 570
256 1395 730
256 1394 843
256 1394 949
256 1393 1049
256 1393 1143
256 1392 1231
256 1391 1314
256 1391 1391
256 1390 1464
268 1389 1533
287 1387 1604
309 1386 1676
336 1384 1748
367 1382 1820
404 1380 1894
448 1377 1967
500 1374 2041
561 1370 2116
633 1365 2190
711 1359 2265
781 1353 2340
851 1344 2415
923 1335 2490
995 1323 2566
1068 1308 2641
1141 1290 2717
1215 1268 2793
1289 1241 2868
1363 1206 2944
1437 1161 3020
256 1468 398
256 1468 573
256 1468 732
256 1467 845
256 1467 950
256 1467 1050
256 1466 1144
256 1466 1232
256 1465 1314
256 1464 1392
256 1464 1464
256 1463 1534
256 1462 1604
267 1460 1676
294 1459 1748
325 1457 1821
362 1455 1894
406 1453 1967
458 1450 2041
519 1447 2116
591 1443 2190
677 1438 2265
753 1432 2340
828 1425 2415
903 1417 2490
978 1407 2566
1053 1395 2641
1129 1380 2717
1204 1362 2793
1280 1340 2868
1355 1312 2944
1431 1277 3020
256 1538 401
256 1538 576
256 1538 734
256 1538 846
256 1537 951
256 1537 1051
256 1537 1145
256 1536 1233
256 1536 1315
256 1535 1392
256 1534 1464
256 1534 1534
256 1533 1605
256 1532 1676
256 1531 1748
278 1529 1821
315 1527 1894
359 1525 1968
411 1523 2042
472 1520 2116
544 1517 2190
630 1513 2265
720 1508 2340
800 1502 2415
879 1495 2491
958 1487 2566
1036 1477 2641
1114 1464 2717
1192 1449 2793
1270 1431 2868
1347 1408 2944
1424 1380 3020
256 1609 404
256 1609 579
256 1609 737
256 1609 848
256 1609 953
256 1608 1052
256 1608 1146
256 1608 1233
256 1607 1316
256 1607 1393
256 1606 1465
256 1605 1535
256 1605 1605
256 1604 1676
256 1603 1748
256 1602 1821
259 1600 1894
303 1598 1968
355 1596 2042
416 1594 2116
489 1591 2190
574 1587 2265
675 1583 2340
764 1578 2415
850 1573 2491
933 1566 2566
1016 1557 2641
1097 1547 2717
1177 1534 2793
1257 1519 2868
1336 1501 2944
1415 1478 3020
256 1681 409
256 1681 584
256 1681 740
256 1681 851
256 1680 955
256 1680 1054
256 1680 1147
256 1680 1235
256 1679 1316
256 1679 1393
256 1678 1466
256 1678 1535
256 1677 1606
256 1676 1677
256 1675 1749
256 1674 1821
256 1673 1894
256 1672 1968
289 1670 2042
350 1668 2116
423 1665 2191
508 1663 2265
609 1659 2340
719 1655 2415
812 1650 2491
902 1644 2566
990 1637 2642
1075 1628 2717
1160 1618 2793
1242 1605 2868
1324 1590 2944
1405 1571 3020
256 1754 414
256 1753 589
256 1753 744
256 1753 854
256 1753 957
256 1753 1056
256 1752 1149
256 1752 1236
256 1752 1318
256 1751 1394
256 1751 1466
256 1751 1536
256 1750 1606
256 1749 1677
256 1749 1749
256 1748 1822
256 1747 1895
256 1746 1968
256 1744 2042
273 1742 2116
345 1740 2191
431 1738 2265
532 1735 2340
651 1731 2415
763 1727 2491
862 1722 2566
957 1716 2642
1049 1709 2717
1137 1700 2793
1224 1690 2869
1309 1677 2944
1392 1662 3020
256 1827 420
256 1826 595
256 1826 748
256 1826 857
256 1826 960
256 1826 1058
256 1826 1150
256 1825 1237
256 1825 1319
256 1825 1395
256 1824 1467
256 1824 1537
256 1824 1607
256 1823 1678
256 1822 1750
256 1822 1822
256 1821 1895
256 1820 1968
256 1818 2042
256 1817 2116
256 1815 2191
339 1813 2266
440 1810 2340
559 1808 2416
697 1804 2491
810 1800 2566
916 1795 2642
1015 1789 2717
1110 1781 2793
1201 1773 2869
1290 1762 2944
1376 1749 3020
256 1900 427
256 1900 602
256 1900 753
256 1900 861
256 1899 963
256 1899 1060
256 1899 1152
256 1899 1239
256 1899 1320
256 1898 1396
256 1898 1468
256 1898 1537
256 1897 1608
256 1897 1678
256 1896 1750
256 1896 1823
256 1895 1895
256 1894 1969
256 1893 2043
256 1892 2117
256 1890 2191
256 1888 2266
331 1886 2341
451 1884 2416
592 1881 2491
740 1877 2566
861 1873 2642
971 1868 2717
1075 1862 2793
1173 1855 2869
1266 1846 2944
1357 1835 3020
256 1974 436
256 1974 611
256 1973 759
256 1973 865
256 1973 967
256 1973 1063
256 1973 1155
256 1973 1241
256 1973 1322
256 1972 1398
256 1972 1469
256 1972 1538
256 1972 1608
256 1971 1679
256 1971 1751
256 1970 1823
256 1969 1896
256 1969 1969
256 1968 2043
256 1967 2117
256 1965 2191
256 1964 2266
256 1962 2341
322 1960 2416
463 1957 2491
630 1954 2566
786 1951 2642
914 1947 2717
1029 1942 2793
1137 1935 2869
1237 1928 2944
1333 1919 3020
256 2048 446
256 2048 621
256 2048 765
256 2048 871
256 2047 971
256 2047 1067
256 2047 1158
256 2047 1243
256 2047 1324
256 2047 1400
256 2047 1471
256 2046 1540
256 2046 1609
256 2046 1680
256 2045 1752
256 2045 1824
256 2044 1896
256 2044 1970
256 2043 2043
256 2042 2117
256 2041 2192
256 2040 2266
256 2038 2341
256 2036 2416
311 2034 2491
478 2032 2567
676 2029 2642
835 2025 2717
969 2021 2793
1090 2015 2869
1200 2009 2944
1303 2002 3020
256 2122 458
256 2122 633
256 2122 773
256 2122 877
256 2122 976
256 2122 1071
256 2122 1161
256 2122 1246
256 2121 1326
256 2121 1401
256 2121 1473
256 2121 1541
256 2121 1611
256 2120 1681
256 2120 1753
256 2120 1825
256 2119 1897
256 2119 1970
256 2118 2044
256 2117 2118
256 2116 2192
256 2115 2267
256 2114 2341
256 2112 2416
256 2111 2491
299 2108 2567
496 2106 2642
719 2103 2718
886 2099 2793
1027 2095 2869
1152 2090 2945
1266 2084 3020
256 2197 472
256 2197 647
256 2197 782
256 2197 884
256 2197 982
256 2197 1076
256 2197 1165
256 2196 1249
256 2196 1329
256 2196 1404
256 2196 1475
256 2196 1543
256 2196 1612
256 2195 1682
256 2195 1754
256 2195 1825
256 2194 1898
256 2194 1971
256 2193 2044
256 2193 2118
256 2192 2192
256 2191 2267
256 2190 2342
256 2189 2416
256 2187 2492
256 2185 2567
284 2183 2642
517 2181 2718
764 2178 2793
941 2174 2869
1088 2170 2945
1216 2164 3020
256 2272 489
256 2272 664
256 2272 793
256 2272 893
256 2272 989
256 2272 1081
256 2271 1169
256 2271 1253
256 2271 1332
256 2271 1407
256 2271 1477
256 2271 1545
256 2271 1614
256 2270 1684
256 2270 1755
256 2270 1827
256 2270 1899
256 2269 1972
256 2269 2045
256 2268 2119
256 2268 2193
256 2267 2267
256 2266 2342
256 2265 2417
256 2263 2492
256 2262 2567
256 2260 2642
266 2258 2718
542 2255 2793
811 2252 2869
998 2249 2945
1150 2244 3020
256 2347 509
256 2347 684
256 2347 805
256 2347 903
256 2347 997
256 2347 1088
256 2347 1175
256 2347 1258
256 2346 1336
256 2346 1410
256 2346 1480
256 2346 1547
256 2346 1616
256 2346 1686
256 2346 1756
256 2345 1828
256 2345 1900
256 2345 1973
256 2344 2046
256 2344 2119
256 2343 2193
256 2343 2268
256 2342 2342
256 2341 2417
256 2340 2492
256 2339 2567
256 2337 2643
256 2335 2718
256 2333 2794
572 2330 2869
861 2327 2945
1057 2324 3021
256 2422 532
256 2422 702
256 2422 819
256 2422 914
256 2422 1006
256 2422 1095
256 2422 1181
256 2422 1263
256 2422 1340
256 2422 1413
256 2422 1483
256 2421 1550
256 2421 1618
256 2421 1688
256 2421 1758
256 2421 1829
256 2421 1901
256 2420 1974
256 2420 2047
256 2420 2120
256 2419 2194
256 2418 2268
256 2418 2343
256 2417 2418
256 2416 2492
256 2415 2568
256 2414 2643
256 2412 2718
256 2410 2794
256 2408 2869
607 2406 2945
914 2403 3021
256 2497 560
256 2497 723
256 2497 835
256 2497 927
256 2497 1016
256 2497 1104
256 2497 1188
256 2497 1269
256 2497 1345
256 2497 1418
256 2497 1487
256 2497 1553
256 2497 1621
256 2497 1690
256 2497 1760
256 2496 1831
256 2496 1903
256 2496 1975
256 2496 2048
256 2495 2121
256 2495 2195
256 2494 2269
256 2494 2343
256 2493 2418
256 2492 2493
256 2491 2568
256 2490 2643
256 2489 2718
256 2488 2794
256 2486 2869
256 2484 2945
648 2481 3021
256 2573 593
256 2573 746
256 2573 853
256 2573 942
256 2573 1029
256 2573 1114
256 2573 1197
256 2573 1276
256 2573 1351
256 2573 1423
256 2573 1491
256 2572 1557
256 2572 1624
256 2572 1693
256 2572 1763
256 2572 1833
256 2572 1904
256 2572 1976
256 2571 2049
256 2571 2122
256 2571 2196
256 2570 2270
256 2570 2344
256 2569 2419
256 2569 2493
256 2568 2568
256 2567 2643
256 2566 2719
256 2565 2794
256 2563 2870
256 2561 2945
256 2559 3021
256 2648 631
256 2648 772
256 2648 874
256 2648 959
256 2648 1043
256 2648 1126
256 2648 1207
256 2648 1284
256 2648 1358
256 2648 1429
256 2648 1496
256 2648 1561
256 2648 1628
256 2648 1696
256 2648 1765
256 2648 1836
256 2648 1907
256 2647 1978
256 2647 2051
256 2647 2124
256 2647 2197
256 2646 2271
256 2646 2345
256 2645 2419
256 2645 2494
256 2644 2569
256 2643 2644
256 2642 2719
256 2641 2794
256 2640 2870
256 2639 2945
256 2637 3021
256 2724 677
256 2724 801
256 2724 897
256 2724 978
256 2724 1059
256 2724 1139
256 2724 1218
256 2724 1294
256 2724 1366
256 2724 1436
256 2724 1502
256 2724 1567
256 2724 1633
256 2724 1700
256 2724 1769
256 2723 1838
256 2723 1909
256 2723 1980
256 2723 2052
256 2723 2125
256 2723 2198
256 2722 2272
256 2722 2346
256 2722 2420
256 2721 2495
256 2720 2569
256 2720 2644
256 2719 2720
256 2718 2795
256 2717 2870
256 2716 2946
256 2714 3021
256 2800 720
256 2800 833
256 2800 923
256 2800 1000
