Submissions/LUTs/Samples/LUT-Calc/DisplayGammaCorrection.cube
TITLE "Custom LUT"
LUT_1D_SIZE 4096
# ITU Proposal (400%) -> S-Log3, CineEI Shift 0.00, Black Level 3.54% IRE, Input 100% -> Output 100% - Created with LUTCalc v4.09 by Ben Turley February 2025
0.03538813 0.03538813 0.03538813
0.03576581 0.03576581 0.03576581
0.03614350 0.03614350 0.03614350
0.03652119 0.03652119 0.03652119
0.03689888 0.03689888 0.03689888
0.03727656 0.03727656 0.03727656
0.03765425 0.03765425 0.03765425
0.03803194 0.03803194 0.03803194
0.03840963 0.03840963 0.03840963
0.03878732 0.03878732 0.03878732
0.03916500 0.03916500 0.03916500
0.03954269 0.03954269 0.03954269
0.03992038 0.03992038 0.03992038
0.04029807 0.04029807 0.04029807
0.04067576 0.04067576 0.04067576
0.04105344 0.04105344 0.04105344
0.04143113 0.04143113 0.04143113
0.04180882 0.04180882 0.04180882
0.04218651 0.04218651 0.04218651
0.04256420 0.04256420 0.04256420
0.04294188 0.04294188 0.04294188
0.04331957 0.04331957 0.04331957
0.04369726 0.04369726 0.04369726
0.04407495 0.04407495 0.04407495
0.04445264 0.04445264 0.04445264
0.04483032 0.04483032 0.04483032
0.04520801 0.04520801 0.04520801
0.04558570 0.04558570 0.04558570
0.04596339 0.04596339 0.04596339
0.04634107 0.04634107 0.04634107
0.04671876 0.04671876 0.04671876
0.04709645 0.04709645 0.04709645
0.04747414 0.04747414 0.04747414
0.04785183 0.04785183 0.04785183
0.04822951 0.04822951 0.04822951
0.04860720 0.04860720 0.04860720
0.04898489 0.04898489 0.04898489
0.04936258 0.04936258 0.04936258
0.04974027 0.04974027 0.04974027
0.05011795 0.05011795 0.05011795
0.05049564 0.05049564 0.05049564
0.05087333 0.05087333 0.05087333
0.05125102 0.05125102 0.05125102
0.05162871 0.05162871 0.05162871
0.05200639 0.05200639 0.05200639
0.05238408 0.05238408 0.05238408
0.05276177 0.05276177 0.05276177
0.05313946 0.05313946 0.05313946
0.05351715 0.05351715 0.05351715
0.05389483 0.05389483 0.05389483
0.05427252 0.05427252 0.05427252
0.05465021 0.05465021 0.05465021
0.05502790 0.05502790 0.05502790
0.05540559 0.05540559 0.05540559
0.05578327 0.05578327 0.05578327
0.05616096 0.05616096 0.05616096
0.05653865 0.05653865 0.05653865
0.05691634 0.05691634 0.05691634
0.05729402 0.05729402 0.05729402
0.05767171 0.05767171 0.05767171
0.05804940 0.05804940 0.05804940
0.05842709 0.05842709 0.05842709
0.05880478 0.05880478 0.05880478
0.05918246 0.05918246 0.05918246
0.05956015 0.05956015 0.05956015
0.05993784 0.05993784 0.05993784
0.06031553 0.06031553 0.06031553
0.06069322 0.06069322 0.06069322
0.06107090 0.06107090 0.06107090
0.06144859 0.06144859 0.06144859
0.06182628 0.06182628 0.06182628
0.06220397 0.06220397 0.06220397
0.06258166 0.06258166 0.06258166
0.06295934 0.06295934 0.06295934
0.06333703 0.06333703 0.06333703
0.06371472 0.06371472 0.06371472
0.06409241 0.06409241 0.06409241
0.06447010 0.06447010 0.06447010
0.06484778 0.06484778 0.06484778
0.06522547 0.06522547 0.06522547
0.06560316 0.06560316 0.06560316
0.06598085 0.06598085 0.06598085
0.06635853 0.06635853 0.06635853
0.06673622 0.06673622 0.06673622
0.06711391 0.06711391 0.06711391
0.06749160 0.06749160 0.06749160
0.06786929 0.06786929 0.06786929
0.06824697 0.06824697 0.06824697
0.06862466 0.06862466 0.06862466
0.06900235 0.06900235 0.06900235
0.06938004 0.06938004 0.06938004
0.06975773 0.06975773 0.06975773
0.07013541 0.07013541 0.07013541
0.07051310 0.07051310 0.07051310
0.07089079 0.07089079 0.07089079
0.07126848 0.07126848 0.07126848
0.07164617 0.07164617 0.07164617
0.07202385 0.07202385 0.07202385
0.07240154 0.07240154 0.07240154
0.07277923 0.07277923 0.07277923
0.07315692 0.07315692 0.07315692
0.07353461 0.07353461 0.07353461
0.07391229 0.07391229 0.07391229
0.07428998 0.07428998 0.07428998
0.07466767 0.07466767 0.07466767
0.07504536 0.07504536 0.07504536
0.07542305 0.07542305 0.07542305
0.07580073 0.07580073 0.07580073
0.07617842 0.07617842 0.07617842
0.07655611 0.07655611 0.07655611
0.07693380 0.07693380 0.07693380
0.07731148 0.07731148 0.07731148
0.07768917 0.07768917 0.07768917
0.07806686 0.07806686 0.07806686
0.07844455 0.07844455 0.07844455
0.07882224 0.07882224 0.07882224
0.07919992 0.07919992 0.07919992
0.07957761 0.07957761 0.07957761
0.07995530 0.07995530 0.07995530
0.08033299 0.08033299 0.08033299
0.08071068 0.08071068 0.08071068
0.08108836 0.08108836 0.08108836
0.08146605 0.08146605 0.08146605
0.08184374 0.08184374 0.08184374
0.08222143 0.08222143 0.08222143
0.08259912 0.08259912 0.08259912
0.08297680 0.08297680 0.08297680
0.08335449 0.08335449 0.08335449
0.08373218 0.08373218 0.08373218
0.08410987 0.08410987 0.08410987
0.08448756 0.08448756 0.08448756
0.08486524 0.08486524 0.08486524
0.08524293 0.08524293 0.08524293
0.08562062 0.08562062 0.08562062
0.08599831 0.08599831 0.08599831
0.08637600 0.08637600 0.08637600
0.08675368 0.08675368 0.08675368
0.08713137 0.08713137 0.08713137
0.08750906 0.08750906 0.08750906
0.08788675 0.08788675 0.08788675
0.08826443 0.08826443 0.08826443
0.08864212 0.08864212 0.08864212
0.08901981 0.08901981 0.08901981
0.08939750 0.08939750 0.08939750
0.08977519 0.08977519 0.08977519
0.09015287 0.09015287 0.09015287
0.09053056 0.09053056 0.09053056
0.09090825 0.09090825 0.09090825
0.09128594 0.09128594 0.09128594
0.09166363 0.09166363 0.09166363
0.09204131 0.09204131 0.09204131
0.09241900 0.09241900 0.09241900
0.09279669 0.09279669 0.09279669
0.09317438 0.09317438 0.09317438
0.09355207 0.09355207 0.09355207
0.09392975 0.09392975 0.09392975
0.09430744 0.09430744 0.09430744
0.09468513 0.09468513 0.09468513
0.09506282 0.09506282 0.09506282
0.09544051 0.09544051 0.09544051
0.09581819 0.09581819 0.09581819
0.09619588 0.09619588 0.09619588
0.09657357 0.09657357 0.09657357
0.09695126 0.09695126 0.09695126
0.09732894 0.09732894 0.09732894
0.09770663 0.09770663 0.09770663
0.09808432 0.09808432 0.09808432
0.09846201 0.09846201 0.09846201
0.09883970 0.09883970 0.09883970
0.09921738 0.09921738 0.09921738
0.09959507 0.09959507 0.09959507
0.09997276 0.09997276 0.09997276
0.10035045 0.10035045 0.10035045
0.10072814 0.10072814 0.10072814
0.10110582 0.10110582 0.10110582
0.10148351 0.10148351 0.10148351
0.10186120 0.10186120 0.10186120
0.10223889 0.10223889 0.10223889
0.10261658 0.10261658 0.10261658
0.10299426 0.10299426 0.10299426
0.10337195 0.10337195 0.10337195
0.10374964 0.10374964 0.10374964
0.10412733 0.10412733 0.10412733
0.10450502 0.10450502 0.10450502
0.10488270 0.10488270 0.10488270
0.10526039 0.10526039 0.10526039
0.10563808 0.10563808 0.10563808
0.10601577 0.10601577 0.10601577
0.10639346 0.10639346 0.10639346
0.10677114 0.10677114 0.10677114
0.10714883 0.10714883 0.10714883
0.10752652 0.10752652 0.10752652
0.10790421 0.10790421 0.10790421
0.10828189 0.10828189 0.10828189
0.10865958 0.10865958 0.10865958
0.10903727 0.10903727 0.10903727
0.10941496 0.10941496 0.10941496
0.10979265 0.10979265 0.10979265
0.11017033 0.11017033 0.11017033
0.11054802 0.11054802 0.11054802
0.11092571 0.11092571 0.11092571
0.11130340 0.11130340 0.11130340
0.11168109 0.11168109 0.11168109
0.11205877 0.11205877 0.11205877
0.11243646 0.11243646 0.11243646
0.11281415 0.11281415 0.11281415
0.11319184 0.11319184 0.11319184
0.11356953 0.11356953 0.11356953
0.11394721 0.11394721 0.11394721
0.11432490 0.11432490 0.11432490
0.11470259 0.11470259 0.11470259
0.11508028 0.11508028 0.11508028
0.11545797 0.11545797 0.11545797
0.11583565 0.11583565 0.11583565
0.11621334 0.11621334 0.11621334
0.11659103 0.11659103 0.11659103
0.11696872 0.11696872 0.11696872
0.11734640 0.11734640 0.11734640
0.11772409 0.11772409 0.11772409
0.11810178 0.11810178 0.11810178
0.11847947 0.11847947 0.11847947
0.11885716 0.11885716 0.11885716
0.11923484 0.11923484 0.11923484
0.11961253 0.11961253 0.11961253
0.11999022 0.11999022 0.11999022
0.12036791 0.12036791 0.12036791
0.12074560 0.12074560 0.12074560
0.12112328 0.12112328 0.12112328
0.12150097 0.12150097 0.12150097
0.12187866 0.12187866 0.12187866
0.12225635 0.12225635 0.12225635
0.12258158 0.12258158 0.12258158
0.12287875 0.12287875 0.12287875
0.12317525 0.12317525 0.12317525
0.12347107 0.12347107 0.12347107
0.12376622 0.12376622 0.12376622
0.12406070 0.12406070 0.12406070
0.12435451 0.12435451 0.12435451
0.12464766 0.12464766 0.12464766
0.12494014 0.12494014 0.12494014
0.12523197 0.12523197 0.12523197
0.12552314 0.12552314 0.12552314
0.12581366 0.12581366 0.12581366
0.12610353 0.12610353 0.12610353
0.12639275 0.12639275 0.12639275
0.12668133 0.12668133 0.12668133
0.12696927 0.12696927 0.12696927
0.12725656 0.12725656 0.12725656
0.12754323 0.12754323 0.12754323
0.12782926 0.12782926 0.12782926
0.12811466 0.12811466 0.12811466
0.12839944 0.12839944 0.12839944
0.12868359 0.12868359 0.12868359
0.12896712 0.12896712 0.12896712
0.12925003 0.12925003 0.12925003
0.12953232 0.12953232 0.12953232
0.12981401 0.12981401 0.12981401
0.13009508 0.13009508 0.13009508
0.13037554 0.13037554 0.13037554
0.13065540 0.13065540 0.13065540
0.13093465 0.13093465 0.13093465
0.13121331 0.13121331 0.13121331
0.13149136 0.13149136 0.13149136
0.13176882 0.13176882 0.13176882
0.13204569 0.13204569 0.13204569
0.13232197 0.13232197 0.13232197
0.13259766 0.13259766 0.13259766
0.13287277 0.13287277 0.13287277
0.13314729 0.13314729 0.13314729
0.13342124 0.13342124 0.13342124
0.13369460 0.13369460 0.13369460
0.13396739 0.13396739 0.13396739
0.13423961 0.13423961 0.13423961
0.13451126 0.13451126 0.13451126
0.13478234 0.13478234 0.13478234
0.13505285 0.13505285 0.13505285
0.13532280 0.13532280 0.13532280
0.13559219 0.13559219 0.13559219
0.13586103 0.13586103 0.13586103
0.13612930 0.13612930 0.13612930
0.13639702 0.13639702 0.13639702
0.13666419 0.13666419 0.13666419
0.13693081 0.13693081 0.13693081
0.13719688 0.13719688 0.13719688
0.13746241 0.13746241 0.13746241
0.13772740 0.13772740 0.13772740
0.13799184 0.13799184 0.13799184
0.13825575 0.13825575 0.13825575
0.13851912 0.13851912 0.13851912
0.13878195 0.13878195 0.13878195
0.13904426 0.13904426 0.13904426
0.13930603 0.13930603 0.13930603
0.13956728 0.13956728 0.13956728
0.13982800 0.13982800 0.13982800
0.14008820 0.14008820 0.14008820
0.14034788 0.14034788 0.14034788
0.14060703 0.14060703 0.14060703
0.14086568 0.14086568 0.14086568
0.14112380 0.14112380 0.14112380
0.14138141 0.14138141 0.14138141
0.14163852 0.14163852 0.14163852
0.14189511 0.14189511 0.14189511
0.14215120 0.14215120 0.14215120
0.14240678 0.14240678 0.14240678
0.14266186 0.14266186 0.14266186
0.14291644 0.14291644 0.14291644
0.14317052 0.14317052 0.14317052
0.14342410 0.14342410 0.14342410
0.14367718 0.14367718 0.14367718
0.14392978 0.14392978 0.14392978
0.14418188 0.14418188 0.14418188
0.14443350 0.14443350 0.14443350
0.14468462 0.14468462 0.14468462
0.14493526 0.14493526 0.14493526
0.14518542 0.14518542 0.14518542
0.14543509 0.14543509 0.14543509
0.14568429 0.14568429 0.14568429
0.14593301 0.14593301 0.14593301
0.14618125 0.14618125 0.14618125
0.14642901 0.14642901 0.14642901
0.14667631 0.14667631 0.14667631
0.14692313 0.14692313 0.14692313
0.14716949 0.14716949 0.14716949
0.14741537 0.14741537 0.14741537
0.14766079 0.14766079 0.14766079
0.14790575 0.14790575 0.14790575
0.14815025 0.14815025 0.14815025
0.14839428 0.14839428 0.14839428
0.14863786 0.14863786 0.14863786
0.14888098 0.14888098 0.14888098
0.14912365 0.14912365 0.14912365
0.14936586 0.14936586 0.14936586
0.14960762 0.14960762 0.14960762
0.14984893 0.14984893 0.14984893
0.15009275 0.15009275 0.15009275
0.15033388 0.15033388 0.15033388
0.15057496 0.15057496 0.15057496
0.15081599 0.15081599 0.15081599
0.15105697 0.15105697 0.15105697
0.15129790 0.15129790 0.15129790
0.15153877 0.15153877 0.15153877
0.15177959 0.15177959 0.15177959
0.15202036 0.15202036 0.15202036
0.15226107 0.15226107 0.15226107
0.15250173 0.15250173 0.15250173
0.15274233 0.15274233 0.15274233
0.15298288 0.15298288 0.15298288
0.15322337 0.15322337 0.15322337
0.15346380 0.15346380 0.15346380
0.15370418 0.15370418 0.15370418
0.15394451 0.15394451 0.15394451
0.15418477 0.15418477 0.15418477
0.15442498 0.15442498 0.15442498
0.15466513 0.15466513 0.15466513
0.15490522 0.15490522 0.15490522
0.15514525 0.15514525 0.15514525
0.15538523 0.15538523 0.15538523
0.15562514 0.15562514 0.15562514
0.15586499 0.15586499 0.15586499
0.15610479 0.15610479 0.15610479
0.15634452 0.15634452 0.15634452
0.15658419 0.15658419 0.15658419
0.15682380 0.15682380 0.15682380
0.15706335 0.15706335 0.15706335
0.15730284 0.15730284 0.15730284
0.15754226 0.15754226 0.15754226
0.15778163 0.15778163 0.15778163
0.15802092 0.15802092 0.15802092
0.15826016 0.15826016 0.15826016
0.15849933 0.15849933 0.15849933
0.15873843 0.15873843 0.15873843
0.15897748 0.15897748 0.15897748
0.15921645 0.15921645 0.15921645
0.15945536 0.15945536 0.15945536
0.15969421 0.15969421 0.15969421
0.15993299 0.15993299 0.15993299
0.16017170 0.16017170 0.16017170
0.16041035 0.16041035 0.16041035
0.16064893 0.16064893 0.16064893
0.16088744 0.16088744 0.16088744
0.16112589 0.16112589 0.16112589
0.16136426 0.16136426 0.16136426
0.16160257 0.16160257 0.16160257
0.16184081 0.16184081 0.16184081
0.16207898 0.16207898 0.16207898
0.16231708 0.16231708 0.16231708
0.16255512 0.16255512 0.16255512
0.16279308 0.16279308 0.16279308
0.16303097 0.16303097 0.16303097
0.16326879 0.16326879 0.16326879
0.16350654 0.16350654 0.16350654
0.16374422 0.16374422 0.16374422
0.16398183 0.16398183 0.16398183
0.16421936 0.16421936 0.16421936
0.16445683 0.16445683 0.16445683
0.16469422 0.16469422 0.16469422
0.16493154 0.16493154 0.16493154
0.16516878 0.16516878 0.16516878
0.16540596 0.16540596 0.16540596
0.16564305 0.16564305 0.16564305
0.16588008 0.16588008 0.16588008
0.16611703 0.16611703 0.16611703
0.16635391 0.16635391 0.16635391
0.16659071 0.16659071 0.16659071
0.16682744 0.16682744 0.16682744
0.16706409 0.16706409 0.16706409
0.16730066 0.16730066 0.16730066
0.16753716 0.16753716 0.16753716
0.16777359 0.16777359 0.16777359
0.16800994 0.16800994 0.16800994
0.16824621 0.16824621 0.16824621
0.16848240 0.16848240 0.16848240
0.16871852 0.16871852 0.16871852
0.16895456 0.16895456 0.16895456
0.16919052 0.16919052 0.16919052
0.16942640 0.16942640 0.16942640
0.16966221 0.16966221 0.16966221
0.16989794 0.16989794 0.16989794
0.17013359 0.17013359 0.17013359
0.17036916 0.17036916 0.17036916
0.17060465 0.17060465 0.17060465
0.17084006 0.17084006 0.17084006
0.17107539 0.17107539 0.17107539
0.17131064 0.17131064 0.17131064
0.17154581 0.17154581 0.17154581
0.17178090 0.17178090 0.17178090
0.17201591 0.17201591 0.17201591
0.17225084 0.17225084 0.17225084
0.17248569 0.17248569 0.17248569
0.17272046 0.17272046 0.17272046
0.17295514 0.17295514 0.17295514
0.17318974 0.17318974 0.17318974
0.17342426 0.17342426 0.17342426
0.17365870 0.17365870 0.17365870
0.17389306 0.17389306 0.17389306
0.17412733 0.17412733 0.17412733
0.17436152 0.17436152 0.17436152
0.17459563 0.17459563 0.17459563
0.17482965 0.17482965 0.17482965
0.17506359 0.17506359 0.17506359
0.17529744 0.17529744 0.17529744
0.17553122 0.17553122 0.17553122
0.17576490 0.17576490 0.17576490
0.17599851 0.17599851 0.17599851
0.17623202 0.17623202 0.17623202
0.17646546 0.17646546 0.17646546
0.17669880 0.17669880 0.17669880
0.17693207 0.17693207 0.17693207
0.17716524 0.17716524 0.17716524
0.17739833 0.17739833 0.17739833
0.17763134 0.17763134 0.17763134
0.17786425 0.17786425 0.17786425
0.17809709 0.17809709 0.17809709
0.17832983 0.17832983 0.17832983
0.17856249 0.17856249 0.17856249
0.17879506 0.17879506 0.17879506
0.17902755 0.17902755 0.17902755
0.17925994 0.17925994 0.17925994
0.17949225 0.17949225 0.17949225
0.17972447 0.17972447 0.17972447
0.17995661 0.17995661 0.17995661
0.18018865 0.18018865 0.18018865
0.18042061 0.18042061 0.18042061
0.18065248 0.18065248 0.18065248
0.18088426 0.18088426 0.18088426
0.18111595 0.18111595 0.18111595
0.18134755 0.18134755 0.18134755
0.18157906 0.18157906 0.18157906
0.18181048 0.18181048 0.18181048
0.18204182 0.18204182 0.18204182
0.18227306 0.18227306 0.18227306
0.18250421 0.18250421 0.18250421
0.18273528 0.18273528 0.18273528
0.18296625 0.18296625 0.18296625
0.18319713 0.18319713 0.18319713
0.18342792 0.18342792 0.18342792
0.18365862 0.18365862 0.18365862
0.18388924 0.18388924 0.18388924
0.18411975 0.18411975 0.18411975
0.18435018 0.18435018 0.18435018
0.18458052 0.18458052 0.18458052
0.18481076 0.18481076 0.18481076
0.18504092 0.18504092 0.18504092
0.18527098 0.18527098 0.18527098
0.18550095 0.18550095 0.18550095
0.18573082 0.18573082 0.18573082
0.18596061 0.18596061 0.18596061
0.18619030 0.18619030 0.18619030
0.18641990 0.18641990 0.18641990
0.18664940 0.18664940 0.18664940
0.18687882 0.18687882 0.18687882
0.18710814 0.18710814 0.18710814
0.18733736 0.18733736 0.18733736
0.18756650 0.18756650 0.18756650
0.18779554 0.18779554 0.18779554
0.18802448 0.18802448 0.18802448
0.18825333 0.18825333 0.18825333
0.18848209 0.18848209 0.18848209
0.18871076 0.18871076 0.18871076
0.18893933 0.18893933 0.18893933
0.18916780 0.18916780 0.18916780
0.18939618 0.18939618 0.18939618
0.18962447 0.18962447 0.18962447
0.18985266 0.18985266 0.18985266
0.19008076 0.19008076 0.19008076
0.19030876 0.19030876 0.19030876
0.19053666 0.19053666 0.19053666
0.19076447 0.19076447 0.19076447
0.19099219 0.19099219 0.19099219
0.19121981 0.19121981 0.19121981
0.19144733 0.19144733 0.19144733
0.19167476 0.19167476 0.19167476
0.19190209 0.19190209 0.19190209
0.19212933 0.19212933 0.19212933
0.19235647 0.19235647 0.19235647
0.19258351 0.19258351 0.19258351
0.19281046 0.19281046 0.19281046
0.19303731 0.19303731 0.19303731
0.19326406 0.19326406 0.19326406
0.19349072 0.19349072 0.19349072
0.19371728 0.19371728 0.19371728
0.19394375 0.19394375 0.19394375
0.19417011 0.19417011 0.19417011
0.19439638 0.19439638 0.19439638
0.19462255 0.19462255 0.19462255
0.19484863 0.19484863 0.19484863
0.19507460 0.19507460 0.19507460
0.19530048 0.19530048 0.19530048
0.19552627 0.19552627 0.19552627
0.19575195 0.19575195 0.19575195
0.19597753 0.19597753 0.19597753
0.19620302 0.19620302 0.19620302
0.19642841 0.19642841 0.19642841
0.19665370 0.19665370 0.19665370
0.19687890 0.19687890 0.19687890
0.19710399 0.19710399 0.19710399
0.19732899 0.19732899 0.19732899
0.19755388 0.19755388 0.19755388
0.19777868 0.19777868 0.19777868
0.19800338 0.19800338 0.19800338
0.19822798 0.19822798 0.19822798
0.19845248 0.19845248 0.19845248
0.19867689 0.19867689 0.19867689
0.19890119 0.19890119 0.19890119
0.19912539 0.19912539 0.19912539
0.19934950 0.19934950 0.19934950
0.19957350 0.19957350 0.19957350
0.19979741 0.19979741 0.19979741
0.20002122 0.20002122 0.20002122
0.20024492 0.20024492 0.20024492
0.20046853 0.20046853 0.20046853
0.20069204 0.20069204 0.20069204
0.20091544 0.20091544 0.20091544
0.20113875 0.20113875 0.20113875
0.20136196 0.20136196 0.20136196
0.20158506 0.20158506 0.20158506
0.20180807 0.20180807 0.20180807
0.20203098 0.20203098 0.20203098
0.20225378 0.20225378 0.20225378
0.20247649 0.20247649 0.20247649
0.20269909 0.20269909 0.20269909
0.20292159 0.20292159 0.20292159
0.20314400 0.20314400 0.20314400
0.20336630 0.20336630 0.20336630
0.20358850 0.20358850 0.20358850
0.20381060 0.20381060 0.20381060
0.20403260 0.20403260 0.20403260
0.20425450 0.20425450 0.20425450
0.20447630 0.20447630 0.20447630
0.20469799 0.20469799 0.20469799
0.20491959 0.20491959 0.20491959
0.20514108 0.20514108 0.20514108
0.20536247 0.20536247 0.20536247
0.20558376 0.20558376 0.20558376
0.20580495 0.20580495 0.20580495
0.20602604 0.20602604 0.20602604
0.20624702 0.20624702 0.20624702
0.20646791 0.20646791 0.20646791
0.20668869 0.20668869 0.20668869
0.20690937 0.20690937 0.20690937
0.20712995 0.20712995 0.20712995
0.20735043 0.20735043 0.20735043
0.20757080 0.20757080 0.20757080
0.20779107 0.20779107 0.20779107
0.20801124 0.20801124 0.20801124
0.20823131 0.20823131 0.20823131
0.20845128 0.20845128 0.20845128
0.20867114 0.20867114 0.20867114
0.20889090 0.20889090 0.20889090
0.20911056 0.20911056 0.20911056
0.20933012 0.20933012 0.20933012
0.20954957 0.20954957 0.20954957
0.20976893 0.20976893 0.20976893
0.20998817 0.20998817 0.20998817
0.21020732 0.21020732 0.21020732
0.21042637 0.21042637 0.21042637
0.21064531 0.21064531 0.21064531
0.21086414 0.21086414 0.21086414
0.21108288 0.21108288 0.21108288
0.21130151 0.21130151 0.21130151
0.21152004 0.21152004 0.21152004
0.21173847 0.21173847 0.21173847
0.21195679 0.21195679 0.21195679
0.21217502 0.21217502 0.21217502
0.21239313 0.21239313 0.21239313
0.21261115 0.21261115 0.21261115
0.21282906 0.21282906 0.21282906
0.21304687 0.21304687 0.21304687
0.21326458 0.21326458 0.21326458
0.21348218 0.21348218 0.21348218
0.21369968 0.21369968 0.21369968
0.21391707 0.21391707 0.21391707
0.21413437 0.21413437 0.21413437
0.21435155 0.21435155 0.21435155
0.21456864 0.21456864 0.21456864
0.21478562 0.21478562 0.21478562
0.21500250 0.21500250 0.21500250
0.21521928 0.21521928 0.21521928
0.21543595 0.21543595 0.21543595
0.21565252 0.21565252 0.21565252
0.21586898 0.21586898 0.21586898
0.21608534 0.21608534 0.21608534
0.21630160 0.21630160 0.21630160
0.21651775 0.21651775 0.21651775
0.21673380 0.21673380 0.21673380
0.21694975 0.21694975 0.21694975
0.21716559 0.21716559 0.21716559
0.21738133 0.21738133 0.21738133
0.21759697 0.21759697 0.21759697
0.21781250 0.21781250 0.21781250
0.21802793 0.21802793 0.21802793
0.21824325 0.21824325 0.21824325
0.21845847 0.21845847 0.21845847
0.21867358 0.21867358 0.21867358
0.21888860 0.21888860 0.21888860
0.21910350 0.21910350 0.21910350
0.21931831 0.21931831 0.21931831
0.21953301 0.21953301 0.21953301
0.21974760 0.21974760 0.21974760
0.21996209 0.21996209 0.21996209
0.22017648 0.22017648 0.22017648
0.22039077 0.22039077 0.22039077
0.22060495 0.22060495 0.22060495
0.22081902 0.22081902 0.22081902
0.22103299 0.22103299 0.22103299
0.22124686 0.22124686 0.22124686
0.22146062 0.22146062 0.22146062
0.22167428 0.22167428 0.22167428
0.22188784 0.22188784 0.22188784
0.22210129 0.22210129 0.22210129
0.22231463 0.22231463 0.22231463
0.22252788 0.22252788 0.22252788
0.22274101 0.22274101 0.22274101
0.22295405 0.22295405 0.22295405
0.22316698 0.22316698 0.22316698
0.22337980 0.22337980 0.22337980
0.22359252 0.22359252 0.22359252
0.22380514 0.22380514 0.22380514
0.22401765 0.22401765 0.22401765
0.22423006 0.22423006 0.22423006
0.22444237 0.22444237 0.22444237
0.22465457 0.22465457 0.22465457
0.22486666 0.22486666 0.22486666
0.22507865 0.22507865 0.22507865
0.22529054 0.22529054 0.22529054
0.22550232 0.22550232 0.22550232
0.22571400 0.22571400 0.22571400
0.22592558 0.22592558 0.22592558
0.22613704 0.22613704 0.22613704
0.22634841 0.22634841 0.22634841
0.22655967 0.22655967 0.22655967
0.22677083 0.22677083 0.22677083
0.22698188 0.22698188 0.22698188
0.22719283 0.22719283 0.22719283
0.22740367 0.22740367 0.22740367
0.22761441 0.22761441 0.22761441
0.22782505 0.22782505 0.22782505
0.22803558 0.22803558 0.22803558
0.22824600 0.22824600 0.22824600
0.22845633 0.22845633 0.22845633
0.22866654 0.22866654 0.22866654
0.22887666 0.22887666 0.22887666
0.22908667 0.22908667 0.22908667
0.22929657 0.22929657 0.22929657
0.22950637 0.22950637 0.22950637
0.22971607 0.22971607 0.22971607
0.22992566 0.22992566 0.22992566
0.23013515 0.23013515 0.23013515
0.23034453 0.23034453 0.23034453
0.23055381 0.23055381 0.23055381
0.23076299 0.23076299 0.23076299
0.23097206 0.23097206 0.23097206
0.23118102 0.23118102 0.23118102
0.23138989 0.23138989 0.23138989
0.23159864 0.23159864 0.23159864
0.23180730 0.23180730 0.23180730
0.23201585 0.23201585 0.23201585
0.23222429 0.23222429 0.23222429
0.23243263 0.23243263 0.23243263
0.23264087 0.23264087 0.23264087
0.23284900 0.23284900 0.23284900
0.23305703 0.23305703 0.23305703
0.23326496 0.23326496 0.23326496
0.23347278 0.23347278 0.23347278
0.23368049 0.23368049 0.23368049
0.23388811 0.23388811 0.23388811
0.23409561 0.23409561 0.23409561
0.23430302 0.23430302 0.23430302
0.23451032 0.23451032 0.23451032
0.23471751 0.23471751 0.23471751
0.23492460 0.23492460 0.23492460
0.23513159 0.23513159 0.23513159
0.23533848 0.23533848 0.23533848
0.23554526 0.23554526 0.23554526
0.23575193 0.23575193 0.23575193
0.23595850 0.23595850 0.23595850
0.23616497 0.23616497 0.23616497
0.23637134 0.23637134 0.23637134
0.23657760 0.23657760 0.23657760
0.23678375 0.23678375 0.23678375
0.23698980 0.23698980 0.23698980
