Submissions/LUTs/Samples/LUT-Calc/FCPX-ColorFinale.cube
TITLE "Custom LUT"
LUT_3D_SIZE 5
# S-Log3/Sony S-Gamut3.cine (Venice) -> S-Log3/Sony S-Gamut3.cine, CineEI Shift 0.00, Black Level 3.54% IRE, Input 100% -> Output 100% - Created with LUTCalc v4.09 by Ben Turley February 2025
DOMAIN_MIN 0.000000 0.000000 0.000000
DOMAIN_MAX 0.903226 0.903226 0.903226
0.00000000 0.00000000 0.00000000
0.23236599 0.00000000 0.00000000
0.45885582 0.00000000 0.00000000
0.68478164 0.00000000 0.00000000
0.91060899 0.00000000 0.00000000
0.00000000 0.22769470 0.00191751
0.22228067 0.22710087 0.00000000
0.45715352 0.22389592 0.00000000
0.68448525 0.20391242 0.00000000
0.91055712 0.00000000 0.00000000
0.00000000 0.45370181 0.01211611
0.14934378 0.45359811 0.01007185
0.44770369 0.45304521 0.00000000
0.68289740 0.44984372 0.00000000
0.91028087 0.42988375 0.00000000
0.00000000 0.67954338 0.07032249
0.00000000 0.67952522 0.06827823
0.37447647 0.67942861 0.05740550
0.67344284 0.67887581 0.00000000
0.90869289 0.67567492 0.00000000
0.00000000 0.90535599 0.25138189
0.00000000 0.90535281 0.25078424
0.00000000 0.90533588 0.24755838
0.60016450 0.90523927 0.22743206
0.89923749 0.90468649 0.00000000
0.00978984 0.00000000 0.22585148
0.23563119 0.00000000 0.22512337
0.45943087 0.00000000 0.22118060
0.68488249 0.00000000 0.19604599
0.91062666 0.00000000 0.00000000
0.00000000 0.22640623 0.22653074
0.22580645 0.22580645 0.22580645
0.45773615 0.22256894 0.22188471
0.68458633 0.20236296 0.19690025
0.91057480 0.00000000 0.00000000
0.00000000 0.45347732 0.23008489
0.15547017 0.45337345 0.22938024
0.44833027 0.45281959 0.22556671
0.68299973 0.44961244 0.20135152
0.91029859 0.42961394 0.00000000
0.00000000 0.67950409 0.24869234
0.00000000 0.67948592 0.24808213
0.37557671 0.67938928 0.24478745
0.67355290 0.67883631 0.22418992
0.90871082 0.67563443 0.00000000
0.00000000 0.90534910 0.32220860
0.00000000 0.90534592 0.32186285
0.00000000 0.90532900 0.32000826
0.60035814 0.90523238 0.30888352
0.89925679 0.90467958 0.21603933
0.06185869 0.00000000 0.45166275
0.25173754 0.00000000 0.45153548
0.46244724 0.00000000 0.45085644
0.68541755 0.00000000 0.44691140
0.91072062 0.00000000 0.42176060
0.03313152 0.21932944 0.45178202
0.24309977 0.21869593 0.45165486
0.46079175 0.21527346 0.45097645
0.68512262 0.19379553 0.44703512
0.91066879 0.00000000 0.42191079
0.00000000 0.45227677 0.45241454
0.18393075 0.45217193 0.45228800
0.45161290 0.45161290 0.45161290
0.68354261 0.44837539 0.44769116
0.91039278 0.42816941 0.42270670
0.00000000 0.67929489 0.45596659
0.00000000 0.67927670 0.45584348
0.38127662 0.67917990 0.45518669
0.67413672 0.67862604 0.45137317
0.90880618 0.67541889 0.42715798
0.00000000 0.90531248 0.47456399
0.00000000 0.90530930 0.47445733
0.00000000 0.90529238 0.47388858
0.60138316 0.90519573 0.47059391
0.89935935 0.90464277 0.44999637
0.23803142 0.00000000 0.67747005
0.31797113 0.00000000 0.67744776
0.47843605 0.00000000 0.67732913
0.68842978 0.00000000 0.67665003
0.91125556 0.00000000 0.67270459
0.22839377 0.16929252 0.67749095
0.31285815 0.16835953 0.67746867
0.47697373 0.16328121 0.67735006
0.68814163 0.12973346 0.67667107
0.91120394 0.00000000 0.67272628
0.15988981 0.44520358 0.67760209
0.28164805 0.44509286 0.67757982
0.46890623 0.44450238 0.67746131
0.68659820 0.44107991 0.67678291
0.91092907 0.41960198 0.67284157
0.00000000 0.67809445 0.67823454
0.00000000 0.67807608 0.67821238
0.40973720 0.67797838 0.67809445
0.67741935 0.67741935 0.67741935
0.90934906 0.67418184 0.67349761
0.00000000 0.90510329 0.68178623
0.00000000 0.90510010 0.68176467
0.00000000 0.90508315 0.68164993
0.60708307 0.90498635 0.68099314
0.89994317 0.90443249 0.67717962
0.45251111 0.00000000 0.90327665
0.47209148 0.00000000 0.90327274
0.54431351 0.00000000 0.90325197
0.70439817 0.00000000 0.90313334
0.91426706 0.00000000 0.90245423
0.45072284 0.00000000 0.90328031
0.47055537 0.00000000 0.90327640
0.54343574 0.00000000 0.90325563
0.70414345 0.00000000 0.90313701
0.91421663 0.00000000 0.90245791
0.44077354 0.39519851 0.90329979
0.46206472 0.39503565 0.90329589
0.53866460 0.39416598 0.90327512
0.70278018 0.38908766 0.90315651
0.91394808 0.35553991 0.90247752
0.36202624 0.67102188 0.90341092
0.39876743 0.67100249 0.90340702
0.50745450 0.67089931 0.90338627
0.69471268 0.67030883 0.90326777
0.91240465 0.66688637 0.90258936
0.00000000 0.90390286 0.90404336
0.00000000 0.90389965 0.90403948
0.00000000 0.90388254 0.90401883
0.63554366 0.90378483 0.90390090
0.90322581 0.90322581 0.90322581
