Submissions/LUTs/Samples/LUT-Calc/FCPX-ColorFinale.cube
TITLE "Custom LUT"
LUT_3D_SIZE 32
# S-Log3/Sony S-Gamut3.cine (Venice) -> S-Log3/Sony S-Gamut3.cine, CineEI Shift 0.00, Black Level 3.54% IRE, Input 100% -> Output 100% - Created with LUTCalc v4.09 by Ben Turley February 2025
0.00000000 0.00000000 0.00000000
0.03414964 0.00000000 0.00000000
0.06829928 0.00000000 0.00000000
0.10244892 0.00000000 0.00000000
0.13466678 0.00000000 0.00000000
0.16731306 0.00000000 0.00000000
0.19987302 0.00000000 0.00000000
0.23236599 0.00000000 0.00000000
0.26480692 0.00000000 0.00000000
0.29720739 0.00000000 0.00000000
0.32957638 0.00000000 0.00000000
0.36192087 0.00000000 0.00000000
0.39424629 0.00000000 0.00000000
0.42655684 0.00000000 0.00000000
0.45885582 0.00000000 0.00000000
0.49114577 0.00000000 0.00000000
0.52342870 0.00000000 0.00000000
0.55570614 0.00000000 0.00000000
0.58797932 0.00000000 0.00000000
0.62024916 0.00000000 0.00000000
0.65251641 0.00000000 0.00000000
0.68478164 0.00000000 0.00000000
0.71704528 0.00000000 0.00000000
0.74930770 0.00000000 0.00000000
0.78156916 0.00000000 0.00000000
0.81382987 0.00000000 0.00000000
0.84609000 0.00000000 0.00000000
0.87834967 0.00000000 0.00000000
0.91060899 0.00000000 0.00000000
0.94286803 0.00000000 0.00000000
0.97512686 0.00000000 0.00000000
1.00738552 0.00000000 0.00000000
0.00000000 0.03279281 0.00019153
0.03128019 0.03262380 0.00000000
0.06542984 0.03245478 0.00000000
0.09957948 0.03228577 0.00000000
0.13259107 0.03210629 0.00000000
0.16570231 0.03185026 0.00000000
0.19862174 0.03152190 0.00000000
0.23139315 0.03110077 0.00000000
0.26405008 0.03056066 0.00000000
0.29661829 0.02986797 0.00000000
0.32911768 0.02897959 0.00000000
0.36156359 0.02784023 0.00000000
0.39396793 0.02637898 0.00000000
0.42633994 0.02450491 0.00000000
0.45868678 0.02210140 0.00000000
0.49101402 0.01901887 0.00000000
0.52332600 0.01506548 0.00000000
0.55562609 0.00999521 0.00000000
0.58791691 0.00349254 0.00000000
0.62020051 0.00000000 0.00000000
0.65247848 0.00000000 0.00000000
0.68475206 0.00000000 0.00000000
0.71702223 0.00000000 0.00000000
0.74928972 0.00000000 0.00000000
0.78155514 0.00000000 0.00000000
0.81381894 0.00000000 0.00000000
0.84608148 0.00000000 0.00000000
0.87834303 0.00000000 0.00000000
0.91060381 0.00000000 0.00000000
0.94286399 0.00000000 0.00000000
0.97512371 0.00000000 0.00000000
1.00738306 0.00000000 0.00000000
0.00000000 0.06558561 0.00038307
0.02841075 0.06541660 0.00017887
0.06256039 0.06524759 0.00000000
0.09671003 0.06507858 0.00000000
0.13048158 0.06489910 0.00000000
0.16407129 0.06464307 0.00000000
0.19735826 0.06431471 0.00000000
0.23041296 0.06389358 0.00000000
0.26328879 0.06335347 0.00000000
0.29602651 0.06266078 0.00000000
0.32865734 0.06177240 0.00000000
0.36120532 0.06063303 0.00000000
0.39368898 0.05917179 0.00000000
0.42612268 0.05729772 0.00000000
0.45851753 0.05489421 0.00000000
0.49088214 0.05181167 0.00000000
0.52322323 0.04785829 0.00000000
0.55554598 0.04278802 0.00000000
0.58785447 0.03628534 0.00000000
0.62015183 0.02794558 0.00000000
0.65244053 0.01724974 0.00000000
0.68472248 0.00353219 0.00000000
0.71699916 0.00000000 0.00000000
0.74927174 0.00000000 0.00000000
0.78154112 0.00000000 0.00000000
0.81380801 0.00000000 0.00000000
0.84607296 0.00000000 0.00000000
0.87833638 0.00000000 0.00000000
0.91059863 0.00000000 0.00000000
0.94285996 0.00000000 0.00000000
0.97512056 0.00000000 0.00000000
1.00738061 0.00000000 0.00000000
0.00000000 0.09837842 0.00057460
0.02554130 0.09820941 0.00037041
0.05969094 0.09804040 0.00016621
0.09384058 0.09787139 0.00000000
0.12833720 0.09769191 0.00000000
0.16241949 0.09743588 0.00000000
0.19608235 0.09710751 0.00000000
0.22942530 0.09668638 0.00000000
0.26252301 0.09614628 0.00000000
0.29543201 0.09545359 0.00000000
0.32819537 0.09456520 0.00000000
0.36084605 0.09342584 0.00000000
0.39340943 0.09196459 0.00000000
0.42590506 0.09009053 0.00000000
0.45834805 0.08768701 0.00000000
0.49075013 0.08460448 0.00000000
0.52312037 0.08065109 0.00000000
0.55546583 0.07558083 0.00000000
0.58779200 0.06907815 0.00000000
0.62010314 0.06073839 0.00000000
0.65240258 0.05004254 0.00000000
0.68469289 0.03632499 0.00000000
0.71697610 0.01873207 0.00000000
0.74925376 0.00000000 0.00000000
0.78152710 0.00000000 0.00000000
0.81379708 0.00000000 0.00000000
0.84606443 0.00000000 0.00000000
0.87832974 0.00000000 0.00000000
0.91059345 0.00000000 0.00000000
0.94285592 0.00000000 0.00000000
0.97511741 0.00000000 0.00000000
1.00737815 0.00000000 0.00000000
0.00000000 0.13065010 0.00077799
0.02249414 0.13052494 0.00057380
0.05664378 0.13039965 0.00036961
0.09079343 0.13027425 0.00016541
0.12602049 0.13014094 0.00000000
0.16064205 0.12995054 0.00000000
0.19471353 0.12970594 0.00000000
0.22836816 0.12939156 0.00000000
0.26170482 0.12898724 0.00000000
0.29479769 0.12846684 0.00000000
0.32770297 0.12779636 0.00000000
0.36046345 0.12693134 0.00000000
0.39311190 0.12581344 0.00000000
0.42567355 0.12436546 0.00000000
0.45816783 0.12248441 0.00000000
0.49060979 0.11942820 0.00000000
0.52301105 0.11547482 0.00000000
0.55538066 0.11040455 0.00000000
0.58772563 0.10390187 0.00000000
0.62005142 0.09556211 0.00000000
0.65236226 0.08486627 0.00000000
0.68466147 0.07114872 0.00000000
0.71695160 0.05355580 0.00000000
0.74923466 0.03099267 0.00000000
0.78151221 0.00205518 0.00000000
0.81378547 0.00000000 0.00000000
0.84605538 0.00000000 0.00000000
0.87832268 0.00000000 0.00000000
0.91058795 0.00000000 0.00000000
0.94285163 0.00000000 0.00000000
0.97511407 0.00000000 0.00000000
1.00737555 0.00000000 0.00000000
0.00000000 0.16302149 0.00106814
0.01814728 0.16292399 0.00086395
0.05229692 0.16282642 0.00065976
0.08644656 0.16272878 0.00045556
0.12264231 0.16262500 0.00023872
0.15806353 0.16247683 0.00000000
0.19273551 0.16228654 0.00000000
0.22684505 0.16204208 0.00000000
0.26052863 0.16172789 0.00000000
0.29388742 0.16132382 0.00000000
0.32699730 0.16080374 0.00000000
0.35991568 0.16013366 0.00000000
0.39268629 0.15926918 0.00000000
0.42534259 0.15815196 0.00000000
0.45791032 0.15670489 0.00000000
0.49040932 0.15482503 0.00000000
0.52285494 0.15237350 0.00000000
0.55525906 0.14915996 0.00000000
0.58763089 0.14491842 0.00000000
0.61997759 0.13926723 0.00000000
0.65230473 0.13163915 0.00000000
0.68461662 0.12082589 0.00000000
0.71691664 0.10323297 0.00000000
0.74920741 0.08066984 0.00000000
0.78149097 0.05173235 0.00000000
0.81376891 0.01461968 0.00000000
0.84604247 0.00000000 0.00000000
0.87831262 0.00000000 0.00000000
0.91058010 0.00000000 0.00000000
0.94284551 0.00000000 0.00000000
0.97510930 0.00000000 0.00000000
1.00737183 0.00000000 0.00000000
0.00000000 0.19536784 0.00144026
0.01257237 0.19529188 0.00123607
0.04672201 0.19521587 0.00103188
0.08087165 0.19513982 0.00082768
0.11713624 0.19505901 0.00061084
0.15467966 0.19494364 0.00030152
0.19015368 0.19479554 0.00000000
0.22486508 0.19460534 0.00000000
0.25900436 0.19436100 0.00000000
0.29271054 0.19404695 0.00000000
0.32608661 0.19364307 0.00000000
0.35920976 0.19312323 0.00000000
0.39213837 0.19245348 0.00000000
0.42491688 0.19158941 0.00000000
0.45757930 0.19047273 0.00000000
0.49015177 0.18902636 0.00000000
0.52265446 0.18714743 0.00000000
0.55510294 0.18469712 0.00000000
0.58750929 0.18148523 0.00000000
0.61988285 0.17724592 0.00000000
0.65223090 0.17159782 0.00000000
0.68455908 0.16397414 0.00000000
0.71687180 0.15349082 0.00000000
0.74917245 0.13867169 0.00000000
0.78146372 0.11544391 0.00000000
0.81374767 0.07833124 0.00000000
0.84602591 0.03073379 0.00000000
0.87829970 0.00000000 0.00000000
0.91057003 0.00000000 0.00000000
0.94283766 0.00000000 0.00000000
0.97510318 0.00000000 0.00000000
1.00736705 0.00000000 0.00000000
0.00000000 0.22769470 0.00191751
0.00542248 0.22763551 0.00171332
0.03957212 0.22757629 0.00150913
0.07372176 0.22751704 0.00130493
0.10998635 0.22745409 0.00108809
0.15020638 0.22736425 0.00077876
0.18676537 0.22724892 0.00038205
0.22228067 0.22710087 0.00000000
0.25702287 0.22691074 0.00000000
0.29118537 0.22666649 0.00000000
0.32490920 0.22635256 0.00000000
0.35829875 0.22594882 0.00000000
0.39143226 0.22542918 0.00000000
0.42436885 0.22475967 0.00000000
0.45715352 0.22389592 0.00000000
0.48982071 0.22277966 0.00000000
0.52239688 0.22133384 0.00000000
0.55490244 0.21945563 0.00000000
0.58735316 0.21700628 0.00000000
0.61976124 0.21379567 0.00000000
0.65213615 0.20955810 0.00000000
0.68448525 0.20391242 0.00000000
0.71681426 0.19629215 0.00000000
0.74912761 0.18581388 0.00000000
0.78142876 0.17100262 0.00000000
0.81372041 0.14913452 0.00000000
0.84600466 0.11244463 0.00000000
0.87828314 0.05140034 0.00000000
0.91055712 0.00000000 0.00000000
0.94282759 0.00000000 0.00000000
0.97509533 0.00000000 0.00000000
1.00736093 0.00000000 0.00000000
0.00000000 0.26000639 0.00252959
0.00000000 0.25996025 0.00232540
0.03040230 0.25991410 0.00212120
0.06455194 0.25986794 0.00191701
0.10081653 0.25981890 0.00170017
0.14423372 0.25974890 0.00139084
0.18228603 0.25965908 0.00099412
0.21888888 0.25954379 0.00048533
0.25443644 0.25939578 0.00000000
0.28920270 0.25920570 0.00000000
0.32338333 0.25896152 0.00000000
0.35712092 0.25864768 0.00000000
0.39052100 0.25824406 0.00000000
0.42366259 0.25772456 0.00000000
0.45660540 0.25705525 0.00000000
0.48939488 0.25619175 0.00000000
0.52206579 0.25507582 0.00000000
0.55464485 0.25363042 0.00000000
0.58715265 0.25175277 0.00000000
0.61960510 0.24930417 0.00000000
0.65201454 0.24609456 0.00000000
0.68439050 0.24185835 0.00000000
0.71674042 0.23621454 0.00000000
0.74907007 0.22859694 0.00000000
0.78138391 0.21812260 0.00000000
0.81368546 0.20331747 0.00000000
0.84597741 0.18145980 0.00000000
0.87826190 0.14664177 0.00000000
0.91054056 0.07790543 0.00000000
0.94281468 0.00000000 0.00000000
0.97508526 0.00000000 0.00000000
1.00735308 0.00000000 0.00000000
0.00000000 0.29230624 0.00331459
0.00000000 0.29227029 0.00311039
0.01864190 0.29223432 0.00290620
0.05279154 0.29219834 0.00270201
0.08905613 0.29216012 0.00248517
0.13614752 0.29210559 0.00217584
0.17630496 0.29203561 0.00177912
0.21440481 0.29194580 0.00127033
0.25104194 0.29183054 0.00061779
0.28661468 0.29168256 0.00000000
0.32139972 0.29149253 0.00000000
0.35559450 0.29124840 0.00000000
0.38934284 0.29093463 0.00000000
0.42275113 0.29053110 0.00000000
0.45589902 0.29001172 0.00000000
0.48884668 0.28934255 0.00000000
0.52163991 0.28847925 0.00000000
0.55431373 0.28736358 0.00000000
0.58689504 0.28591851 0.00000000
0.61940458 0.28404130 0.00000000
0.65185840 0.28159328 0.00000000
0.68426888 0.27838444 0.00000000
0.71664567 0.27414929 0.00000000
0.74899623 0.26850694 0.00000000
0.78132637 0.26089143 0.00000000
0.81364061 0.25042015 0.00000000
0.84594245 0.23561979 0.00000000
0.87823464 0.21377025 0.00000000
0.91051931 0.17896836 0.00000000
0.94279811 0.11189853 0.00000000
0.97507235 0.00000000 0.00000000
1.00734302 0.00000000 0.00000000
0.00000000 0.32459689 0.00432136
0.00000000 0.32456886 0.00411716
0.00355904 0.32454082 0.00391297
0.03770868 0.32451278 0.00370877
0.07397328 0.32448300 0.00349193
0.12497908 0.32444049 0.00318261
0.16820673 0.32438597 0.00278589
0.20841716 0.32431600 0.00227709
0.24655417 0.32422621 0.00162456
0.28321807 0.32411097 0.00078767
0.31881048 0.32396301 0.00000000
0.35361017 0.32377301 0.00000000
0.38781599 0.32352893 0.00000000
0.42157271 0.32321521 0.00000000
0.45498741 0.32281175 0.00000000
0.48814021 0.32229247 0.00000000
0.52109167 0.32162342 0.00000000
0.55388782 0.32076027 0.00000000
0.58656389 0.31964479 0.00000000
0.61914696 0.31819998 0.00000000
0.65165787 0.31632312 0.00000000
0.68411274 0.31387554 0.00000000
0.71652405 0.31066731 0.00000000
0.74890148 0.30643299 0.00000000
0.78125254 0.30079178 0.00000000
0.81358307 0.29317788 0.00000000
0.84589760 0.28270899 0.00000000
0.87819968 0.26791236 0.00000000
0.91049206 0.24606915 0.00000000
0.94277687 0.21127983 0.00000000
0.97505578 0.14618269 0.00000000
1.00733010 0.00000000 0.00000000
0.00000000 0.35688035 0.00561255
0.00000000 0.35685850 0.00540835
0.00000000 0.35683664 0.00520416
0.01836474 0.35681478 0.00499997
0.05462933 0.35679157 0.00478313
0.10636194 0.35675844 0.00447380
0.15702038 0.35671595 0.00407708
0.20030952 0.35666143 0.00356828
0.24056138 0.35659147 0.00291575
0.27872741 0.35650170 0.00207886
0.31541221 0.35638647 0.00100555
0.35101997 0.35623853 0.00000000
0.38583110 0.35604856 0.00000000
0.42004553 0.35580451 0.00000000
0.45380879 0.35549083 0.00000000
0.48722848 0.35508743 0.00000000
0.52038512 0.35456821 0.00000000
0.55333953 0.35389925 0.00000000
0.58613796 0.35303622 0.00000000
0.61881580 0.35192090 0.00000000
0.65140023 0.35047629 0.00000000
0.68391221 0.34859969 0.00000000
0.71636790 0.34615247 0.00000000
0.74877986 0.34294472 0.00000000
0.78115778 0.33871103 0.00000000
0.81350923 0.33307071 0.00000000
0.84584006 0.32545808 0.00000000
0.87815484 0.31499105 0.00000000
0.91045710 0.30019732 0.00000000
0.94274962 0.27835904 0.00000000
0.97503454 0.24357952 0.00000000
1.00731354 0.17850952 0.00000000
0.00000000 0.38915821 0.00726852
0.00000000 0.38914117 0.00706432
0.00000000 0.38912414 0.00686013
0.00000000 0.38910710 0.00665593
0.02982049 0.38908900 0.00643909
0.08155310 0.38906318 0.00612977
0.14109763 0.38903006 0.00573305
0.18910917 0.38898757 0.00522425
0.23244639 0.38893306 0.00457172
0.27273061 0.38886311 0.00373483
0.31091930 0.38877334 0.00266152
0.34762041 0.38865812 0.00128498
0.38324015 0.38851020 0.00000000
0.41806020 0.38832025 0.00000000
0.45228135 0.38807622 0.00000000
0.48604972 0.38776258 0.00000000
0.51947330 0.38735922 0.00000000
0.55263293 0.38684006 0.00000000
0.58558964 0.38617117 0.00000000
0.61838985 0.38530823 0.00000000
0.65106906 0.38419303 0.00000000
0.68365457 0.38274858 0.00000000
0.71616736 0.38087219 0.00000000
0.74862371 0.37842525 0.00000000
0.78103616 0.37521786 0.00000000
0.81341448 0.37098467 0.00000000
0.84576623 0.36534505 0.00000000
0.87809729 0.35773340 0.00000000
0.91041225 0.34726782 0.00000000
0.94271466 0.33247635 0.00000000
0.97500729 0.31064192 0.00000000
1.00729230 0.27587003 0.00000000
0.00000000 0.42143171 0.00939231
0.00000000 0.42141843 0.00918812
0.00000000 0.42140515 0.00898393
0.00000000 0.42139186 0.00877973
0.00000000 0.42137776 0.00856289
0.04973547 0.42135763 0.00825357
0.11608316 0.42133181 0.00785685
0.17316428 0.42129869 0.00734805
0.22123510 0.42125621 0.00669552
0.26460988 0.42120170 0.00585863
0.30491937 0.42113175 0.00478532
0.34312575 0.42104199 0.00340878
0.37983958 0.42092678 0.00164335
0.41546866 0.42077888 0.00000000
0.45029568 0.42058894 0.00000000
0.48452207 0.42034493 0.00000000
0.51829441 0.42003132 0.00000000
0.55172103 0.41962799 0.00000000
0.58488299 0.41910887 0.00000000
0.61784150 0.41844004 0.00000000
0.65064309 0.41757717 0.00000000
0.68332339 0.41646207 0.00000000
0.71590972 0.41501774 0.00000000
0.74842316 0.41314151 0.00000000
0.78088001 0.41069478 0.00000000
0.81329285 0.40748768 0.00000000
0.84567147 0.40325488 0.00000000
0.87802346 0.39761580 0.00000000
0.91035471 0.39000491 0.00000000
0.94266981 0.37954047 0.00000000
0.97497233 0.36475076 0.00000000
1.00726504 0.34291933 0.00000000
0.00000000 0.45370181 0.01211611
0.00000000 0.45369145 0.01191192
0.00000000 0.45368110 0.01170773
0.00000000 0.45367074 0.01150353
0.00000000 0.45365974 0.01128669
0.00892897 0.45364405 0.01097736
0.07527666 0.45362393 0.01058065
0.14934378 0.45359811 0.01007185
0.20527291 0.45356500 0.00941932
0.25339004 0.45352251 0.00858243
0.29679415 0.45346801 0.00750911
0.33712336 0.45339807 0.00613257
0.37534354 0.45330831 0.00436715
0.41206731 0.45319311 0.00210296
0.44770369 0.45304521 0.00000000
0.48253613 0.45285529 0.00000000
0.51676661 0.45261130 0.00000000
0.55054205 0.45229770 0.00000000
0.58397104 0.45189440 0.00000000
0.61713482 0.45137531 0.00000000
0.65009472 0.45070653 0.00000000
0.68289740 0.44984372 0.00000000
0.71557853 0.44872868 0.00000000
0.74816551 0.44728445 0.00000000
0.78067946 0.44540835 0.00000000
0.81313669 0.44296179 0.00000000
0.84554984 0.43975491 0.00000000
0.87792870 0.43552242 0.00000000
0.91028087 0.42988375 0.00000000
0.94261227 0.42227347 0.00000000
0.97492748 0.41180990 0.00000000
1.00723008 0.39702157 0.00000000
0.00000000 0.48596925 0.01560942
0.00000000 0.48596118 0.01540522
0.00000000 0.48595311 0.01520103
0.00000000 0.48594503 0.01499684
0.00000000 0.48593646 0.01478000
0.00000000 0.48592423 0.01447067
0.02294184 0.48590854 0.01407395
0.10803355 0.48588841 0.01356516
0.18142224 0.48586260 0.01291262
0.23741433 0.48582949 0.01207573
0.28556764 0.48578700 0.01100242
0.32899465 0.48573250 0.00962588
0.36933925 0.48566256 0.00786045
0.40757020 0.48557281 0.00559627
0.44430172 0.48545762 0.00269242
0.47994378 0.48530973 0.00000000
0.51478046 0.48511981 0.00000000
0.54901412 0.48487583 0.00000000
0.58279199 0.48456225 0.00000000
0.61622283 0.48415897 0.00000000
0.64938802 0.48363991 0.00000000
0.68234902 0.48297116 0.00000000
0.71515254 0.48210839 0.00000000
0.74783432 0.48099341 0.00000000
0.78042181 0.47954926 0.00000000
0.81293615 0.47767325 0.00000000
0.84539369 0.47522682 0.00000000
0.87780707 0.47202012 0.00000000
0.91018611 0.46778786 0.00000000
0.94253843 0.46214953 0.00000000
0.97486994 0.45453971 0.00000000
1.00718524 0.44407683 0.00000000
0.00000000 0.51823463 0.02008962
0.00000000 0.51822834 0.01988543
0.00000000 0.51822204 0.01968123
0.00000000 0.51821575 0.01947704
0.00000000 0.51820906 0.01926020
0.00000000 0.51819953 0.01895087
0.00000000 0.51818730 0.01855415
0.04091351 0.51817161 0.01804536
0.14255345 0.51815148 0.01739282
0.21354009 0.51812567 0.01655594
0.26958138 0.51809256 0.01548262
0.31776293 0.51805008 0.01410608
0.36120781 0.51799558 0.01234065
0.40156442 0.51792564 0.01007647
0.43980378 0.51783590 0.00717263
0.47654134 0.51772071 0.00344841
0.51218783 0.51757282 0.00000000
0.54702781 0.51738291 0.00000000
0.58126396 0.51713894 0.00000000
0.61504371 0.51682538 0.00000000
0.64847599 0.51642211 0.00000000
0.68164229 0.51590307 0.00000000
0.71460414 0.51523434 0.00000000
0.74740832 0.51437161 0.00000000
0.78009061 0.51325668 0.00000000
0.81267849 0.51181258 0.00000000
0.84519314 0.50993665 0.00000000
0.87765092 0.50749032 0.00000000
0.91006449 0.50428375 0.00000000
0.94244367 0.50005169 0.00000000
0.97479610 0.49441360 0.00000000
1.00712769 0.48680415 0.00000000
0.00000000 0.55049840 0.02583554
0.00000000 0.55049349 0.02563134
0.00000000 0.55048858 0.02542715
0.00000000 0.55048368 0.02522296
0.00000000 0.55047847 0.02500612
0.00000000 0.55047103 0.02469679
0.00000000 0.55046149 0.02430007
0.00000000 0.55044926 0.02379128
0.06396240 0.55043358 0.02313874
0.17462225 0.55041345 0.02230185
0.24568872 0.55038764 0.02122854
0.30176843 0.55035453 0.01985200
0.34997203 0.55031205 0.01808657
0.39343085 0.55025755 0.01582239
0.43379684 0.55018762 0.01291854
0.47204274 0.55009787 0.00919433
0.50878501 0.54998269 0.00441798
0.54443497 0.54983481 0.00000000
0.57927752 0.54964490 0.00000000
0.61351561 0.54940094 0.00000000
0.64729683 0.54908738 0.00000000
0.68073024 0.54868413 0.00000000
0.71389740 0.54816511 0.00000000
0.74685991 0.54749640 0.00000000
0.77966460 0.54663369 0.00000000
0.81234729 0.54551879 0.00000000
0.84493548 0.54407474 0.00000000
0.87745037 0.54219887 0.00000000
0.90990833 0.53975262 0.00000000
0.94232204 0.53654616 0.00000000
0.97470134 0.53231424 0.00000000
1.00705386 0.52667636 0.00000000
0.00000000 0.58276091 0.03320474
0.00000000 0.58275708 0.03300055
0.00000000 0.58275326 0.03279636
0.00000000 0.58274943 0.03259216
0.00000000 0.58274537 0.03237532
0.00000000 0.58273957 0.03206599
0.00000000 0.58273214 0.03166928
0.00000000 0.58272260 0.03116048
0.00000000 0.58271037 0.03050795
0.09352287 0.58269468 0.02967106
0.20673255 0.58267456 0.02859774
0.27786140 0.58264875 0.02722120
0.33397109 0.58261564 0.02545578
0.38219190 0.58257316 0.02319159
0.42566160 0.58251866 0.02028775
0.46603489 0.58244873 0.01656354
0.50428591 0.58235899 0.01178719
0.54103186 0.58224380 0.00566146
0.57668451 0.58209593 0.00000000
0.61152907 0.58190603 0.00000000
0.64576868 0.58166207 0.00000000
0.67955104 0.58134852 0.00000000
0.71298532 0.58094528 0.00000000
0.74615316 0.58042627 0.00000000
0.77911619 0.57975758 0.00000000
0.81192128 0.57889489 0.00000000
0.84460428 0.57778002 0.00000000
0.87719270 0.57633600 0.00000000
0.90970778 0.57446018 0.00000000
0.94216588 0.57201399 0.00000000
0.97457971 0.56880761 0.00000000
1.00695910 0.56457580 0.00000000
0.00000000 0.61502244 0.04265584
0.00000000 0.61501946 0.04245164
0.00000000 0.61501647 0.04224745
0.00000000 0.61501349 0.04204326
0.00000000 0.61501032 0.04182642
0.00000000 0.61500580 0.04151709
0.00000000 0.61500001 0.04112037
0.00000000 0.61499257 0.04061158
0.00000000 0.61498304 0.03995904
0.00000000 0.61497081 0.03912215
0.12933506 0.61495512 0.03804884
0.23887528 0.61493500 0.03667230
0.31005284 0.61490919 0.03490687
0.36618594 0.61487608 0.03264269
0.41442017 0.61483360 0.02973884
0.45789837 0.61477910 0.02601463
0.49827736 0.61470917 0.02123828
0.53653236 0.61461943 0.01511256
0.57328118 0.61450425 0.00725625
0.60893593 0.61435638 0.00000000
0.64378206 0.61416648 0.00000000
0.67802284 0.61392253 0.00000000
0.71180610 0.61360898 0.00000000
0.74524107 0.61320575 0.00000000
0.77840943 0.61268675 0.00000000
0.81137286 0.61201807 0.00000000
0.84417826 0.61115540 0.00000000
0.87686150 0.61004055 0.00000000
0.90945011 0.60859656 0.00000000
0.94196533 0.60672077 0.00000000
0.97442355 0.60427463 0.00000000
1.00683747 0.60106832 0.00000000
0.00000000 0.64728321 0.05477698
0.00000000 0.64728088 0.05457279
0.00000000 0.64727856 0.05436859
0.00000000 0.64727623 0.05416440
0.00000000 0.64727376 0.05394756
0.00000000 0.64727024 0.05363823
0.00000000 0.64726572 0.05324151
0.00000000 0.64725992 0.05273272
0.00000000 0.64725249 0.05208018
0.00000000 0.64724295 0.05124330
0.00000000 0.64723072 0.05016998
0.16138352 0.64721503 0.04879344
0.27104334 0.64719491 0.04702801
0.34225894 0.64716910 0.04476383
0.39841031 0.64713599 0.04185999
0.44665501 0.64709351 0.03813577
0.49013982 0.64703902 0.03335943
0.53052326 0.64696909 0.02723370
0.56878137 0.64687935 0.01937739
0.60553242 0.64676417 0.00930157
0.64118881 0.64661630 0.00000000
0.67603616 0.64642641 0.00000000
0.71027787 0.64618246 0.00000000
0.74406182 0.64586892 0.00000000
0.77749732 0.64546569 0.00000000
0.81066609 0.64494669 0.00000000
0.84362984 0.64427802 0.00000000
0.87643548 0.64341537 0.00000000
0.90911891 0.64230053 0.00000000
0.94170767 0.64085657 0.00000000
0.97422300 0.63898081 0.00000000
1.00668131 0.63653471 0.00000000
0.00000000 0.67954338 0.07032249
0.00000000 0.67954157 0.07011830
0.00000000 0.67953975 0.06991410
0.00000000 0.67953794 0.06970991
0.00000000 0.67953601 0.06949307
0.00000000 0.67953327 0.06918374
0.00000000 0.67952974 0.06878702
0.00000000 0.67952522 0.06827823
0.00000000 0.67951943 0.06762569
0.00000000 0.67951199 0.06678881
0.00000000 0.67950246 0.06571549
0.00000000 0.67949023 0.06433895
0.19347792 0.67947454 0.06257352
0.30323119 0.67945442 0.06030934
0.37447647 0.67942861 0.05740550
0.43064208 0.67939550 0.05368128
0.47889495 0.67935302 0.04890494
0.52238493 0.67929852 0.04277921
0.56277183 0.67922860 0.03492290
0.60103237 0.67913886 0.02484708
0.63778517 0.67902368 0.01192473
0.67344284 0.67887581 0.00000000
0.70829114 0.67868592 0.00000000
0.74253356 0.67844198 0.00000000
0.77631806 0.67812844 0.00000000
0.80975397 0.67772521 0.00000000
0.84292306 0.67720623 0.00000000
0.87588705 0.67653756 0.00000000
0.90869289 0.67567492 0.00000000
0.94137646 0.67456010 0.00000000
0.97396534 0.67311615 0.00000000
1.00648076 0.67124041 0.00000000
0.00000000 0.71180309 0.09025979
0.00000000 0.71180168 0.09005560
0.00000000 0.71180026 0.08985141
0.00000000 0.71179885 0.08964721
0.00000000 0.71179735 0.08943037
0.00000000 0.71179520 0.08912105
0.00000000 0.71179246 0.08872433
0.00000000 0.71178893 0.08821553
0.00000000 0.71178441 0.08756300
0.00000000 0.71177862 0.08672611
0.00000000 0.71177118 0.08565280
0.00000000 0.71176165 0.08427626
0.00000000 0.71174942 0.08251083
0.22560823 0.71173373 0.08024664
0.33543447 0.71171361 0.07734280
0.40670292 0.71168780 0.07361859
