Submissions/LUTs/Samples/LUT-Calc/FCPX-ColorFinale.cube
TITLE "Custom LUT"
LUT_3D_SIZE 8
# S-Log3/Sony S-Gamut3.cine (Venice) -> S-Log3/Sony S-Gamut3.cine, CineEI Shift 0.00, Black Level 3.54% IRE, Input 100% -> Output 100% - Created with LUTCalc v4.09 by Ben Turley February 2025
DOMAIN_MIN 0.000000 0.000000 0.000000
DOMAIN_MAX 0.903226 0.903226 0.903226
0.00000000 0.00000000 0.00000000
0.13466678 0.00000000 0.00000000
0.26480692 0.00000000 0.00000000
0.39424629 0.00000000 0.00000000
0.52342870 0.00000000 0.00000000
0.65251641 0.00000000 0.00000000
0.78156916 0.00000000 0.00000000
0.91060899 0.00000000 0.00000000
0.00000000 0.13065010 0.00077799
0.12602049 0.13014094 0.00000000
0.26170482 0.12898724 0.00000000
0.39311190 0.12581344 0.00000000
0.52301105 0.11547482 0.00000000
0.65236226 0.08486627 0.00000000
0.78151221 0.00205518 0.00000000
0.91058795 0.00000000 0.00000000
0.00000000 0.26000639 0.00252959
0.10081653 0.25981890 0.00170017
0.25443644 0.25939578 0.00000000
0.39052100 0.25824406 0.00000000
0.52206579 0.25507582 0.00000000
0.65201454 0.24609456 0.00000000
0.78138391 0.21812260 0.00000000
0.91054056 0.07790543 0.00000000
0.00000000 0.38915821 0.00726852
0.02982049 0.38908900 0.00643909
0.23244639 0.38893306 0.00457172
0.38324015 0.38851020 0.00000000
0.51947330 0.38735922 0.00000000
0.65106906 0.38419303 0.00000000
0.78103616 0.37521786 0.00000000
0.91041225 0.34726782 0.00000000
0.00000000 0.51823463 0.02008962
0.00000000 0.51820906 0.01926020
0.14255345 0.51815148 0.01739282
0.36120781 0.51799558 0.01234065
0.51218783 0.51757282 0.00000000
0.64847599 0.51642211 0.00000000
0.78009061 0.51325668 0.00000000
0.91006449 0.50428375 0.00000000
0.00000000 0.64728321 0.05477698
0.00000000 0.64727376 0.05394756
0.00000000 0.64725249 0.05208018
0.27104334 0.64719491 0.04702801
0.49013982 0.64703902 0.03335943
0.64118881 0.64661630 0.00000000
0.77749732 0.64546569 0.00000000
0.90911891 0.64230053 0.00000000
0.00000000 0.77632150 0.14159005
0.00000000 0.77631801 0.14102455
0.00000000 0.77631014 0.13974229
0.00000000 0.77628887 0.13620819
0.39987455 0.77623130 0.12613372
0.61913500 0.77607541 0.09022547
0.77020951 0.77565270 0.00000000
0.90652554 0.77450213 0.00000000
0.00000000 0.90535599 0.25138189
0.00000000 0.90535470 0.25113974
0.00000000 0.90535179 0.25059288
0.00000000 0.90534393 0.24910171
0.00000000 0.90532265 0.24497920
0.52883242 0.90526508 0.23312036
0.74815356 0.90510919 0.19423287
0.89923749 0.90468649 0.00000000
0.00397204 0.00000000 0.12907080
0.13748633 0.00000000 0.12844784
0.26584734 0.00000000 0.12703423
0.39463061 0.00000000 0.12313063
0.52357072 0.00000000 0.10966393
0.65256890 0.00000000 0.07268372
0.78158856 0.00000000 0.00000000
0.91061616 0.00000000 0.00000000
0.00000000 0.12954578 0.12965242
0.12903226 0.12903226 0.12903226
0.26277033 0.12786860 0.12762505
0.39349960 0.12466695 0.12373946
0.52315353 0.11398924 0.11044192
0.65241481 0.08338069 0.07346171
0.78153162 0.00056961 0.00000000
0.91059512 0.00000000 0.00000000
0.00000000 0.25960032 0.13095244
0.10478857 0.25941224 0.13033848
0.25556313 0.25898779 0.12894545
0.39091651 0.25783243 0.12509983
0.52220931 0.25465399 0.11219352
0.65206723 0.24564241 0.07521331
0.78140334 0.21756134 0.00000000
0.91054773 0.07641986 0.00000000
0.00000000 0.38900841 0.13440565
0.03379253 0.38893912 0.13380786
0.23378029 0.38878299 0.13245181
0.38365847 0.38835965 0.12871030
0.51961972 0.38720732 0.11693244
0.65112214 0.38403738 0.07995223
0.78105564 0.37505104 0.00000000
0.91041943 0.34706083 0.00000000
0.00000000 0.51817930 0.14331189
0.00000000 0.51815372 0.14275388
0.14520828 0.51809612 0.14148869
0.36170348 0.51794014 0.13800252
0.51234271 0.51751721 0.12807197
0.64853014 0.51636600 0.09277334
0.78011023 0.51319918 0.00000000
0.91007169 0.50422214 0.00000000
0.00000000 0.64726276 0.16472813
0.00000000 0.64725331 0.16425524
0.00000000 0.64723204 0.16318420
0.27203509 0.64717445 0.16024138
0.49032339 0.64701853 0.15192759
0.64124609 0.64659575 0.12632903
0.77751734 0.64544495 0.02741116
0.90912616 0.64227929 0.00000000
0.00000000 0.77631394 0.20945290
0.00000000 0.77631045 0.20911816
0.00000000 0.77630259 0.20836134
0.00000000 0.77628131 0.20629136
0.40024257 0.77622374 0.20051948
0.61920290 0.77606784 0.18347842
0.77023069 0.77564511 0.12125742
0.90653294 0.77449446 0.00000000
0.00000000 0.90535319 0.28488806
0.00000000 0.90535190 0.28470109
0.00000000 0.90534900 0.28427917
0.00000000 0.90534113 0.28313073
0.00000000 0.90531986 0.27997164
0.52896865 0.90526229 0.27101757
0.74817866 0.90510639 0.24314341
0.89924532 0.90468369 0.10447450
0.01291480 0.00000000 0.25811083
0.14361847 0.00000000 0.25788093
0.26815966 0.00000000 0.25736184
0.39549175 0.00000000 0.25594694
0.52388991 0.00000000 0.25203969
0.65268700 0.00000000 0.24083740
0.78163223 0.00000000 0.20454442
0.91063231 0.00000000 0.00000000
0.00125930 0.12702451 0.25832610
0.13556735 0.12650088 0.25809659
0.26513768 0.12531417 0.25757836
0.39436826 0.12195809 0.25616583
0.52347374 0.11064459 0.25226527
0.65253305 0.08003604 0.24108332
0.78157531 0.00000000 0.20486969
0.91061127 0.00000000 0.00000000
0.00000000 0.25868142 0.25880947
0.11373133 0.25849200 0.25858081
0.25806452 0.25806452 0.25806452
0.39180259 0.25690086 0.25665730
0.52253186 0.25369921 0.25277172
0.65218579 0.24461864 0.24163530
0.78144707 0.21628875 0.20559904
0.91056388 0.07307520 0.00000000
0.00000000 0.38867050 0.26010824
0.04273529 0.38860103 0.25988186
0.23673415 0.38844450 0.25937074
0.38459539 0.38802005 0.25797771
0.51994877 0.38686468 0.25413209
0.65124157 0.38368625 0.24311699
0.78109949 0.37467467 0.20755197
0.91043560 0.34659360 0.00433998
0.00000000 0.51805464 0.26355820
0.00000000 0.51802904 0.26333777
0.15099363 0.51797138 0.26284012
0.36281255 0.51781525 0.26148407
0.51269073 0.51739191 0.25774256
0.64865198 0.51623958 0.24704283
0.78015440 0.51306964 0.21269270
0.91008790 0.50408330 0.01716109
0.00000000 0.64721672 0.27245646
0.00000000 0.64720727 0.27225067
0.00000000 0.64718598 0.27178613
0.27424054 0.64712838 0.27052095
0.49073574 0.64697240 0.26703478
0.64137497 0.64654947 0.25710422
0.77756240 0.64539826 0.22565826
0.90914249 0.64223144 0.05184845
0.00000000 0.77629693 0.29385560
0.00000000 0.77629344 0.29368114
0.00000000 0.77628557 0.29328750
0.00000000 0.77626429 0.29221646
0.40106734 0.77620671 0.28927364
0.61935565 0.77605079 0.28095985
0.77027835 0.77562801 0.25536129
0.90654960 0.77447721 0.13958228
0.00000000 0.90534691 0.33855260
0.00000000 0.90534561 0.33842904
0.00000000 0.90534271 0.33815042
0.00000000 0.90533485 0.33739360
0.00000000 0.90531357 0.33532361
0.52927483 0.90525599 0.32955174
0.74823516 0.90510009 0.31251068
0.89926294 0.90467737 0.25052486
0.03710933 0.00000000 0.38714596
0.15888715 0.00000000 0.38706104
0.27421644 0.00000000 0.38686963
0.39779327 0.00000000 0.38635037
0.52474954 0.00000000 0.38493499
0.65300598 0.00000000 0.38102638
0.78175030 0.00000000 0.36981998
0.91067597 0.00000000 0.33351094
0.02545383 0.11932298 0.38722557
0.15175563 0.11863647 0.38714070
0.27133394 0.11709084 0.38694941
0.39668963 0.11290916 0.38643046
0.52433613 0.10159565 0.38501596
0.65285241 0.07098711 0.38110983
0.78169343 0.00000000 0.36991096
0.91065494 0.00000000 0.33363133
0.00000000 0.25616217 0.38740462
0.13410030 0.25596903 0.38731987
0.26459961 0.25553314 0.38712885
0.39416994 0.25434643 0.38661062
0.52340052 0.25108027 0.38519809
0.65250600 0.24180760 0.38129753
0.78156531 0.21278180 0.37011558
0.91060757 0.06402627 0.33390195
0.00000000 0.38775186 0.38788782
0.06692982 0.38768190 0.38780338
0.24440403 0.38752425 0.38761306
0.38709677 0.38709677 0.38709677
0.52083485 0.38593312 0.38568956
0.65156412 0.38273147 0.38180398
0.78121805 0.37365090 0.37066756
0.91047933 0.34532101 0.33463130
0.00000000 0.51771677 0.38918613
0.00000000 0.51769110 0.38910253
0.16546333 0.51763329 0.38891412
0.36576641 0.51747676 0.38840299
0.51362765 0.51705231 0.38700997
0.64898103 0.51589694 0.38316435
0.78027383 0.51271850 0.37214925
0.91013175 0.50370693 0.33658423
0.00000000 0.64709206 0.39263489
0.00000000 0.64708260 0.39255349
0.00000000 0.64706130 0.39237003
0.28002589 0.64700364 0.39187238
0.49184480 0.64684751 0.39051633
0.64172299 0.64642417 0.38677482
0.77768424 0.64527184 0.37607509
0.90918666 0.64210189 0.34172496
0.00000000 0.77625088 0.40153021
0.00000000 0.77624739 0.40145420
0.00000000 0.77623952 0.40128292
0.00000000 0.77621824 0.40081839
0.40327280 0.77616063 0.39955320
0.61976799 0.77600466 0.39606703
0.77040722 0.77558172 0.38613648
0.90659466 0.77443051 0.35469052
0.00000000 0.90532989 0.42292304
0.00000000 0.90532860 0.42285860
0.00000000 0.90532569 0.42271340
0.00000000 0.90531783 0.42231976
0.00000000 0.90529655 0.42124872
0.53009960 0.90523897 0.41830590
0.74838791 0.90508305 0.40999211
0.89931061 0.90466026 0.38439355
0.10256735 0.00000000 0.51617928
0.19295973 0.00000000 0.51614790
0.28931210 0.00000000 0.51607721
0.40382266 0.00000000 0.51588579
0.52704710 0.00000000 0.51536646
0.65386506 0.00000000 0.51395090
0.78206920 0.00000000 0.51004179
0.91079403 0.00000000 0.49883387
0.09091185 0.09484120 0.51620871
0.18751162 0.09415469 0.51617734
0.28674959 0.09260906 0.51610667
0.40276938 0.08842737 0.51591528
0.52664096 0.07711387 0.51539607
0.65371251 0.04650532 0.51398084
0.78201248 0.00000000 0.51007264
0.91077302 0.00000000 0.49886751
0.06467037 0.24909032 0.51627495
0.17433693 0.24888634 0.51624359
0.28078789 0.24842593 0.51617296
0.40036620 0.24717202 0.51598167
0.52572189 0.24371752 0.51546272
0.65336839 0.23388193 0.51404822
0.78188467 0.20278888 0.51014209
0.91072569 0.03954448 0.49894322
0.00000000 0.38523337 0.51645398
0.13004594 0.38516204 0.51642266
0.26313256 0.38500129 0.51635213
0.39363187 0.38456540 0.51616110
0.52320220 0.38337869 0.51564288
0.65243277 0.38011253 0.51423035
0.78153826 0.37083986 0.51032979
0.91059757 0.34181406 0.49914784
0.00000000 0.51679823 0.51693711
0.00000000 0.51677238 0.51690591
0.19804540 0.51671416 0.51683563
0.37343629 0.51655651 0.51664532
0.51612903 0.51612903 0.51612903
0.64986710 0.51496537 0.51472182
0.78059638 0.51176373 0.51083624
0.91025030 0.50268315 0.49969982
0.00000000 0.64675421 0.51823525
0.00000000 0.64674472 0.51820436
0.00000000 0.64672336 0.51813479
0.29449558 0.64666555 0.51794638
0.49479867 0.64650902 0.51743525
0.64265990 0.64608456 0.51604222
0.77801329 0.64492920 0.51219661
0.90930608 0.64175076 0.50118151
0.00000000 0.77612623 0.52168357
0.00000000 0.77612273 0.52165349
0.00000000 0.77611486 0.52158575
0.00000000 0.77609355 0.52140229
0.40905815 0.77603589 0.52090464
0.62087706 0.77587977 0.51954859
0.77075525 0.77545642 0.51580708
0.90671649 0.77430410 0.50510735
0.00000000 0.90528385 0.53057779
0.00000000 0.90528256 0.53054971
0.00000000 0.90527965 0.53048646
0.00000000 0.90527178 0.53031518
0.00000000 0.90525050 0.52985065
0.53230506 0.90519289 0.52858546
0.74880025 0.90503692 0.52509929
0.89943948 0.90461398 0.51516874
0.20943620 0.00000000 0.64521193
0.25592556 0.00000000 0.64520033
0.32306412 0.00000000 0.64517422
0.41885536 0.00000000 0.64510353
0.53306642 0.00000000 0.64491209
0.65616115 0.00000000 0.64439274
0.78292808 0.00000000 0.64297711
0.91111291 0.00000000 0.63906782
0.20465046 0.02860601 0.64522281
0.25260065 0.02791950 0.64521121
0.32109347 0.02637387 0.64518510
0.41791781 0.02219218 0.64511442
0.53267874 0.01087868 0.64492299
0.65601128 0.00000000 0.64440368
0.78287173 0.00000000 0.64298818
0.91109194 0.00000000 0.63907923
0.19318174 0.22776437 0.64524730
0.24478726 0.22752389 0.64523570
0.31654388 0.22698082 0.64520959
0.41578184 0.22550007 0.64513893
0.53180164 0.22140700 0.64494754
0.65567322 0.20963822 0.64442833
0.78274476 0.17111048 0.64301310
0.91104473 0.00000000 0.63910490
0.15584373 0.37816370 0.64531353
0.22093213 0.37808836 0.64530194
0.30336919 0.37791860 0.64527585
0.40982015 0.37745818 0.64520521
0.52939846 0.37620428 0.64501393
0.65475415 0.37274978 0.64449498
0.78240065 0.36291419 0.64308048
0.91091693 0.33182114 0.63917435
0.00000000 0.51428002 0.64549255
0.11740479 0.51425366 0.64548098
0.25907820 0.51419429 0.64545492
0.39216482 0.51403355 0.64538438
0.52266412 0.51359766 0.64519336
0.65223446 0.51241095 0.64467514
0.78146503 0.50914478 0.64326261
0.91057052 0.49987212 0.63936204
0.00000000 0.64583571 0.64597566
0.00000000 0.64582615 0.64596413
0.00000000 0.64580464 0.64593816
0.32707766 0.64574642 0.64586789
0.50246855 0.64558877 0.64567758
0.64516129 0.64516129 0.64516129
0.77889936 0.64399763 0.64375408
0.90962863 0.64079599 0.63986850
0.00000000 0.77578838 0.64727374
0.00000000 0.77578487 0.64726232
0.00000000 0.77577698 0.64723662
0.00000000 0.77575562 0.64716705
0.42352784 0.77569781 0.64697864
0.62383093 0.77554127 0.64646751
0.77169216 0.77511682 0.64507448
0.90704554 0.77396146 0.64122886
0.00000000 0.90515919 0.65072190
0.00000000 0.90515790 0.65071078
0.00000000 0.90515499 0.65068575
0.00000000 0.90514712 0.65061801
0.00000000 0.90512581 0.65043455
0.53809040 0.90506815 0.64993689
0.74990932 0.90491203 0.64858084
0.89978751 0.90448868 0.64483934
0.32769783 0.00000000 0.77424434
0.34841005 0.00000000 0.77424005
0.38561853 0.00000000 0.77423040
0.45249043 0.00000000 0.77420428
0.54807598 0.00000000 0.77413359
0.66217677 0.00000000 0.77394215
0.78522363 0.00000000 0.77342279
0.91197170 0.00000000 0.77200714
0.32579687 0.00000000 0.77424836
0.34679153 0.00000000 0.77424407
0.38440572 0.00000000 0.77423442
0.45176773 0.00000000 0.77420830
0.54773074 0.00000000 0.77413761
0.66203370 0.00000000 0.77394618
0.78516827 0.00000000 0.77342683
0.91195088 0.00000000 0.77201123
0.32141216 0.14205110 0.77425741
0.34307187 0.14158488 0.77425312
0.38163291 0.14052905 0.77424347
0.45012572 0.13762864 0.77421736
0.54695007 0.12943992 0.77414667
0.66171100 0.10096628 0.77395525
0.78504354 0.01815519 0.77343594
0.91190398 0.00000000 0.77202044
0.30874754 0.35684510 0.77428190
0.33243820 0.35675630 0.77427761
0.37381952 0.35655614 0.77426796
0.44557614 0.35601308 0.77424185
0.54481410 0.35453233 0.77417118
0.66083389 0.35043926 0.77397980
0.78470548 0.33867048 0.77346059
0.91177702 0.30014273 0.77204535
0.26658451 0.50721115 0.77434813
0.29834073 0.50718331 0.77434385
0.34996438 0.50712062 0.77433420
0.43240144 0.50695086 0.77430810
0.53885241 0.50649044 0.77423747
0.65843071 0.50523654 0.77404618
0.78378641 0.50178203 0.77352724
0.91143290 0.49194645 0.77211274
0.00000000 0.64331759 0.77452715
0.07686832 0.64330785 0.77452287
0.24742770 0.64328592 0.77451324
0.38811046 0.64322655 0.77448718
0.52119708 0.64306581 0.77441664
0.65169638 0.64262991 0.77422562
0.78126671 0.64144321 0.77370739
0.91049729 0.63817704 0.77229487
0.00000000 0.77486989 0.77501024
0.00000000 0.77486636 0.77500598
0.00000000 0.77485841 0.77499639
0.00000000 0.77483690 0.77497042
0.45610992 0.77477868 0.77490015
0.63150080 0.77462103 0.77470984
0.77419355 0.77419355 0.77419355
0.90793162 0.77302989 0.77278634
0.00000000 0.90482135 0.77630830
0.00000000 0.90482005 0.77630408
0.00000000 0.90481713 0.77629458
0.00000000 0.90480924 0.77626888
0.00000000 0.90478788 0.77619931
0.55256010 0.90473007 0.77601089
0.75286319 0.90457353 0.77549977
0.90072442 0.90414908 0.77410674
0.45251111 0.00000000 0.90327665
0.46081506 0.00000000 0.90327506
0.47776647 0.00000000 0.90327149
0.51489415 0.00000000 0.90326184
0.58166804 0.00000000 0.90323572
0.67717780 0.00000000 0.90316503
0.79123788 0.00000000 0.90297359
0.91426706 0.00000000 0.90245423
0.45178852 0.00000000 0.90327813
0.46013742 0.00000000 0.90327655
0.47717208 0.00000000 0.90327298
0.51444804 0.00000000 0.90326333
0.58140168 0.00000000 0.90323721
0.67705036 0.00000000 0.90316652
0.79118503 0.00000000 0.90297508
0.91424660 0.00000000 0.90245572
0.45014678 0.00000000 0.90328148
0.45859868 0.00000000 0.90327989
0.47582379 0.00000000 0.90327633
0.51343798 0.00000000 0.90326668
0.58079999 0.00000000 0.90324056
0.67676300 0.00000000 0.90316987
0.79106596 0.00000000 0.90297844
0.91420053 0.00000000 0.90245909
0.44559794 0.27117723 0.90329053
0.45434171 0.27100522 0.90328895
0.47210413 0.27061714 0.90328538
0.51066517 0.26956130 0.90327573
0.57915798 0.26666089 0.90324961
0.67598233 0.25847218 0.90317893
0.79074326 0.23331223 0.90298751
0.91407580 0.12065280 0.90246820
0.43242558 0.48589527 0.90331502
0.44207048 0.48586246 0.90331344
0.46147046 0.48578855 0.90330987
0.50285178 0.48558840 0.90330022
0.57460840 0.48504534 0.90327411
0.67384636 0.48356459 0.90320344
0.78986615 0.47947152 0.90301206
0.91373773 0.46770274 0.90249285
0.38814443 0.63624902 0.90338125
0.40151946 0.63623874 0.90337967
0.42737298 0.63621557 0.90337610
0.47899664 0.63615288 0.90336646
0.56143370 0.63598312 0.90334036
0.66788466 0.63552270 0.90326973
0.78746297 0.63426880 0.90307844
0.91281866 0.63081429 0.90255950
0.00000000 0.77235182 0.90356027
0.00000000 0.77234822 0.90355869
0.20937056 0.77234011 0.90355513
0.37645996 0.77231817 0.90354550
0.51714272 0.77225881 0.90351943
0.65022934 0.77209807 0.90344890
0.78072864 0.77166217 0.90325788
0.91029897 0.77047546 0.90273965
0.00000000 0.90390286 0.90404336
0.00000000 0.90390156 0.90404179
0.00000000 0.90389862 0.90403824
0.00000000 0.90389067 0.90402864
0.00000000 0.90386916 0.90400268
0.58514218 0.90381094 0.90393241
0.76053306 0.90365329 0.90374210
0.90322581 0.90322581 0.90322581
