Submissions/LUTs/Samples/LUT-Calc/GeneralCubeLUT.cube
TITLE "Custom LUT"
LUT_3D_SIZE 5
# S-Log3/Sony S-Gamut3.cine (Venice) -> S-Log3/Sony S-Gamut3.cine, CineEI Shift 0.00, Black Level 3.54% IRE, Input 109% -> Output 109% - Created with LUTCalc v4.09 by Ben Turley February 2025
0.06256109 0.06256109 0.06256109
0.25687778 0.06256109 0.06256109
0.50638423 0.06256109 0.06256109
0.75633218 0.06256109 0.06256109
1.00632670 0.06256109 0.06256109
0.06256109 0.25198791 0.06256109
0.24627005 0.25136345 0.06256109
0.50531010 0.24636536 0.06256109
0.75621962 0.18243779 0.06256109
1.00631487 0.06256109 0.06256109
0.06256109 0.50184233 0.06256109
0.08894224 0.50177672 0.06256109
0.49654980 0.50126334 0.06256109
0.75533725 0.49626064 0.06256109
1.00622246 0.43225146 0.06256109
0.06256109 0.75182700 0.15910819
0.06256109 0.75182010 0.15706438
0.32818413 0.75176623 0.14111380
0.74657919 0.75125280 0.06256109
1.00534011 0.74624962 0.06256109
0.06256109 1.00182539 0.42892422
0.06256109 1.00182467 0.42877128
0.06256109 1.00181900 0.42757037
0.57831797 1.00176513 0.41545446
0.99658228 1.00125169 0.06256109
0.06256109 0.06256109 0.25004748
0.26027297 0.06256109 0.24927923
0.50674792 0.06256109 0.24309354
0.75637051 0.06256109 0.15337812
1.00633074 0.06256109 0.06256109
0.06256109 0.25063216 0.25076330
0.25000000 0.25000000 0.25000000
0.50567731 0.24493872 0.24385548
0.75625799 0.17988748 0.15529521
1.00631890 0.06256109 0.06256109
0.06256109 0.50170030 0.25619667
0.09872991 0.50163461 0.25546995
0.49694712 0.50112057 0.24962876
0.75537593 0.49611128 0.16962239
1.00622649 0.43198548 0.06256109
0.06256109 0.75181207 0.29775630
0.06256109 0.75180517 0.29725703
0.32998318 0.75175129 0.29328139
0.74662104 0.75123779 0.24603620
1.00534418 0.74623391 0.06256109
0.06256109 1.00182382 0.45077899
0.06256109 1.00182310 0.45065340
0.06256109 1.00181743 0.44966829
0.57850837 1.00176356 0.43983930
0.99658668 1.00125012 0.20441296
0.08617399 0.06256109 0.50004397
0.28371114 0.06256109 0.49996341
0.50954606 0.06256109 0.49933261
0.75666921 0.06256109 0.49314999
1.00636221 0.06256109 0.40586614
0.06256109 0.23944094 0.50011949
0.27546806 0.23874152 0.50003898
0.50850223 0.23312614 0.49940861
0.75655700 0.15560032 0.49323034
1.00635038 0.06256109 0.40604246
0.06256109 0.50058560 0.50070711
0.17331665 0.50051924 0.50062703
0.50000000 0.50000000 0.50000000
0.75567731 0.49493872 0.49385548
1.00625799 0.42988748 0.40740894
0.06256109 0.75169545 0.50614317
0.06256109 0.75168855 0.50606691
0.34310365 0.75163461 0.50546995
0.74694712 0.75112057 0.49962876
1.00537593 0.74611128 0.41962239
0.06256109 1.00181156 0.54771951
0.06256109 1.00181084 0.54766708
0.06256109 1.00180517 0.54725703
0.57998318 1.00175129 0.54328139
0.99662104 1.00123779 0.49603620
0.35828450 0.06256109 0.75004361
0.39838292 0.06256109 0.75003513
0.53312294 0.06256109 0.74996899
0.75946931 0.06256109 0.74933822
1.00666093 0.06256109 0.74315592
0.35415029 0.06256109 0.75005155
0.39551838 0.06256109 0.75004308
0.53227960 0.06256109 0.74997694
0.75935989 0.06256109 0.74934622
1.00664913 0.06256109 0.74316438
0.31516863 0.48938944 0.75011355
0.37018998 0.48931604 0.75010508
0.52546806 0.48874152 0.75003898
0.75850223 0.48312614 0.74940861
1.00655700 0.40767192 0.74323034
0.06256109 0.75058070 0.75070120
0.06256109 0.75057372 0.75069278
0.42331665 0.75051924 0.75062703
0.75000000 0.75000000 0.75000000
1.00567731 0.74493872 0.74385548
0.06256109 1.00169494 0.75613754
0.06256109 1.00169422 0.75612952
0.06256109 1.00168855 0.75606691
0.59310365 1.00163461 0.75546995
0.99694712 1.00112057 0.74962876
0.61150403 0.06256109 1.00004357
0.61633276 0.06256109 1.00004268
0.64817391 0.06256109 1.00003572
0.78306089 0.06256109 0.99996958
1.00946124 0.06256109 0.99933881
0.61108856 0.06256109 1.00004440
0.61593501 0.06256109 1.00004351
0.64787547 0.06256109 1.00003656
0.78297243 0.06256109 0.99997041
1.00944973 0.06256109 0.99933965
0.60779156 0.06256109 1.00005093
0.61278087 0.06256109 1.00005003
0.64551838 0.06256109 1.00004308
0.78227960 0.06256109 0.99997694
1.00935989 0.06256109 0.99934622
0.57030675 0.73938402 1.00011292
0.57723860 0.73937630 1.00011203
0.62018998 0.73931604 1.00010508
0.77546806 0.73874152 1.00003898
1.00850223 0.73312614 0.99940861
0.06256109 1.00058019 1.00070058
0.06256109 1.00057945 1.00069970
0.06256109 1.00057372 1.00069278
0.67331665 1.00051924 1.00062703
1.00000000 1.00000000 1.00000000
