Submissions/LUTs/Samples/LUT-Calc/GeneralCubeLUT.cube
TITLE "Custom LUT"
LUT_3D_SIZE 33
# S-Log3/Sony S-Gamut3.cine (Venice) -> S-Log3/Sony S-Gamut3.cine, CineEI Shift 0.00, Black Level 3.54% IRE, Input 109% -> Output 109% - Created with LUTCalc v4.09 by Ben Turley February 2025
0.06256109 0.06256109 0.06256109
0.06256109 0.06256109 0.06256109
0.06616493 0.06256109 0.06256109
0.09924739 0.06256109 0.06256109
0.13232986 0.06256109 0.06256109
0.16541232 0.06256109 0.06256109
0.19479302 0.06256109 0.06256109
0.22580656 0.06256109 0.06256109
0.25687778 0.06256109 0.06256109
0.28799267 0.06256109 0.06256109
0.31914060 0.06256109 0.06256109
0.35031351 0.06256109 0.06256109
0.38150530 0.06256109 0.06256109
0.41271135 0.06256109 0.06256109
0.44392818 0.06256109 0.06256109
0.47515313 0.06256109 0.06256109
0.50638423 0.06256109 0.06256109
0.53761996 0.06256109 0.06256109
0.56885919 0.06256109 0.06256109
0.60010106 0.06256109 0.06256109
0.63134493 0.06256109 0.06256109
0.66259030 0.06256109 0.06256109
0.69383681 0.06256109 0.06256109
0.72508417 0.06256109 0.06256109
0.75633218 0.06256109 0.06256109
0.78758068 0.06256109 0.06256109
0.81882955 0.06256109 0.06256109
0.85007869 0.06256109 0.06256109
0.88132805 0.06256109 0.06256109
0.91257756 0.06256109 0.06256109
0.94382719 0.06256109 0.06256109
0.97507691 0.06256109 0.06256109
1.00632670 0.06256109 0.06256109
0.06256109 0.06256109 0.06256109
0.06256109 0.06256109 0.06256109
0.06338515 0.06256109 0.06256109
0.09646762 0.06256109 0.06256109
0.12955008 0.06256109 0.06256109
0.16263255 0.06256109 0.06256109
0.19306677 0.06256109 0.06256109
0.22450354 0.06256109 0.06256109
0.25589428 0.06256109 0.06256109
0.28725037 0.06256109 0.06256109
0.31858036 0.06256109 0.06256109
0.34989070 0.06256109 0.06256109
0.38118620 0.06256109 0.06256109
0.41247053 0.06256109 0.06256109
0.44374643 0.06256109 0.06256109
0.47501597 0.06256109 0.06256109
0.50628072 0.06256109 0.06256109
0.53754184 0.06256109 0.06256109
0.56880024 0.06256109 0.06256109
0.60005658 0.06256109 0.06256109
0.63131136 0.06256109 0.06256109
0.66256496 0.06256109 0.06256109
0.69381769 0.06256109 0.06256109
0.72506974 0.06256109 0.06256109
0.75632129 0.06256109 0.06256109
0.78757246 0.06256109 0.06256109
0.81882334 0.06256109 0.06256109
0.85007401 0.06256109 0.06256109
0.88132451 0.06256109 0.06256109
0.91257489 0.06256109 0.06256109
0.94382518 0.06256109 0.06256109
0.97507540 0.06256109 0.06256109
1.00632556 0.06256109 0.06256109
0.06256109 0.06353606 0.06256109
0.06256109 0.06337233 0.06256109
0.06256109 0.06320860 0.06256109
0.09368784 0.06304487 0.06256109
0.12677031 0.06288114 0.06256109
0.15985277 0.06271741 0.06256109
0.19131326 0.06256109 0.06256109
0.22318505 0.06256109 0.06256109
0.25490199 0.06256109 0.06256109
0.28650307 0.06256109 0.06256109
0.31801729 0.06256109 0.06256109
0.34946626 0.06256109 0.06256109
0.38086618 0.06256109 0.06256109
0.41222919 0.06256109 0.06256109
0.44356439 0.06256109 0.06256109
0.47487865 0.06256109 0.06256109
0.50617711 0.06256109 0.06256109
0.53746368 0.06256109 0.06256109
0.56874126 0.06256109 0.06256109
0.60001207 0.06256109 0.06256109
0.63127777 0.06256109 0.06256109
0.66253962 0.06256109 0.06256109
0.69379856 0.06256109 0.06256109
0.72505531 0.06256109 0.06256109
0.75631040 0.06256109 0.06256109
0.78756424 0.06256109 0.06256109
0.81881714 0.06256109 0.06256109
0.85006933 0.06256109 0.06256109
0.88132098 0.06256109 0.06256109
0.91257223 0.06256109 0.06256109
0.94382317 0.06256109 0.06256109
0.97507388 0.06256109 0.06256109
1.00632441 0.06256109 0.06256109
0.06256109 0.09530409 0.06256109
0.06256109 0.09514036 0.06256109
0.06256109 0.09497663 0.06256109
0.09090806 0.09481290 0.06256109
0.12399053 0.09464918 0.06256109
0.15707299 0.09448545 0.06256109
0.18953160 0.09428059 0.06256109
0.22185070 0.09399322 0.06256109
0.25390075 0.09361243 0.06256109
0.28575071 0.09310784 0.06256109
0.31745134 0.09243921 0.06256109
0.34904020 0.09155319 0.06256109
0.38054524 0.09037913 0.06256109
0.41198732 0.08882337 0.06256109
0.44338205 0.08676182 0.06256109
0.47474115 0.08403003 0.06256109
0.50607341 0.08041013 0.06256109
0.53738545 0.07561336 0.06256109
0.56868225 0.06925712 0.06256109
0.59996755 0.06256109 0.06256109
0.63124418 0.06256109 0.06256109
0.66251428 0.06256109 0.06256109
0.69377944 0.06256109 0.06256109
0.72504088 0.06256109 0.06256109
0.75629951 0.06256109 0.06256109
0.78755603 0.06256109 0.06256109
0.81881094 0.06256109 0.06256109
0.85006465 0.06256109 0.06256109
0.88131745 0.06256109 0.06256109
0.91256956 0.06256109 0.06256109
0.94382116 0.06256109 0.06256109
0.97507236 0.06256109 0.06256109
1.00632327 0.06256109 0.06256109
0.06256109 0.12707212 0.06256109
0.06256109 0.12690839 0.06256109
0.06256109 0.12674467 0.06256109
0.08812829 0.12658094 0.06256109
0.12121075 0.12641721 0.06256109
0.15429322 0.12625348 0.06256109
0.18772089 0.12604862 0.06256109
0.22050013 0.12576125 0.06256109
0.25289039 0.12538046 0.06256109
0.28499321 0.12487587 0.06256109
0.31688249 0.12420724 0.06256109
0.34861249 0.12332123 0.06256109
0.38022336 0.12214716 0.06256109
0.41174492 0.12059140 0.06256109
0.44319941 0.11852985 0.06256109
0.47460348 0.11579807 0.06256109
0.50596961 0.11217816 0.06256109
0.53730717 0.10738139 0.06256109
0.56862320 0.10102515 0.06256109
0.59992301 0.09260244 0.06256109
0.63121058 0.08144144 0.06256109
0.66248892 0.06665191 0.06256109
0.69376031 0.06256109 0.06256109
0.72502644 0.06256109 0.06256109
0.75628862 0.06256109 0.06256109
0.78754781 0.06256109 0.06256109
0.81880474 0.06256109 0.06256109
0.85005997 0.06256109 0.06256109
0.88131392 0.06256109 0.06256109
0.91256690 0.06256109 0.06256109
0.94381915 0.06256109 0.06256109
0.97507084 0.06256109 0.06256109
1.00632212 0.06256109 0.06256109
0.06256109 0.15884016 0.06256109
0.06256109 0.15867643 0.06256109
0.06256109 0.15851270 0.06256109
0.08534851 0.15834897 0.06256109
0.11843098 0.15818524 0.06256109
0.15151344 0.15802151 0.06256109
0.18588014 0.15781665 0.06256109
0.21913292 0.15752928 0.06256109
0.25187076 0.15714849 0.06256109
0.28423051 0.15664390 0.06256109
0.31631071 0.15597527 0.06256109
0.34818313 0.15508926 0.06256109
0.37990055 0.15391519 0.06256109
0.41150199 0.15235943 0.06256109
0.44301647 0.15029788 0.06256109
0.47446565 0.14756610 0.06256109
0.50586572 0.14394619 0.06256109
0.53722884 0.13914942 0.06256109
0.56856413 0.13279318 0.06256109
0.59987845 0.12437047 0.06256109
0.63117696 0.11320947 0.06256109
0.66246356 0.09841994 0.06256109
0.69374117 0.07882220 0.06256109
0.72501201 0.06256109 0.06256109
0.75627773 0.06256109 0.06256109
0.78753959 0.06256109 0.06256109
0.81879854 0.06256109 0.06256109
0.85005529 0.06256109 0.06256109
0.88131039 0.06256109 0.06256109
0.91256423 0.06256109 0.06256109
0.94381713 0.06256109 0.06256109
0.97506932 0.06256109 0.06256109
1.00632098 0.06256109 0.06256109
0.06256109 0.18961074 0.06256109
0.06256109 0.18950498 0.06256109
0.06256109 0.18939912 0.06256109
0.08187044 0.18929316 0.06256109
0.11495291 0.18918709 0.06256109
0.14803537 0.18908093 0.06256109
0.18353317 0.18894795 0.06256109
0.21739820 0.18876114 0.06256109
0.25058166 0.18851312 0.06256109
0.28326878 0.18818361 0.06256109
0.31559112 0.18774546 0.06256109
0.34764356 0.18716219 0.06256109
0.37949532 0.18638454 0.06256109
0.41119728 0.18534560 0.06256109
0.44278715 0.18395375 0.06256109
0.47429294 0.18208209 0.06256109
0.50573559 0.17955231 0.06256109
0.53713075 0.17610873 0.06256109
0.56849017 0.17137459 0.06256109
0.59982267 0.16411878 0.06256109
0.63113489 0.15295778 0.06256109
0.66243183 0.13816825 0.06256109
0.69371723 0.11857051 0.06256109
0.72499394 0.09260138 0.06256109
0.75626409 0.06256109 0.06256109
0.78752930 0.06256109 0.06256109
0.81879077 0.06256109 0.06256109
0.85004943 0.06256109 0.06256109
0.88130597 0.06256109 0.06256109
0.91256090 0.06256109 0.06256109
0.94381462 0.06256109 0.06256109
0.97506742 0.06256109 0.06256109
1.00631954 0.06256109 0.06256109
0.06256109 0.22079076 0.06256109
0.06256109 0.22071090 0.06256109
0.06256109 0.22063099 0.06256109
0.07699159 0.22055102 0.06256109
0.11007406 0.22047099 0.06256109
0.14315652 0.22039091 0.06256109
0.18015502 0.22029062 0.06256109
0.21491823 0.22014980 0.06256109
0.24874777 0.21996291 0.06256109
0.28190551 0.21971478 0.06256109
0.31457380 0.21938513 0.06256109
0.34688224 0.21894679 0.06256109
0.37892438 0.21836326 0.06256109
0.41076845 0.21758526 0.06256109
0.44246467 0.21654586 0.06256109
0.47405023 0.21515338 0.06256109
0.50555279 0.21328087 0.06256109
0.53699301 0.21074991 0.06256109
0.56838634 0.20730468 0.06256109
0.59974438 0.20256818 0.06256109
0.63107585 0.19596334 0.06256109
0.66238729 0.18655824 0.06256109
0.69368363 0.17272518 0.06256109
0.72496859 0.14835816 0.06256109
0.75624497 0.11394624 0.06256109
0.78751487 0.06834672 0.06256109
0.81877989 0.06256109 0.06256109
0.85004122 0.06256109 0.06256109
0.88129977 0.06256109 0.06256109
0.91255622 0.06256109 0.06256109
0.94381109 0.06256109 0.06256109
0.97506476 0.06256109 0.06256109
1.00631753 0.06256109 0.06256109
0.06256109 0.25198791 0.06256109
0.06256109 0.25192762 0.06256109
0.06256109 0.25186731 0.06256109
0.07052659 0.25180695 0.06256109
0.10360906 0.25174657 0.06256109
0.13669152 0.25168615 0.06256109
0.17551415 0.25161051 0.06256109
0.21154426 0.25150432 0.06256109
0.24627005 0.25136345 0.06256109
0.28007285 0.25117650 0.06256109
0.31321121 0.25092829 0.06256109
0.34586530 0.25059853 0.06256109
0.37816327 0.25016004 0.06256109
0.41019763 0.24957632 0.06256109
0.44203590 0.24879806 0.06256109
0.47372778 0.24775832 0.06256109
0.50531010 0.24636536 0.06256109
0.53681022 0.24449220 0.06256109
0.56824860 0.24196035 0.06256109
0.59964056 0.23851387 0.06256109
0.63099756 0.23377559 0.06256109
0.66232825 0.22716814 0.06256109
0.69363910 0.21775904 0.06256109
0.72493500 0.20391945 0.06256109
0.75621962 0.18243779 0.06256109
0.78749575 0.14223051 0.06256109
0.81876546 0.08180620 0.06256109
0.85003033 0.06256109 0.06256109
0.88129155 0.06256109 0.06256109
0.91255002 0.06256109 0.06256109
0.94380641 0.06256109 0.06256109
0.97506123 0.06256109 0.06256109
1.00631487 0.06256109 0.06256109
0.06256109 0.28319801 0.06256109
0.06256109 0.28315250 0.06256109
0.06256109 0.28310698 0.06256109
0.06256109 0.28306143 0.06256109
0.09504222 0.28301587 0.06256109
0.12812469 0.28297028 0.06256109
0.16904951 0.28291322 0.06256109
0.20690932 0.28283313 0.06256109
0.24289921 0.28272691 0.06256109
0.27759682 0.28258601 0.06256109
0.31137948 0.28239902 0.06256109
0.34450323 0.28215074 0.06256109
0.37714661 0.28182090 0.06256109
0.40943668 0.28138230 0.06256109
0.44146517 0.28079843 0.06256109
0.47329906 0.28001998 0.06256109
0.50498768 0.27897997 0.06256109
0.53656754 0.27758666 0.06256109
0.56806583 0.27571301 0.06256109
0.59950283 0.27318048 0.06256109
0.63089374 0.26973306 0.06256109
0.66224997 0.26499344 0.06256109
0.69358006 0.25838402 0.06256109
0.72489047 0.24897190 0.06256109
0.75618603 0.23512737 0.06256109
0.78747040 0.21363674 0.06256109
0.81874633 0.17669959 0.06256109
0.85001590 0.09964146 0.06256109
0.88128066 0.06256109 0.06256109
0.91254180 0.06256109 0.06256109
0.94380021 0.06256109 0.06256109
0.97505655 0.06256109 0.06256109
1.00631134 0.06256109 0.06256109
0.06256109 0.31441789 0.06256109
0.06256109 0.31438354 0.06256109
0.06256109 0.31434918 0.06256109
0.06256109 0.31431481 0.06256109
0.08369024 0.31428043 0.06256109
0.11677271 0.31424603 0.06256109
0.15816564 0.31420299 0.06256109
0.20045338 0.31414257 0.06256109
0.23826875 0.31406247 0.06256109
0.27422836 0.31395623 0.06256109
0.30890473 0.31381530 0.06256109
0.34267220 0.31362827 0.06256109
0.37578492 0.31337995 0.06256109
0.40842023 0.31305004 0.06256109
0.44070434 0.31261136 0.06256109
0.47272840 0.31202739 0.06256109
0.50455900 0.31124879 0.06256109
0.53624515 0.31020857 0.06256109
0.56782316 0.30881499 0.06256109
0.59932006 0.30694097 0.06256109
0.63075602 0.30440794 0.06256109
0.66214614 0.30095981 0.06256109
0.69350178 0.29621917 0.06256109
0.72483143 0.28960826 0.06256109
0.75614150 0.28019386 0.06256109
0.78743681 0.26634561 0.06256109
0.81872099 0.24484819 0.06256109
0.84999678 0.20789582 0.06256109
0.88126623 0.12327512 0.06256109
0.91253091 0.06256109 0.06256109
0.94379199 0.06256109 0.06256109
0.97505035 0.06256109 0.06256109
1.00630666 0.06256109 0.06256109
0.06256109 0.34564516 0.06256109
0.06256109 0.34561923 0.06256109
0.06256109 0.34559330 0.06256109
0.06256109 0.34556736 0.06256109
0.06864764 0.34554141 0.06256109
0.10173010 0.34551546 0.06256109
0.14312304 0.34548298 0.06256109
0.19127581 0.34543741 0.06256109
0.23181936 0.34537699 0.06256109
0.26960126 0.34529687 0.06256109
0.30553804 0.34519062 0.06256109
0.34019840 0.34504966 0.06256109
0.37395442 0.34486261 0.06256109
0.40705884 0.34461426 0.06256109
0.43968806 0.34428430 0.06256109
0.47196766 0.34384556 0.06256109
0.50398839 0.34326150 0.06256109
0.53581650 0.34248279 0.06256109
0.56750079 0.34144242 0.06256109
0.59907740 0.34004864 0.06256109
0.63057325 0.33817434 0.06256109
0.66200842 0.33564092 0.06256109
0.69339796 0.33219226 0.06256109
0.72475314 0.32745085 0.06256109
0.75608246 0.32083882 0.06256109
0.78739227 0.31142270 0.06256109
0.81868739 0.29757164 0.06256109
0.84997143 0.27606909 0.06256109
0.88124711 0.23910523 0.06256109
0.91251649 0.15459228 0.06256109
0.94378110 0.06256109 0.06256109
0.97504214 0.06256109 0.06256109
1.00630046 0.06256109 0.06256109
0.06256109 0.37687800 0.06256109
0.06256109 0.37685843 0.06256109
0.06256109 0.37683886 0.06256109
0.06256109 0.37681928 0.06256109
0.06256109 0.37679971 0.06256109
0.08179702 0.37678012 0.06256109
0.12318996 0.37675562 0.06256109
0.17781345 0.37672123 0.06256109
0.22265178 0.37667565 0.06256109
0.26315681 0.37661522 0.06256109
0.30091349 0.37653510 0.06256109
0.33683306 0.37642883 0.06256109
0.37148135 0.37628786 0.06256109
0.40522873 0.37610079 0.06256109
0.43832688 0.37585241 0.06256109
0.47095151 0.37552242 0.06256109
0.50322772 0.37508363 0.06256109
0.53524592 0.37449951 0.06256109
0.56707215 0.37372071 0.06256109
0.59875504 0.37268024 0.06256109
0.63033060 0.37128629 0.06256109
0.66182566 0.36941179 0.06256109
0.69326024 0.36687808 0.06256109
0.72464933 0.36342901 0.06256109
0.75600418 0.35868702 0.06256109
0.78733323 0.35207414 0.06256109
0.81864286 0.34265672 0.06256109
0.84993784 0.32880354 0.06256109
0.88122176 0.30729713 0.06256109
0.91249736 0.27032459 0.06256109
0.94376668 0.18798639 0.06256109
0.97503125 0.06256109 0.06256109
1.00629224 0.06256109 0.06256109
0.06256109 0.40811505 0.06256109
0.06256109 0.40810028 0.06256109
0.06256109 0.40808551 0.06256109
0.06256109 0.40807074 0.06256109
0.06256109 0.40805596 0.06256109
0.06256109 0.40804118 0.06256109
0.09677646 0.40802269 0.06256109
0.15484023 0.40799675 0.06256109
0.20920565 0.40796236 0.06256109
0.25399675 0.40791678 0.06256109
0.29447275 0.40785634 0.06256109
0.33221043 0.40777621 0.06256109
0.36811703 0.40766994 0.06256109
0.40275621 0.40752896 0.06256109
0.43649707 0.40734187 0.06256109
0.46959050 0.40709347 0.06256109
0.50221165 0.40676345 0.06256109
0.53448531 0.40632463 0.06256109
0.56650161 0.40574046 0.06256109
0.59832642 0.40496160 0.06256109
0.63000825 0.40392104 0.06256109
0.66158302 0.40252698 0.06256109
0.69307748 0.40065231 0.06256109
0.72451161 0.39811839 0.06256109
0.75590036 0.39466901 0.06256109
0.78725495 0.38992659 0.06256109
0.81858382 0.38331307 0.06256109
0.84989330 0.37389467 0.06256109
0.88118817 0.36003988 0.06256109
0.91247202 0.33853055 0.06256109
0.94374755 0.30155145 0.06256109
0.97501682 0.21918782 0.06256109
1.00628136 0.06256109 0.06256109
0.06256109 0.43935527 0.06256109
0.06256109 0.43934413 0.06256109
0.06256109 0.43933298 0.06256109
0.06256109 0.43932183 0.06256109
0.06256109 0.43931068 0.06256109
0.06256109 0.43929953 0.06256109
0.06256109 0.43928558 0.06256109
0.11983948 0.43926600 0.06256109
0.18843712 0.43924006 0.06256109
0.24056284 0.43920567 0.06256109
0.28531836 0.43916008 0.06256109
0.32577249 0.43909964 0.06256109
0.36349583 0.43901951 0.06256109
0.39939265 0.43891323 0.06256109
0.43402497 0.43877224 0.06256109
0.46776092 0.43858514 0.06256109
0.50085077 0.43833672 0.06256109
0.53346931 0.43800669 0.06256109
0.56574103 0.43756784 0.06256109
0.59775590 0.43698363 0.06256109
0.62957965 0.43620472 0.06256109
0.66126067 0.43516409 0.06256109
0.69283484 0.43376995 0.06256109
0.72432885 0.43189516 0.06256109
0.75576264 0.42936107 0.06256109
0.78715114 0.42591146 0.06256109
0.81850554 0.42116871 0.06256109
0.84983426 0.41455471 0.06256109
0.88114364 0.40513557 0.06256109
0.91243842 0.39127957 0.06256109
0.94372221 0.36976803 0.06256109
0.97499770 0.33278400 0.06256109
1.00626693 0.25040115 0.06256109
0.06256109 0.47059790 0.06256109
0.06256109 0.47058949 0.06256109
0.06256109 0.47058107 0.06256109
0.06256109 0.47057266 0.06256109
0.06256109 0.47056425 0.06256109
0.06256109 0.47055583 0.06256109
0.06256109 0.47054530 0.06256109
0.07345969 0.47053053 0.06256109
0.15040049 0.47051095 0.06256109
0.21981635 0.47048501 0.06256109
0.27189366 0.47045061 0.06256109
0.31662237 0.47040502 0.06256109
0.35706001 0.47034458 0.06256109
0.39477255 0.47026444 0.06256109
0.43066199 0.47015816 0.06256109
0.46528912 0.47001717 0.06256109
0.49902136 0.46983006 0.06256109
0.53210852 0.46958163 0.06256109
0.56472509 0.46925158 0.06256109
0.59699535 0.46881271 0.06256109
0.62900914 0.46822847 0.06256109
0.66083208 0.46744953 0.06256109
0.69251250 0.46640885 0.06256109
0.72408622 0.46501464 0.06256109
0.75557989 0.46313977 0.06256109
0.78701342 0.46060555 0.06256109
0.81840173 0.45715577 0.06256109
0.84975598 0.45241277 0.06256109
0.88108460 0.44579840 0.06256109
0.91239389 0.43637870 0.06256109
0.94368861 0.42252179 0.06256109
0.97497235 0.40100859 0.06256109
1.00624780 0.36402082 0.06256109
0.06256109 0.50184233 0.06256109
0.06256109 0.50183598 0.06256109
0.06256109 0.50182963 0.06256109
0.06256109 0.50182328 0.06256109
0.06256109 0.50181693 0.06256109
0.06256109 0.50181058 0.06256109
0.06256109 0.50180264 0.06256109
0.06256109 0.50179149 0.06256109
0.08894224 0.50177672 0.06256109
0.18453039 0.50175714 0.06256109
0.25116377 0.50173119 0.06256109
0.30320462 0.50169680 0.06256109
0.34791312 0.50165121 0.06256109
0.38833832 0.50159077 0.06256109
0.42604270 0.50151063 0.06256109
0.46192657 0.50140434 0.06256109
0.49654980 0.50126334 0.06256109
0.53027924 0.50107622 0.06256109
0.56336437 0.50082779 0.06256109
0.59597945 0.50049773 0.06256109
0.62824861 0.50005884 0.06256109
0.66026158 0.49947458 0.06256109
0.69208391 0.49869561 0.06256109
0.72376388 0.49765490 0.06256109
0.75533725 0.49626064 0.06256109
0.78683067 0.49438570 0.06256109
0.81826401 0.49185139 0.06256109
0.84965217 0.48840147 0.06256109
0.88100632 0.48365828 0.06256109
0.91233485 0.47704364 0.06256109
0.94364408 0.46762352 0.06256109
0.97493876 0.45376592 0.06256109
1.00622246 0.43225146 0.06256109
0.06256109 0.53308813 0.06256109
0.06256109 0.53308334 0.06256109
0.06256109 0.53307855 0.06256109
0.06256109 0.53307375 0.06256109
0.06256109 0.53306896 0.06256109
0.06256109 0.53306417 0.06256109
0.06256109 0.53305817 0.06256109
0.06256109 0.53304976 0.06256109
0.06256109 0.53303862 0.06256109
0.10945829 0.53302384 0.06256109
0.21591425 0.53300427 0.06256109
0.28248724 0.53297832 0.06256109
0.33450059 0.53294392 0.06256109
0.37919386 0.53289833 0.06256109
0.41960968 0.53283789 0.06256109
0.45730791 0.53275774 0.06256109
0.49318758 0.53265145 0.06256109
0.52780786 0.53251045 0.06256109
0.56153519 0.53232333 0.06256109
0.59461879 0.53207489 0.06256109
0.62723274 0.53174482 0.06256109
0.65950108 0.53130592 0.06256109
0.69151343 0.53072165 0.06256109
0.72333530 0.52994266 0.06256109
0.75501492 0.52890192 0.06256109
0.78658804 0.52750762 0.06256109
0.81808126 0.52563262 0.06256109
0.84951445 0.52309824 0.06256109
0.88090250 0.51964823 0.06256109
0.91225657 0.51490490 0.06256109
0.94358504 0.50829004 0.06256109
0.97489422 0.49886961 0.06256109
1.00618886 0.48501149 0.06256109
0.06256109 0.56433496 0.06256109
0.06256109 0.56433134 0.06256109
0.06256109 0.56432773 0.06256109
0.06256109 0.56432411 0.06256109
0.06256109 0.56432049 0.06256109
0.06256109 0.56431688 0.06256109
0.06256109 0.56431235 0.06256109
0.06256109 0.56430601 0.06256109
0.06256109 0.56429759 0.06256109
0.06256109 0.56428645 0.06256109
0.13664429 0.56427167 0.06256109
0.24726515 0.56425210 0.06256109
0.31379265 0.56422615 0.06256109
0.36578528 0.56419175 0.06256109
0.41046705 0.56414616 0.06256109
0.45087579 0.56408571 0.06256109
0.48856938 0.56400557 0.06256109
0.52444589 0.56389928 0.06256109
0.55906394 0.56375827 0.06256109
0.59278968 0.56357115 0.06256109
0.62587212 0.56332270 0.06256109
0.65848522 0.56299262 0.06256109
0.69075293 0.56255372 0.06256109
0.72276482 0.56196943 0.06256109
0.75458634 0.56119043 0.06256109
0.78626570 0.56014966 0.06256109
0.81783863 0.55875534 0.06256109
0.84933170 0.55688030 0.06256109
0.88076479 0.55434587 0.06256109
0.91215276 0.55089578 0.06256109
0.94350676 0.54615234 0.06256109
0.97483519 0.53953733 0.06256109
1.00614433 0.53011666 0.06256109
0.06256109 0.59558256 0.06256109
0.06256109 0.59557984 0.06256109
0.06256109 0.59557711 0.06256109
0.06256109 0.59557438 0.06256109
0.06256109 0.59557165 0.06256109
0.06256109 0.59556892 0.06256109
0.06256109 0.59556551 0.06256109
0.06256109 0.59556072 0.06256109
0.06256109 0.59555437 0.06256109
0.06256109 0.59554596 0.06256109
0.06256109 0.59553481 0.06256109
0.17147133 0.59552004 0.06256109
0.27859124 0.59550046 0.06256109
0.34508444 0.59547451 0.06256109
0.39706145 0.59544011 0.06256109
0.44173455 0.59539452 0.06256109
0.48213795 0.59533407 0.06256109
0.51982804 0.59525393 0.06256109
0.55570216 0.59514763 0.06256109
0.59031853 0.59500662 0.06256109
0.62404306 0.59481950 0.06256109
0.65712463 0.59457105 0.06256109
0.68973710 0.59424097 0.06256109
0.72200433 0.59380205 0.06256109
0.75401587 0.59321776 0.06256109
0.78583713 0.59243874 0.06256109
0.81751630 0.59139796 0.06256109
0.84908907 0.59000362 0.06256109
0.88058204 0.58812855 0.06256109
0.91201504 0.58559408 0.06256109
0.94340295 0.58214393 0.06256109
0.97475691 0.57740042 0.06256109
1.00608529 0.57078529 0.06256109
0.06256109 0.62683076 0.06256109
0.06256109 0.62682870 0.06256109
0.06256109 0.62682664 0.06256109
0.06256109 0.62682458 0.06256109
0.06256109 0.62682252 0.06256109
0.06256109 0.62682046 0.06256109
0.06256109 0.62681789 0.06256109
0.06256109 0.62681427 0.06256109
0.06256109 0.62680948 0.06256109
0.06256109 0.62680313 0.06256109
0.06256109 0.62679472 0.06256109
0.06256109 0.62678357 0.06256109
0.20287188 0.62676880 0.06256109
0.30989863 0.62674922 0.06256109
0.37636598 0.62672327 0.06256109
0.42833119 0.62668888 0.06256109
0.47299775 0.62664328 0.06256109
0.51339713 0.62658284 0.06256109
0.55108458 0.62650269 0.06256109
0.58695689 0.62639639 0.06256109
0.62157199 0.62625538 0.06256109
0.65529562 0.62606825 0.06256109
0.68837653 0.62581980 0.06256109
0.72098851 0.62548972 0.06256109
0.75325539 0.62505080 0.06256109
0.78526666 0.62446650 0.06256109
0.81708773 0.62368747 0.06256109
0.84876674 0.62264668 0.06256109
0.88033941 0.62125232 0.06256109
0.91183229 0.61937723 0.06256109
0.94326523 0.61684273 0.06256109
0.97465309 0.61339254 0.06256109
1.00600701 0.60864896 0.06256109
0.06256109 0.65807940 0.06847165
0.06256109 0.65807784 0.06827383
0.06256109 0.65807629 0.06807602
0.06256109 0.65807473 0.06787821
0.06256109 0.65807318 0.06768040
0.06256109 0.65807163 0.06748258
0.06256109 0.65806968 0.06723508
0.06256109 0.65806695 0.06688790
0.06256109 0.65806334 0.06642784
0.06256109 0.65805855 0.06581821
0.06256109 0.65805220 0.06501039
0.06256109 0.65804379 0.06393994
0.06256109 0.65803264 0.06256109
0.23423537 0.65801787 0.06256109
0.34119192 0.65799829 0.06256109
0.40763977 0.65797234 0.06256109
0.45959609 0.65793794 0.06256109
0.50425771 0.65789235 0.06256109
0.54465405 0.65783190 0.06256109
0.58233951 0.65775175 0.06256109
0.61821046 0.65764546 0.06256109
0.65282460 0.65750445 0.06256109
0.68654755 0.65731732 0.06256109
0.71962796 0.65706886 0.06256109
0.75223958 0.65673877 0.06256109
0.78450619 0.65629985 0.06256109
0.81651726 0.65571555 0.06256109
