Submissions/LUTs/Samples/LUT-Calc/GeneralCubeLUT.cube
TITLE "Custom LUT"
LUT_3D_SIZE 9
# S-Log3/Sony S-Gamut3.cine (Venice) -> S-Log3/Sony S-Gamut3.cine, CineEI Shift 0.00, Black Level 3.54% IRE, Input 109% -> Output 109% - Created with LUTCalc v4.09 by Ben Turley February 2025
0.06256109 0.06256109 0.06256109
0.13232986 0.06256109 0.06256109
0.25687778 0.06256109 0.06256109
0.38150530 0.06256109 0.06256109
0.50638423 0.06256109 0.06256109
0.63134493 0.06256109 0.06256109
0.75633218 0.06256109 0.06256109
0.88132805 0.06256109 0.06256109
1.00632670 0.06256109 0.06256109
0.06256109 0.12707212 0.06256109
0.12121075 0.12641721 0.06256109
0.25289039 0.12538046 0.06256109
0.38022336 0.12214716 0.06256109
0.50596961 0.11217816 0.06256109
0.63121058 0.08144144 0.06256109
0.75628862 0.06256109 0.06256109
0.88131392 0.06256109 0.06256109
1.00632212 0.06256109 0.06256109
0.06256109 0.25198791 0.06256109
0.10360906 0.25174657 0.06256109
0.24627005 0.25136345 0.06256109
0.37816327 0.25016004 0.06256109
0.50531010 0.24636536 0.06256109
0.63099756 0.23377559 0.06256109
0.75621962 0.18243779 0.06256109
0.88129155 0.06256109 0.06256109
1.00631487 0.06256109 0.06256109
0.06256109 0.37687800 0.06256109
0.06256109 0.37679971 0.06256109
0.22265178 0.37667565 0.06256109
0.37148135 0.37628786 0.06256109
0.50322772 0.37508363 0.06256109
0.63033060 0.37128629 0.06256109
0.75600418 0.35868702 0.06256109
0.88122176 0.30729713 0.06256109
1.00629224 0.06256109 0.06256109
0.06256109 0.50184233 0.06256109
0.06256109 0.50181693 0.06256109
0.08894224 0.50177672 0.06256109
0.34791312 0.50165121 0.06256109
0.49654980 0.50126334 0.06256109
0.62824861 0.50005884 0.06256109
0.75533725 0.49626064 0.06256109
0.88100632 0.48365828 0.06256109
1.00622246 0.43225146 0.06256109
0.06256109 0.62683076 0.06256109
0.06256109 0.62682252 0.06256109
0.06256109 0.62680948 0.06256109
0.20287188 0.62676880 0.06256109
0.47299775 0.62664328 0.06256109
0.62157199 0.62625538 0.06256109
0.75325539 0.62505080 0.06256109
0.88033941 0.62125232 0.06256109
1.00600701 0.60864896 0.06256109
0.06256109 0.75182700 0.15910819
0.06256109 0.75182433 0.15831694
0.06256109 0.75182010 0.15706438
0.06256109 0.75180691 0.15315801
0.32818413 0.75176623 0.14111380
0.59802518 0.75164071 0.10397874
0.74657919 0.75125280 0.06256109
0.87825759 0.75004819 0.06256109
1.00534011 0.74624962 0.06256109
0.06256109 0.87682579 0.29971939
0.06256109 0.87682492 0.29952975
0.06256109 0.87682355 0.29922889
0.06256109 0.87681927 0.29828530
0.06256109 0.87680608 0.29532449
0.45328521 0.87676540 0.28566445
0.72303408 0.87663988 0.24914804
0.87158152 0.87625197 0.06256109
1.00325830 0.87504734 0.06256109
0.06256109 1.00182539 0.42892422
0.06256109 1.00182511 0.42886504
0.06256109 1.00182467 0.42877128
0.06256109 1.00182328 0.42847837
0.06256109 1.00181900 0.42757037
0.06256109 1.00180581 0.42472312
0.57831797 1.00176513 0.41545446
0.84803697 1.00163961 0.38074916
0.99658228 1.00125169 0.06256109
0.06256109 0.06256109 0.12504906
0.13611911 0.06256109 0.12425781
0.25820455 0.06256109 0.12300525
0.38193881 0.06256109 0.11909889
0.50652517 0.06256109 0.10705468
0.63139068 0.06256109 0.06991962
0.75634702 0.06256109 0.06256109
0.88133286 0.06256109 0.06256109
1.00632827 0.06256109 0.06256109
0.06256109 0.12565492 0.12579125
0.12500000 0.12500000 0.12500000
0.25426539 0.12396326 0.12374744
0.38066189 0.12072996 0.11984108
0.50611108 0.11076095 0.10779687
0.63125638 0.08002424 0.07066181
0.75630347 0.06256109 0.06256109
0.88131873 0.06256109 0.06256109
1.00632368 0.06256109 0.06256109
0.06256109 0.25146500 0.12696615
0.10739830 0.25122252 0.12617490
0.24772898 0.25083758 0.12492234
0.37861000 0.24962843 0.12101598
0.50545241 0.24581522 0.10897176
0.63104346 0.23315919 0.07183671
0.75623448 0.18145739 0.06256109
0.88129637 0.06256109 0.06256109
1.00631643 0.06256109 0.06256109
0.06256109 0.37670850 0.13063031
0.06256109 0.37663009 0.12983906
0.22445379 0.37650584 0.12858650
0.37195574 0.37611746 0.12468014
0.50337272 0.37491137 0.11263592
0.63037677 0.37110804 0.07550087
0.75601906 0.35848732 0.06256109
0.88122658 0.30697969 0.06256109
1.00629381 0.06256109 0.06256109
0.06256109 0.50178737 0.14192775
0.06256109 0.50176196 0.14113650
0.09273149 0.50172172 0.13988394
0.34849941 0.50159615 0.13597758
0.49670379 0.50120809 0.12393337
0.62829566 0.50000299 0.08679831
0.75535223 0.49620284 0.06256109
0.88101115 0.48359354 0.06256109
1.00622402 0.43214857 0.06256109
0.06256109 0.62681293 0.17453924
0.06256109 0.62680469 0.17395254
0.06256109 0.62679165 0.17301740
0.20502197 0.62675097 0.17004934
0.47318810 0.62662543 0.15876597
0.62162195 0.62623747 0.12163092
0.75327065 0.62503269 0.06256109
0.88034427 0.62123357 0.06256109
1.00600858 0.60862796 0.06256109
0.06256109 0.75182122 0.23444967
0.06256109 0.75181855 0.23410804
0.06256109 0.75181432 0.23356506
0.06256109 0.75180113 0.23185443
0.32888408 0.75176045 0.22640786
0.59808694 0.75163492 0.20770558
0.74659539 0.75124699 0.11453193
0.87826254 0.75004232 0.06256109
1.00534168 0.74624354 0.06256109
0.06256109 0.87682391 0.32623096
0.06256109 0.87682305 0.32608164
0.06256109 0.87682167 0.32584484
0.06256109 0.87681740 0.32510308
0.06256109 0.87680420 0.32278437
0.45351251 0.87676352 0.31531427
0.72305411 0.87663800 0.28849623
0.87158678 0.87625008 0.09264413
1.00325991 0.87504544 0.06256109
0.06256109 1.00182478 0.43790242
0.06256109 1.00182450 0.43784783
0.06256109 1.00182406 0.43776137
0.06256109 1.00182267 0.43749127
0.06256109 1.00181839 0.43665434
0.06256109 1.00180520 0.43403345
0.57839172 1.00176452 0.42553972
0.84804346 1.00163900 0.39431735
0.99658398 1.00125108 0.06256109
0.06256109 0.06256109 0.25004748
0.14211754 0.06256109 0.24975068
0.26027297 0.06256109 0.24927923
0.38262162 0.06256109 0.24779589
0.50674792 0.06256109 0.24309354
0.63146306 0.06256109 0.22719814
0.75637051 0.06256109 0.15337812
0.88134048 0.06256109 0.06256109
1.00633074 0.06256109 0.06256109
0.06256109 0.12341146 0.25032515
0.13099843 0.12275654 0.25002910
0.25640780 0.12171980 0.24955882
0.38135258 0.11848650 0.24807925
0.50633466 0.10851750 0.24338914
0.63132885 0.07778078 0.22753917
0.75632697 0.06256109 0.15412031
0.88132635 0.06256109 0.06256109
1.00632616 0.06256109 0.06256109
0.06256109 0.25063216 0.25076330
0.11339673 0.25038785 0.25046841
0.25000000 0.25000000 0.25000000
0.37931353 0.24878164 0.24852633
0.50567731 0.24493872 0.24385548
0.63111606 0.23217639 0.22807690
0.75625799 0.17988748 0.15529521
0.88130399 0.06256109 0.06256109
1.00631890 0.06256109 0.06256109
0.06256109 0.37643966 0.25211875
0.06256109 0.37636105 0.25182745
0.22724793 0.37623651 0.25136474
0.37270258 0.37584718 0.24990920
0.50360188 0.37463814 0.24529738
0.63044982 0.37082526 0.22973738
0.75604262 0.35817045 0.15895937
0.88123421 0.30647533 0.06256109
1.00629628 0.06256109 0.06256109
0.06256109 0.50170030 0.25619667
0.06256109 0.50167488 0.25591589
0.09872991 0.50163461 0.25546995
0.34942123 0.50150894 0.25406758
0.49694712 0.50112057 0.24962876
0.62837008 0.49991451 0.23470607
0.75537593 0.49611128 0.16962239
0.88101879 0.48349096 0.06256109
1.00622649 0.43198548 0.06256109
0.06256109 0.62678471 0.26790231
0.06256109 0.62677647 0.26764965
0.06256109 0.62676342 0.26724852
0.20834268 0.62672273 0.26598813
0.47348876 0.62659716 0.26200944
0.62170098 0.62620909 0.24875962
0.75329480 0.62500401 0.19373065
0.88035196 0.62120389 0.06256109
1.00601106 0.60859472 0.06256109
0.06256109 0.75181207 0.29775630
0.06256109 0.75180940 0.29756328
0.06256109 0.75180517 0.29725703
0.06256109 0.75179198 0.29629646
0.32998318 0.75175129 0.29328139
0.59818463 0.75162575 0.28343372
0.74662104 0.75123779 0.24603620
0.87827037 0.75003302 0.06256109
1.00534418 0.74623391 0.06256109
0.06256109 0.87682094 0.35841380
0.06256109 0.87682008 0.35830208
0.06256109 0.87681871 0.35812498
0.06256109 0.87681443 0.35757085
0.06256109 0.87680124 0.35584470
0.45387137 0.87676055 0.35034712
0.72308582 0.87663503 0.33144909
0.87159510 0.87624710 0.23719236
1.00326245 0.87504242 0.06256109
0.06256109 1.00182382 0.45077899
0.06256109 1.00182354 0.45073039
0.06256109 1.00182310 0.45065340
0.06256109 1.00182171 0.45041294
0.06256109 1.00181743 0.44966829
0.06256109 1.00180424 0.44734037
0.57850837 1.00176356 0.43983930
0.84805375 1.00163803 0.41289113
0.99658668 1.00125012 0.20441296
0.06256109 0.06256109 0.37504483
0.16082487 0.06256109 0.37494866
0.26648682 0.06256109 0.37479624
0.38472452 0.06256109 0.37431954
0.50743974 0.06256109 0.37283675
0.63168849 0.06256109 0.36813617
0.75644374 0.06256109 0.35224732
0.88136424 0.06256109 0.28083580
1.00633845 0.06256109 0.06256109
0.06256109 0.11641478 0.37513497
0.14970576 0.11575986 0.37503887
0.26283555 0.11472312 0.37488658
0.38347942 0.11148982 0.37441027
0.50702906 0.10152082 0.37292869
0.63155456 0.07078410 0.36823209
0.75640022 0.06256109 0.35235799
0.88135012 0.06256109 0.28104629
1.00633386 0.06256109 0.06256109
0.06256109 0.24799390 0.37527751
0.13210406 0.24774371 0.37518153
0.25679821 0.24734649 0.37502944
0.38147942 0.24609849 0.37455374
0.50637582 0.24215987 0.37307409
0.63134220 0.22905419 0.36838377
0.75633130 0.17484375 0.35253297
0.88132776 0.06256109 0.28137867
1.00632661 0.06256109 0.06256109
0.06256109 0.37559700 0.37572088
0.07720956 0.37551780 0.37562528
0.23553602 0.37539230 0.37547379
0.37500000 0.37500000 0.37500000
0.50431353 0.37378164 0.37352633
0.63067731 0.36993872 0.36885548
0.75611606 0.35717639 0.35307690
0.88125799 0.30488748 0.28240894
1.00630399 0.06256109 0.06256109
0.06256109 0.50142834 0.37707684
0.06256109 0.50140285 0.37698241
0.11743725 0.50136249 0.37683276
0.35224793 0.50123651 0.37636474
0.49770258 0.50084718 0.37490920
0.62860188 0.49963814 0.37029738
0.75544982 0.49582526 0.35473738
0.88104262 0.48317045 0.28552662
1.00623421 0.43147533 0.06256109
0.06256109 0.62669664 0.38115627
0.06256109 0.62668840 0.38106525
0.06256109 0.62667534 0.38092101
0.21810365 0.62663461 0.38046995
0.47442123 0.62650894 0.37906758
0.62194712 0.62612057 0.37462876
0.75337008 0.62491451 0.35970607
0.88037593 0.62111128 0.29462239
1.00601879 0.60849096 0.06256109
0.06256109 0.75178352 0.39286595
0.06256109 0.75178085 0.39278405
0.06256109 0.75177662 0.39265426
0.06256109 0.75176342 0.39224852
0.33334268 0.75172273 0.39098813
0.59848876 0.75159716 0.38700944
0.74670098 0.75120909 0.37375962
0.87829480 0.75000401 0.31873065
1.00535196 0.74620389 0.06256109
0.06256109 0.87681169 0.42272852
0.06256109 0.87681082 0.42266594
0.06256109 0.87680945 0.42256679
0.06256109 0.87680517 0.42225703
0.06256109 0.87679198 0.42129646
0.45498318 0.87675129 0.41828139
0.72318463 0.87662575 0.40843372
0.87162104 0.87623779 0.37103620
1.00327037 0.87503302 0.06256109
0.06256109 1.00182082 0.48339772
0.06256109 1.00182054 0.48336149
0.06256109 1.00182009 0.48330411
0.06256109 1.00181871 0.48312498
0.06256109 1.00181443 0.48257085
0.06256109 1.00180124 0.48084470
0.57887137 1.00176055 0.47534712
0.84808582 1.00163503 0.45644909
0.99659510 1.00124710 0.36219236
0.08617399 0.06256109 0.50004397
0.20177729 0.06256109 0.50001279
0.28371114 0.06256109 0.49996341
0.39096829 0.06256109 0.49980925
0.50954606 0.06256109 0.49933261
0.63238069 0.06256109 0.49784999
0.75666921 0.06256109 0.49314999
0.88143747 0.06256109 0.47726326
1.00636221 0.06256109 0.40586614
0.07505488 0.09484242 0.50007322
0.19514952 0.09418750 0.50004204
0.28059206 0.09315075 0.49999267
0.38979166 0.08991745 0.49983856
0.50914311 0.07994845 0.49936204
0.63224758 0.06256109 0.49787982
0.75662578 0.06256109 0.49318110
0.88142336 0.06256109 0.47729917
1.00635763 0.06256109 0.40593443
0.06256109 0.23944094 0.50011949
0.18377483 0.23917068 0.50008833
0.27546806 0.23874152 0.50003898
0.38790314 0.23739232 0.49988493
0.50850223 0.23312614 0.49940861
0.63203655 0.21883485 0.49792702
0.75655700 0.15560032 0.49323034
0.88140101 0.06256109 0.47735598
1.00635038 0.06256109 0.40604246
0.06256109 0.37295790 0.50026369
0.13488855 0.37287679 0.50023257
0.25777542 0.37274827 0.50018328
0.38179821 0.37234649 0.50002944
0.50647942 0.37109849 0.49955374
0.63137582 0.36715987 0.49807409
0.75634220 0.35405419 0.49338377
0.88133130 0.29984375 0.47753297
1.00632776 0.06256109 0.40637867
0.06256109 0.50058560 0.50070711
0.06256109 0.50055992 0.50067612
0.17331665 0.50051924 0.50062703
0.36053602 0.50039230 0.50047379
0.50000000 0.50000000 0.50000000
0.62931353 0.49878164 0.49852633
0.75567731 0.49493872 0.49385548
0.88111606 0.48217639 0.47807690
1.00625799 0.42988748 0.40740894
0.06256109 0.62642467 0.50206324
0.06256109 0.62641640 0.50203262
0.06256109 0.62640332 0.50198413
0.24371786 0.62636249 0.50183276
0.47724793 0.62623651 0.50136474
0.62270258 0.62584718 0.49990920
0.75360188 0.62463814 0.49529738
0.88044982 0.62082526 0.47973738
1.00604262 0.60817045 0.41052662
0.06256109 0.75169545 0.50614317
0.06256109 0.75169278 0.50611365
0.06256109 0.75168855 0.50606691
0.06256109 0.75167534 0.50592101
0.34310365 0.75163461 0.50546995
0.59942123 0.75150894 0.50406758
0.74694712 0.75112057 0.49962876
0.87837008 0.74991451 0.48470607
1.00537593 0.74611128 0.41962239
0.06256109 0.87678314 0.51785416
0.06256109 0.87678227 0.51782760
0.06256109 0.87678090 0.51778554
0.06256109 0.87677662 0.51765426
0.06256109 0.87676342 0.51724852
0.45834268 0.87672273 0.51598813
0.72348876 0.87659716 0.51200944
0.87170098 0.87620909 0.49875962
1.00329480 0.87500401 0.44373065
0.06256109 1.00181156 0.54771951
0.06256109 1.00181128 0.54769921
0.06256109 1.00181084 0.54766708
0.06256109 1.00180945 0.54756679
0.06256109 1.00180517 0.54725703
0.06256109 1.00179198 0.54629646
0.57998318 1.00175129 0.54328139
0.84818463 1.00162575 0.53343372
0.99662104 1.00123779 0.49603620
0.22540621 0.06256109 0.62504370
0.27459417 0.06256109 0.62503358
0.32443139 0.06256109 0.62501757
0.40826728 0.06256109 0.62496762
0.51579960 0.06256109 0.62481347
0.63448811 0.06256109 0.62433685
0.75736153 0.06256109 0.62285429
0.88166296 0.06256109 0.61815447
1.00643544 0.06256109 0.60226843
0.22008014 0.06256109 0.62505318
0.27120402 0.06256109 0.62504307
0.32227940 0.06256109 0.62502706
0.40726120 0.06256109 0.62497711
0.51541876 0.06256109 0.62482298
0.63435751 0.06256109 0.62434639
0.75731837 0.06256109 0.62286396
0.88164887 0.06256109 0.61816456
1.00643086 0.06256109 0.60228008
0.21108891 0.20795706 0.62506819
0.26561628 0.20759805 0.62505808
0.31878510 0.20702734 0.62504208
0.40564967 0.20522839 0.62499214
0.51481320 0.19949089 0.62483802
0.63415046 0.17966649 0.62436150
0.75725001 0.08908779 0.62287928
0.88162657 0.06256109 0.61818054
1.00642362 0.06256109 0.60229851
0.17719598 0.36440205 0.62511501
0.24612927 0.36431444 0.62510490
0.30712239 0.36417561 0.62508890
0.40046806 0.36374152 0.62503898
0.51290314 0.36239232 0.62488493
0.63350223 0.35812614 0.62440861
0.75703655 0.34383485 0.62292702
0.88155700 0.28267192 0.61823034
1.00640101 0.06256109 0.60235598
0.06256109 0.49794622 0.62525921
0.14347374 0.49791992 0.62524912
0.26073533 0.49787827 0.62523314
0.38277542 0.49774827 0.62518328
0.50679821 0.49734649 0.62502944
0.63147942 0.49609849 0.62455374
0.75637582 0.49215987 0.62307409
0.88134220 0.47905419 0.61838377
1.00633130 0.42484375 0.60253297
0.06256109 0.62558190 0.62570265
0.06256109 0.62557357 0.62569260
0.06256109 0.62556038 0.62567668
0.29831665 0.62551924 0.62562703
0.48553602 0.62539230 0.62547379
0.62500000 0.62500000 0.62500000
0.75431353 0.62378164 0.62352633
0.88067731 0.61993872 0.61885548
1.00611606 0.60717639 0.60307690
0.06256109 0.75142348 0.62705883
0.06256109 0.75142080 0.62704890
0.06256109 0.75141655 0.62703318
0.06256109 0.75140332 0.62698413
0.36871786 0.75136249 0.62683276
0.60224793 0.75123651 0.62636474
0.74770258 0.75084718 0.62490920
0.87860188 0.74963814 0.62029738
1.00544982 0.74582526 0.60473738
0.06256109 0.87669507 0.63113892
0.06256109 0.87669420 0.63112935
0.06256109 0.87669283 0.63111419
0.06256109 0.87668855 0.63106691
0.06256109 0.87667534 0.63092101
0.46810365 0.87663461 0.63046995
0.72442123 0.87650894 0.62906758
0.87194712 0.87612057 0.62462876
1.00337008 0.87491451 0.60970607
0.06256109 1.00178301 0.64285034
0.06256109 1.00178273 0.64284172
0.06256109 1.00178229 0.64282808
0.06256109 1.00178090 0.64278554
0.06256109 1.00177662 0.64265426
0.06256109 1.00176342 0.64224852
0.58334268 1.00172273 0.64098813
0.84848876 1.00159716 0.63700944
0.99670098 1.00120909 0.62375962
0.35828450 0.06256109 0.75004361
0.37556487 0.06256109 0.75004033
0.39838292 0.06256109 0.75003513
0.44912402 0.06256109 0.75001894
0.53312294 0.06256109 0.74996899
0.64074483 0.06256109 0.74981484
0.75946931 0.06256109 0.74933822
0.88235531 0.06256109 0.74785568
1.00666093 0.06256109 0.74315592
0.35670218 0.06256109 0.75004668
0.37421203 0.06256109 0.75004340
0.39728268 0.06256109 0.75003821
0.44842868 0.06256109 0.75002201
0.53279721 0.06256109 0.74997207
0.64062139 0.06256109 0.74981792
0.75942696 0.06256109 0.74934132
0.88234131 0.06256109 0.74785882
1.00665636 0.06256109 0.74315919
0.35415029 0.06256109 0.75005155
0.37203618 0.06256109 0.75004827
0.39551838 0.06256109 0.75004308
0.44731897 0.06256109 0.75002689
0.53227960 0.06256109 0.74997694
0.64042571 0.06256109 0.74982281
0.75935989 0.06256109 0.74934622
0.88231915 0.06256109 0.74786379
1.00664913 0.06256109 0.74316438
0.34579269 0.33290543 0.75006674
0.36496278 0.33278906 0.75006346
0.38982875 0.33260460 0.75005827
0.44378510 0.33202734 0.75004208
0.53064967 0.33022839 0.74999214
0.63981320 0.32449089 0.74983802
0.75915046 0.30466649 0.74936150
0.88225001 0.20216268 0.74787928
1.00662657 0.06256109 0.74318054
0.31516863 0.48938944 0.75011355
0.33979517 0.48936103 0.75011027
0.37018998 0.48931604 0.75010508
0.43212239 0.48917561 0.75008890
0.52546806 0.48874152 0.75003898
0.63790314 0.48739232 0.74988493
0.75850223 0.48312614 0.74940861
0.88203655 0.46883485 0.74792702
1.00655700 0.40767192 0.74323034
0.06256109 0.62294243 0.75025776
0.16938020 0.62293390 0.75025448
0.26939417 0.62292040 0.75024930
0.38573533 0.62287827 0.75023314
0.50777542 0.62274827 0.75018328
0.63179821 0.62234649 0.75002944
0.75647942 0.62109849 0.74955374
0.88137582 0.61715987 0.74807409
1.00634220 0.60405419 0.74338377
0.06256109 0.75058070 0.75070120
0.06256109 0.75057800 0.75069794
0.06256109 0.75057372 0.75069278
0.06256109 0.75056038 0.75067668
0.42331665 0.75051924 0.75062703
0.61053602 0.75039230 0.75047379
0.75000000 0.75000000 0.75000000
0.87931353 0.74878164 0.74852633
1.00567731 0.74493872 0.74385548
0.06256109 0.87642309 0.75205740
0.06256109 0.87642222 0.75205418
0.06256109 0.87642085 0.75204908
0.06256109 0.87641655 0.75203318
0.06256109 0.87640332 0.75198413
0.49371786 0.87636249 0.75183276
0.72724793 0.87623651 0.75136474
0.87270258 0.87584718 0.74990920
1.00360188 0.87463814 0.74529738
0.06256109 1.00169494 0.75613754
0.06256109 1.00169466 0.75613444
0.06256109 1.00169422 0.75612952
0.06256109 1.00169283 0.75611419
0.06256109 1.00168855 0.75606691
0.06256109 1.00167534 0.75592101
0.59310365 1.00163461 0.75546995
0.84942123 1.00150894 0.75406758
0.99694712 1.00112057 0.74962876
0.48572415 0.06256109 0.87504358
0.49150362 0.06256109 0.87504251
0.50007867 0.06256109 0.87504083
0.52322513 0.06256109 0.87503558
0.57402414 0.06256109 0.87501938
0.65807609 0.06256109 0.87496943
0.76572706 0.06256109 0.87481529
0.88446321 0.06256109 0.87433867
1.00735330 0.06256109 0.87285613
0.48522454 0.06256109 0.87504457
0.49102941 0.06256109 0.87504351
0.49963978 0.06256109 0.87504183
0.52286897 0.06256109 0.87503657
0.57379889 0.06256109 0.87502038
0.65797050 0.06256109 0.87497043
0.76568703 0.06256109 0.87481629
0.88444948 0.06256109 0.87433967
1.00734876 0.06256109 0.87285715
0.48442902 0.06256109 0.87504615
0.49027456 0.06256109 0.87504509
0.49894144 0.06256109 0.87504341
0.52230282 0.06256109 0.87503815
0.57344138 0.06256109 0.87502196
0.65780315 0.06256109 0.87497201
0.76562364 0.06256109 0.87481787
0.88442774 0.06256109 0.87434126
1.00734157 0.06256109 0.87285876
0.48191078 0.06256109 0.87505108
0.48788689 0.06256109 0.87505002
0.49673488 0.06256109 0.87504833
0.52051838 0.06256109 0.87504308
0.57231897 0.06256109 0.87502689
0.65727960 0.06256109 0.87497694
0.76542571 0.06256109 0.87482281
0.88435989 0.06256109 0.87434622
1.00731915 0.06256109 0.87286379
0.47376616 0.45788868 0.87506627
0.48018429 0.45785094 0.87506520
0.48964163 0.45779118 0.87506352
0.51482875 0.45760460 0.87505827
0.56878510 0.45702734 0.87504208
0.65564967 0.45522839 0.87499214
0.76481320 0.44949089 0.87483802
0.88415046 0.42966649 0.87436150
1.00725001 0.32716268 0.87287928
0.44407022 0.61438535 0.87511308
0.45238460 0.61437613 0.87511201
0.46439215 0.61436155 0.87511033
0.49518998 0.61431604 0.87510508
0.55712239 0.61417561 0.87508890
0.65046806 0.61374152 0.87503898
0.76290314 0.61239232 0.87488493
0.88350223 0.60812614 0.87440861
1.00703655 0.59383485 0.87292702
0.11922741 0.74794120 0.87525729
0.21942310 0.74793844 0.87525622
0.29249704 0.74793406 0.87525454
0.39439417 0.74792040 0.87524930
0.51073533 0.74787827 0.87523314
0.63277542 0.74774827 0.87518328
0.75679821 0.74734649 0.87502944
0.88147942 0.74609849 0.87455374
1.00637582 0.74215987 0.87307409
0.06256109 0.87558031 0.87570073
0.06256109 0.87557944 0.87569968
0.06256109 0.87557805 0.87569800
0.06256109 0.87557372 0.87569278
0.06256109 0.87556038 0.87567668
0.54831665 0.87551924 0.87562703
0.73553602 0.87539230 0.87547379
0.87500000 0.87500000 0.87500000
1.00431353 0.87378164 0.87352633
0.06256109 1.00142297 0.87705694
0.06256109 1.00142269 0.87705590
0.06256109 1.00142224 0.87705424
0.06256109 1.00142085 0.87704908
0.06256109 1.00141655 0.87703318
0.06256109 1.00140332 0.87698413
0.61871786 1.00136249 0.87683276
0.85224793 1.00123651 0.87636474
0.99770258 1.00084718 0.87490920
0.61150403 0.06256109 1.00004357
0.61339845 0.06256109 1.00004322
0.61633276 0.06256109 1.00004268
0.62501557 0.06256109 1.00004097
0.64817391 0.06256109 1.00003572
0.69899173 0.06256109 1.00001952
0.78306089 0.06256109 0.99996958
0.89072130 0.06256109 0.99981543
1.00946124 0.06256109 0.99933881
0.61134337 0.06256109 1.00004389
0.61324051 0.06256109 1.00004354
0.61617895 0.06256109 1.00004300
0.62487333 0.06256109 1.00004130
0.64805846 0.06256109 1.00003604
0.69891870 0.06256109 1.00001985
0.78302665 0.06256109 0.99996990
0.89070831 0.06256109 0.99981575
1.00945678 0.06256109 0.99933914
0.61108856 0.06256109 1.00004440
0.61299002 0.06256109 1.00004406
0.61593501 0.06256109 1.00004351
0.62464779 0.06256109 1.00004181
0.64787547 0.06256109 1.00003656
0.69880300 0.06256109 1.00002036
0.78297243 0.06256109 0.99997041
0.89068776 0.06256109 0.99981627
1.00944973 0.06256109 0.99933965
0.61029012 0.06256109 1.00004600
0.61220519 0.06256109 1.00004566
0.61517080 0.06256109 1.00004511
0.62394144 0.06256109 1.00004341
0.64730282 0.06256109 1.00003815
0.69844138 0.06256109 1.00002196
0.78280315 0.06256109 0.99997201
0.89062364 0.06256109 0.99981787
1.00942774 0.06256109 0.99934126
0.60779156 0.06256109 1.00005093
0.60974984 0.06256109 1.00005058
0.61278087 0.06256109 1.00005003
0.62173488 0.06256109 1.00004833
0.64551838 0.06256109 1.00004308
0.69731897 0.06256109 1.00002689
0.78227960 0.06256109 0.99997694
0.89042571 0.06256109 0.99982281
1.00935989 0.06256109 0.99934622
0.59971370 0.58288324 1.00006611
0.60181839 0.58287101 1.00006577
0.60507064 0.58285163 1.00006522
0.61464163 0.58279118 1.00006352
0.63982875 0.58260460 1.00005827
0.69378510 0.58202734 1.00004208
0.78064967 0.58022839 0.99999214
0.88981320 0.57449089 0.99983802
1.00915046 0.55466649 0.99936150
0.57030675 0.73938402 1.00011292
0.57304196 0.73938103 1.00011258
0.57723860 0.73937630 1.00011203
0.58939215 0.73936155 1.00011033
0.62018998 0.73931604 1.00010508
0.68212239 0.73917561 1.00008890
0.77546806 0.73874152 1.00003898
0.88790314 0.73739232 0.99988493
1.00850223 0.73312614 0.99940861
0.26666609 0.87294081 1.00025713
0.30277860 0.87293991 1.00025679
0.34322697 0.87293849 1.00025624
0.41749704 0.87293406 1.00025454
0.51939417 0.87292040 1.00024930
0.63573533 0.87287827 1.00023314
0.75777542 0.87274827 1.00018328
0.88179821 0.87234649 1.00002944
1.00647942 0.87109849 0.99955374
0.06256109 1.00058019 1.00070058
0.06256109 1.00057990 1.00070024
0.06256109 1.00057945 1.00069970
0.06256109 1.00057805 1.00069800
0.06256109 1.00057372 1.00069278
0.06256109 1.00056038 1.00067668
0.67331665 1.00051924 1.00062703
0.86053602 1.00039230 1.00047379
1.00000000 1.00000000 1.00000000
