Submissions/LUTs/Samples/LUT-Calc/Kodak3D.3dl
# Created with LUTCalc v4.09 by Ben Turley February 2025 #
# IDENTIFICATION: LUTCalc - 3DLUT
# CREATOR: LUTCalc v4.09
# USER: LUTCalc
# DATA: 2025-01-27T04:42:41 #
# NUMBER OF COLUMNS: 3
# NUMBER OF ROWS: 4913
# NUMBER OF NODES: 17
# INPUT RANGE: 10
# OUTPUT RANGE: 12
# TITLE : Custom LUT
# DESCRIPTION : ITU Proposal (400%)/Sony S-Gamut3.cine (Venice) -> S-Log3/Sony S-Gamut3.cine, Stop Shift 0.00, Black Level 3.54% IRE, Legal Input -> Data Output
0 128 256 384 512 640 768 896 1023
380 380 380
402 372 929
438 359 1291
496 337 1576
601 298 1856
770 256 2143
971 256 2434
1208 256 2726
1469 256 3020
317 934 385
338 931 931
375 924 1291
432 914 1576
538 895 1856
726 856 2143
943 770 2434
1192 527 2726
1460 256 3020
256 1297 392
256 1295 934
268 1293 1293
326 1288 1577
432 1280 1857
633 1263 2143
893 1230 2434
1163 1159 2726
1444 982 3020
256 1583 403
256 1582 939
256 1580 1295
256 1578 1578
262 1574 1857
464 1565 2144
800 1548 2434
1114 1514 2727
1419 1442 3020
256 1863 424
256 1863 949
256 1862 1300
256 1861 1581
256 1858 1859
256 1854 2144
540 1845 2434
1007 1828 2727
1367 1792 3020
256 2150 463
256 2150 966
256 2150 1308
256 2149 1585
256 2148 1861
256 2145 2146
256 2141 2435
686 2132 2727
1249 2114 3020
256 2441 539
256 2441 997
256 2441 1322
256 2440 1593
256 2440 1866
256 2438 2148
256 2436 2436
256 2431 2728
866 2422 3021
256 2734 683
256 2734 1051
256 2733 1350
256 2733 1608
256 2733 1874
256 2732 2153
256 2731 2439
256 2729 2729
256 2724 3021
256 3027 862
256 3027 1139
256 3027 1398
256 3027 1636
256 3027 1890
256 3027 2161
256 3026 2443
256 3025 2731
256 3022 3023
948 377 376
957 368 927
973 355 1290
996 333 1575
1037 294 1856
1105 256 2143
1212 256 2434
1366 256 2726
1565 256 3020
919 933 380
929 929 929
945 923 1291
970 912 1576
1013 893 1856
1084 854 2143
1196 768 2434
1354 523 2726
1557 256 3020
866 1296 387
877 1295 932
895 1292 1292
923 1287 1577
970 1279 1857
1048 1262 2143
1168 1229 2434
1335 1158 2726
1545 980 3020
766 1582 398
780 1581 937
802 1580 1294
836 1578 1578
892 1573 1857
984 1565 2144
1119 1548 2434
1301 1514 2726
1524 1441 3020
487 1863 419
509 1862 947
545 1862 1299
603 1860 1580
703 1858 1858
835 1853 2144
1014 1845 2434
1234 1827 2727
1484 1792 3020
256 2150 459
256 2150 964
256 2149 1307
256 2149 1585
256 2147 1861
318 2145 2146
700 2140 2435
1067 2132 2727
1395 2114 3020
256 2441 534
256 2441 995
256 2441 1322
256 2440 1593
256 2439 1865
256 2438 2148
256 2436 2436
309 2431 2728
1153 2422 3021
256 2734 679
256 2733 1049
256 2733 1349
256 2733 1608
256 2733 1874
256 2732 2153
256 2731 2439
256 2728 2729
256 2724 3021
256 3027 860
256 3027 1138
256 3027 1397
256 3027 1636
256 3027 1889
256 3027 2161
256 3026 2443
256 3025 2731
256 3022 3023
1313 370 368
1317 362 924
1325 349 1288
1336 327 1575
1355 288 1855
1390 256 2143
1451 256 2434
1548 256 2726
1690 256 3020
1300 930 372
1305 926 925
1312 920 1289
1323 909 1575
1343 890 1856
1379 850 2143
1441 763 2434
1540 517 2726
1684 256 3020
1278 1295 380
1283 1293 929
1290 1290 1290
1302 1286 1576
1323 1278 1856
1361 1261 2143
1425 1228 2434
1527 1156 2726
1675 978 3020
1240 1582 391
1245 1581 934
1254 1579 1293
1267 1577 1577
1289 1572 1857
1329 1564 2143
1398 1547 2434
1506 1513 2726
1660 1440 3020
1162 1863 412
1168 1862 943
1178 1861 1297
1193 1860 1579
1219 1858 1858
1266 1853 2144
1344 1844 2434
1463 1827 2727
1630 1792 3020
959 2150 451
968 2150 961
983 2149 1305
1006 2149 1584
1046 2147 1860
1113 2145 2145
1218 2140 2435
1370 2131 2727
1567 2114 3020
256 2441 527
256 2441 992
256 2440 1320
256 2440 1592
256 2439 1865
451 2438 2148
792 2436 2436
1110 2431 2728
1417 2422 3021
256 2733 671
256 2733 1047
256 2733 1348
256 2733 1607
256 2733 1873
256 2732 2152
256 2731 2439
256 2728 2729
782 2724 3021
256 3027 856
256 3027 1136
256 3027 1396
256 3027 1635
256 3027 1889
256 3026 2161
256 3026 2443
256 3025 2731
256 3022 3023
1600 360 356
1602 352 918
1606 339 1286
1612 317 1573
1623 278 1855
1643 256 2142
1678 256 2433
1739 256 2726
1838 256 3020
1593 925 360
1596 921 920
1599 915 1286
1605 905 1574
1616 885 1855
1636 845 2142
1673 757 2433
1735 507 2726
1834 256 3020
1582 1293 367
1584 1291 923
1588 1288 1288
1594 1284 1575
1605 1275 1855
1626 1259 2143
1663 1225 2433
1726 1154 2726
1827 973 3020
1563 1581 379
1565 1580 928
1569 1578 1290
1576 1576 1576
1587 1571 1856
1609 1563 2143
1647 1546 2434
1712 1512 2726
1816 1439 3020
1526 1862 399
1528 1861 938
1533 1861 1295
1540 1859 1578
1552 1857 1857
1576 1852 2144
1617 1844 2434
1686 1826 2726
1795 1791 3020
1446 2150 439
1449 2149 955
1454 2149 1303
1462 2148 1582
1477 2147 1860
1504 2145 2145
1552 2140 2435
1631 2131 2727
1753 2113 3020
1236 2441 515
1241 2440 987
1249 2440 1318
1262 2440 1591
1285 2439 1864
1326 2438 2147
1395 2436 2436
1503 2431 2728
1658 2422 3021
256 2733 659
256 2733 1042
256 2733 1345
256 2733 1606
256 2733 1873
301 2732 2152
687 2731 2438
1061 2728 2729
1392 2724 3021
256 3027 849
256 3027 1132
256 3027 1394
256 3027 1634
256 3027 1888
256 3026 2160
256 3026 2443
256 3024 2731
256 3022 3023
1881 342 334
1882 334 907
1884 320 1281
1887 299 1571
1893 259 1853
1904 256 2142
1925 256 2433
1961 256 2726
2024 256 3020
1877 917 338
1879 913 909
1881 906 1282
1884 896 1571
1890 876 1854
1901 835 2142
1921 744 2433
1958 489 2726
2021 256 3020
1871 1289 345
1872 1287 913
1875 1285 1283
1878 1280 1572
1884 1271 1854
1895 1255 2142
1916 1221 2433
1953 1148 2726
2017 966 3020
1861 1579 357
1863 1578 918
1865 1576 1286
1868 1574 1573
1874 1569 1855
1886 1561 2142
1907 1544 2433
1945 1510 2726
2010 1436 3020
1842 1861 377
1844 1860 928
1846 1860 1290
1850 1858 1576
1856 1856 1856
1868 1851 2143
1890 1843 2434
1929 1825 2726
1996 1790 3020
1804 2149 417
1806 2149 946
1808 2148 1298
1812 2148 1580
1819 2146 1858
1832 2144 2144
1856 2139 2434
1898 2130 2727
1969 2113 3020
1721 2440 493
1723 2440 978
1725 2440 1313
1730 2440 1588
1738 2439 1863
1754 2438 2147
1782 2435 2436
1831 2431 2727
1913 2422 3020
1499 2733 637
1502 2733 1034
1507 2733 1341
1514 2733 1604
1528 2733 1871
1552 2732 2151
1595 2731 2438
1668 2728 2729
1781 2723 3021
256 3027 837
256 3027 1126
256 3027 1390
256 3027 1632
256 3027 1887
256 3026 2160
256 3026 2443
866 3024 2731
1309 3022 3022
2168 307 292
2169 299 886
2170 286 1272
2172 264 1566
2175 256 1851
2181 256 2140
2192 256 2432
2213 256 2726
2250 256 3020
2166 900 296
2167 896 889
2168 889 1273
2170 878 1566
2173 857 1851
2179 814 2140
2190 719 2432
2211 454 2726
2248 256 3020
2163 1282 303
2164 1280 892
2165 1277 1274
2167 1272 1567
2170 1264 1851
2176 1247 2141
2187 1212 2432
2208 1138 2726
2246 951 3020
2158 1575 315
2159 1574 898
2160 1572 1277
2162 1570 1569
2165 1565 1852
2171 1557 2141
2182 1540 2433
2203 1505 2726
2241 1431 3020
2148 1859 335
2149 1858 908
2150 1858 1281
2152 1856 1571
2155 1854 1853
2161 1849 2142
2173 1840 2433
2195 1823 2726
2233 1787 3020
2129 2148 375
2130 2148 927
2131 2147 1289
2133 2147 1575
2136 2145 1856
2143 2143 2143
2155 2138 2434
2177 2129 2726
2217 2112 3020
2090 2440 450
2091 2440 960
2092 2439 1305
2094 2439 1584
2098 2438 1860
2105 2437 2145
2118 2435 2435
2143 2430 2727
2186 2421 3020
2005 2733 595
2006 2733 1019
2007 2733 1333
2010 2733 1599
2014 2732 1869
2023 2732 2150
2039 2730 2437
2067 2728 2728
2118 2723 3021
1777 3027 813
1778 3027 1113
1781 3027 1383
1785 3027 1628
1792 3027 1885
1806 3026 2158
1831 3026 2442
1876 3024 2731
1951 3022 3022
2459 256 256
2460 256 844
2460 256 1254
2461 256 1557
2463 256 1846
2466 256 2138
2472 256 2431
2483 256 2725
2504 256 3019
2458 866 256
2459 861 846
2459 854 1255
2460 842 1557
2462 820 1846
2465 773 2138
2471 663 2431
2482 387 2725
2503 256 3019
2456 1267 256
2457 1266 850
2457 1263 1257
2458 1258 1558
2460 1249 1847
2463 1231 2138
2469 1196 2431
2481 1118 2725
2502 920 3019
2454 1567 256
2454 1566 856
2455 1565 1259
2456 1562 1559
2457 1558 1847
2461 1549 2138
2467 1531 2431
2478 1496 2725
2499 1420 3019
2449 1855 256
2449 1854 867
2450 1853 1264
2451 1852 1562
2452 1850 1848
2456 1845 2139
2462 1836 2432
2473 1819 2725
2495 1783 3019
2439 2146 294
2439 2146 888
2440 2145 1272
2441 2144 1566
2443 2143 1851
2446 2141 2140
2452 2136 2432
2464 2127 2726
2486 2109 3020
2420 2439 370
2420 2438 924
2421 2438 1288
2422 2438 1575
2424 2437 1855
2427 2436 2143
2434 2434 2434
2446 2429 2726
2468 2420 3020
2380 2732 514
2381 2732 987
2381 2732 1318
2383 2732 1591
2385 2732 1864
2388 2731 2147
2395 2730 2436
2409 2727 2728
2433 2723 3021
2294 3027 762
2295 3027 1088
2295 3027 1369
2297 3026 1619
2299 3026 1880
2304 3026 2156
2312 3025 2441
2328 3024 2730
2357 3022 3022
2752 256 256
2752 256 748
2752 256 1218
2753 256 1538
2754 256 1836
2755 256 2133
2759 256 2428
2765 256 2723
2776 256 3018
2751 792 256
2752 787 751
2752 779 1219
2752 765 1539
2753 738 1837
2755 680 2133
2758 536 2428
2764 260 2723
2776 256 3018
2750 1238 256
2751 1237 756
2751 1233 1220
2751 1228 1540
2752 1219 1837
2754 1200 2133
2757 1162 2428
2763 1078 2724
2775 856 3019
2749 1552 256
2749 1552 764
2750 1550 1223
2750 1547 1541
2751 1543 1838
2753 1534 2133
2756 1516 2429
2762 1479 2724
2773 1400 3019
2746 1847 256
2747 1847 777
2747 1846 1228
2747 1844 1544
2748 1842 1839
2750 1837 2134
2753 1828 2429
2759 1810 2724
2771 1774 3019
2741 2142 256
2742 2141 802
2742 2141 1238
2742 2140 1548
2743 2139 1841
2745 2137 2135
2748 2132 2430
2754 2123 2724
2766 2105 3019
2732 2436 256
2732 2436 846
2732 2436 1255
2733 2436 1557
2734 2435 1846
2735 2434 2138
2739 2431 2431
2745 2427 2725
2757 2418 3019
2712 2731 360
2712 2731 920
2713 2731 1286
2713 2731 1574
2714 2731 1855
2716 2730 2142
2720 2729 2433
2726 2726 2726
2738 2721 3020
2673 3026 637
2673 3026 1034
2673 3026 1341
2674 3026 1604
2675 3026 1871
2677 3025 2151
2681 3025 2438
2688 3023 2729
2701 3021 3021
3046 256 256
3046 256 476
3046 256 1139
3046 256 1501
3047 256 1817
3047 256 2123
3049 256 2423
3052 256 2721
3058 256 3017
3045 594 256
3045 586 481
3046 573 1140
3046 551 1502
3046 512 1818
3047 436 2123
3049 292 2423
3052 256 2721
3058 256 3017
3045 1177 256
3045 1175 488
3045 1172 1142
3045 1166 1503
3046 1155 1818
3047 1133 2123
3048 1088 2423
3052 988 2721
3058 699 3017
3044 1523 256
3044 1522 499
3044 1520 1146
3045 1517 1504
3045 1512 1819
3046 1503 2124
3048 1483 2424
3051 1444 2721
3057 1358 3017
3043 1832 256
3043 1831 520
3043 1830 1152
3043 1829 1507
3044 1827 1820
3045 1822 2124
3046 1812 2424
3050 1794 2721
3056 1756 3017
3040 2134 256
3040 2134 559
3040 2133 1163
3041 2132 1512
3041 2131 1823
3042 2129 2126
3044 2124 2425
3047 2115 2722
3053 2096 3017
3035 2432 256
3035 2432 635
3035 2432 1183
3036 2432 1522
3036 2431 1828
3037 2430 2128
3039 2427 2426
3042 2422 2722
3048 2413 3018
3025 2729 256
3025 2729 754
3026 2729 1220
3026 2729 1539
3026 2728 1837
3027 2728 2133
3029 2726 2428
3032 2724 2724
3039 2719 3019
3006 3025 342
3006 3025 911
3006 3025 1283
3006 3025 1572
3007 3025 1854
3008 3024 2142
3010 3024 2433
3013 3022 2726
3020 3020 3020
