Submissions/LUTs/Samples/LUT-Calc/Kodak3D.3dl
# Created with LUTCalc v4.09 by Ben Turley February 2025 #
# IDENTIFICATION: LUTCalc - 3DLUT
# CREATOR: LUTCalc v4.09
# USER: LUTCalc
# DATA: 2025-01-27T04:42:41 #
# NUMBER OF COLUMNS: 3
# NUMBER OF ROWS: 4913
# NUMBER OF NODES: 17
# INPUT RANGE: 10
# OUTPUT RANGE: 12
# TITLE : Custom LUT
# DESCRIPTION : ITU Proposal (400%)/Sony S-Gamut3.cine (Venice) -> S-Log3/Sony S-Gamut3.cine, Stop Shift 0.00, Black Level 3.54% IRE, Legal Input -> Data Output
0 256 512 768 1023
380 380 380
438 359 1291
601 298 1856
971 256 2434
1469 256 3020
256 1297 392
268 1293 1293
432 1280 1857
893 1230 2434
1444 982 3020
256 1863 424
256 1862 1300
256 1858 1859
540 1845 2434
1367 1792 3020
256 2441 539
256 2441 1322
256 2440 1866
256 2436 2436
866 2422 3021
256 3027 862
256 3027 1398
256 3027 1890
256 3026 2443
256 3022 3023
1313 370 368
1325 349 1288
1355 288 1855
1451 256 2434
1690 256 3020
1278 1295 380
1290 1290 1290
1323 1278 1856
1425 1228 2434
1675 978 3020
1162 1863 412
1178 1861 1297
1219 1858 1858
1344 1844 2434
1630 1792 3020
256 2441 527
256 2440 1320
256 2439 1865
792 2436 2436
1417 2422 3021
256 3027 856
256 3027 1396
256 3027 1889
256 3026 2443
256 3022 3023
1881 342 334
1884 320 1281
1893 259 1853
1925 256 2433
2024 256 3020
1871 1289 345
1875 1285 1283
1884 1271 1854
1916 1221 2433
2017 966 3020
1842 1861 377
1846 1860 1290
1856 1856 1856
1890 1843 2434
1996 1790 3020
1721 2440 493
1725 2440 1313
1738 2439 1863
1782 2435 2436
1913 2422 3020
256 3027 837
256 3027 1390
256 3027 1887
256 3026 2443
1309 3022 3022
2459 256 256
2460 256 1254
2463 256 1846
2472 256 2431
2504 256 3019
2456 1267 256
2457 1263 1257
2460 1249 1847
2469 1196 2431
2502 920 3019
2449 1855 256
2450 1853 1264
2452 1850 1848
2462 1836 2432
2495 1783 3019
2420 2439 370
2421 2438 1288
2424 2437 1855
2434 2434 2434
2468 2420 3020
2294 3027 762
2295 3027 1369
2299 3026 1880
2312 3025 2441
2357 3022 3022
3046 256 256
3046 256 1139
3047 256 1817
3049 256 2423
3058 256 3017
3045 1177 256
3045 1172 1142
3046 1155 1818
3048 1088 2423
3058 699 3017
3043 1832 256
3043 1830 1152
3044 1827 1820
3046 1812 2424
3056 1756 3017
3035 2432 256
3035 2432 1183
3036 2431 1828
3039 2427 2426
3048 2413 3018
3006 3025 342
3006 3025 1283
3007 3025 1854
3010 3024 2433
3020 3020 3020
