Submissions/LUTs/Samples/LUT-Calc/Kodak3D.3dl
# Created with LUTCalc v4.09 by Ben Turley February 2025 #
# IDENTIFICATION: LUTCalc - 3DLUT
# CREATOR: LUTCalc v4.09
# USER: LUTCalc
# DATA: 2025-01-27T04:42:41 #
# NUMBER OF COLUMNS: 3
# NUMBER OF ROWS: 4913
# NUMBER OF NODES: 17
# INPUT RANGE: 10
# OUTPUT RANGE: 12
# TITLE : Custom LUT
# DESCRIPTION : ITU Proposal (400%)/Sony S-Gamut3.cine (Venice) -> S-Log3/Sony S-Gamut3.cine, Stop Shift 0.00, Black Level 3.54% IRE, Legal Input -> Data Output
0 64 128 192 256 320 384 448 512 576 640 704 768 832 896 960 1023
380 380 380
391 376 711
402 372 929
418 366 1121
438 359 1291
464 349 1439
496 337 1576
540 320 1715
601 298 1856
686 266 1999
770 256 2143
865 256 2288
971 256 2434
1086 256 2580
1208 256 2726
1336 256 2873
1469 256 3020
350 715 382
360 713 713
372 709 930
387 705 1122
408 699 1291
434 692 1440
466 682 1576
510 665 1715
571 642 1856
656 610 1999
750 567 2143
849 506 2288
958 422 2434
1076 306 2580
1200 256 2726
1330 256 2873
1465 256 3020
317 934 385
327 933 715
338 931 931
354 928 1123
375 924 1291
400 920 1440
432 914 1576
477 906 1715
538 895 1856
623 879 1999
726 856 2143
830 822 2288
943 770 2434
1064 687 2580
1192 527 2726
1324 306 2873
1460 256 3020
271 1127 388
281 1126 717
292 1125 932
308 1123 1124
329 1121 1292
354 1118 1440
386 1114 1577
431 1109 1716
492 1102 1857
576 1092 1999
692 1078 2143
803 1057 2288
922 1027 2434
1048 982 2580
1180 910 2726
1315 789 2873
1453 526 3020
256 1297 392
256 1296 720
256 1295 934
256 1294 1125
268 1293 1293
294 1291 1441
326 1288 1577
370 1285 1716
432 1280 1857
516 1273 1999
633 1263 2143
765 1250 2288
893 1230 2434
1026 1202 2580
1163 1159 2726
1303 1093 2873
1444 982 3020
256 1446 397
256 1445 723
256 1445 937
256 1444 1126
256 1443 1294
256 1441 1442
256 1439 1578
295 1437 1716
357 1433 1857
441 1429 2000
558 1422 2144
712 1412 2288
854 1399 2434
998 1379 2580
1142 1351 2726
1287 1309 2873
1433 1243 3020
256 1583 403
256 1582 728
256 1582 939
256 1581 1128
256 1580 1295
256 1579 1443
256 1578 1578
256 1576 1717
262 1574 1857
347 1570 2000
464 1565 2144
626 1558 2289
800 1548 2434
958 1534 2580
1114 1514 2727
1267 1485 2873
1419 1442 3020
256 1722 412
256 1722 734
256 1721 943
256 1721 1131
256 1720 1297
256 1719 1444
256 1718 1579
256 1717 1717
256 1715 1858
256 1713 2000
334 1709 2144
496 1704 2289
712 1697 2434
898 1687 2580
1072 1673 2727
1238 1652 2873
1398 1622 3020
256 1863 424
256 1863 743
256 1863 949
256 1862 1134
256 1862 1300
256 1861 1446
256 1861 1581
256 1860 1718
256 1858 1859
256 1856 2001
256 1854 2144
316 1850 2289
540 1845 2434
800 1838 2580
1007 1828 2727
1193 1813 2873
1367 1792 3020
256 2006 440
256 2006 754
256 2006 956
256 2005 1139
256 2005 1303
256 2005 1448
256 2004 1583
256 2003 1720
256 2002 1860
256 2001 2002
256 1999 2145
256 1997 2289
292 1993 2435
602 1988 2581
899 1980 2727
1124 1970 2873
1321 1956 3020
256 2150 463
256 2150 769
256 2150 966
256 2150 1146
256 2150 1308
256 2149 1452
256 2149 1585
256 2148 1722
256 2148 1861
256 2147 2003
256 2145 2146
256 2143 2290
256 2141 2435
258 2137 2581
686 2132 2727
1007 2124 2874
1249 2114 3020
256 2295 495
256 2295 790
256 2295 979
256 2295 1155
256 2295 1314
256 2295 1456
256 2294 1589
256 2294 1724
256 2293 1863
256 2293 2004
256 2292 2147
256 2290 2291
256 2288 2436
256 2286 2581
256 2282 2727
770 2277 2874
1124 2269 3020
256 2441 539
256 2441 816
256 2441 997
256 2441 1167
256 2441 1322
256 2440 1462
256 2440 1593
256 2440 1728
256 2440 1866
256 2439 2006
256 2438 2148
256 2437 2292
256 2436 2436
256 2434 2582
256 2431 2728
256 2427 2874
866 2422 3021
256 2587 599
256 2587 851
256 2587 1020
256 2587 1183
256 2587 1334
256 2587 1471
256 2587 1600
256 2586 1733
256 2586 1869
256 2586 2008
256 2585 2150
256 2584 2293
256 2583 2437
256 2582 2583
256 2580 2728
256 2577 2874
256 2574 3021
256 2734 683
256 2734 895
256 2734 1051
256 2733 1205
256 2733 1350
256 2733 1483
256 2733 1608
256 2733 1739
256 2733 1874
256 2733 2012
256 2732 2153
256 2732 2295
256 2731 2439
256 2730 2584
256 2729 2729
256 2727 2875
256 2724 3021
256 2880 767
256 2880 949
256 2880 1090
256 2880 1233
256 2880 1370
256 2880 1498
256 2880 1620
256 2880 1748
256 2880 1881
256 2880 2017
256 2879 2156
256 2879 2298
256 2878 2441
256 2878 2585
256 2877 2730
256 2875 2876
256 2873 3022
256 3027 862
256 3027 1015
256 3027 1139
256 3027 1270
256 3027 1398
256 3027 1519
256 3027 1636
256 3027 1760
256 3027 1890
256 3027 2024
256 3027 2161
256 3026 2301
256 3026 2443
256 3025 2587
256 3025 2731
256 3024 2877
256 3022 3023
726 379 378
733 375 710
741 370 928
752 365 1121
766 357 1290
782 347 1439
803 335 1576
829 319 1715
863 296 1856
906 264 1999
959 256 2143
1024 256 2288
1101 256 2434
1190 256 2580
1290 256 2726
1399 256 2873
1517 256 3020
704 714 380
711 711 711
720 708 929
731 704 1121
745 698 1291
763 690 1439
784 680 1576
811 663 1715
846 640 1856
891 609 1999
946 565 2143
1013 504 2288
1092 421 2434
1182 305 2580
1283 256 2726
1394 256 2873
1513 256 3020
676 934 382
686 932 713
695 930 930
707 927 1122
722 924 1291
740 919 1440
762 913 1576
791 905 1715
827 894 1856
874 878 1999
931 855 2143
1000 821 2288
1081 769 2434
1173 686 2580
1276 525 2726
1389 304 2873
1509 256 3020
629 1127 385
640 1126 715
651 1125 932
667 1123 1123
687 1120 1292
707 1118 1440
730 1114 1577
761 1109 1715
800 1102 1856
849 1091 1999
909 1077 2143
981 1056 2288
1065 1026 2434
1161 981 2580
1266 909 2726
1381 788 2873
1503 524 3020
569 1297 389
580 1296 718
591 1295 933
607 1294 1124
627 1292 1293
653 1290 1441
685 1288 1577
719 1284 1716
761 1279 1857
815 1272 1999
879 1263 2143
956 1249 2288
1044 1230 2434
1144 1201 2580
1253 1159 2726
1370 1092 2873
1495 981 3020
494 1446 394
504 1445 722
516 1444 936
532 1444 1126
552 1442 1294
578 1441 1441
610 1439 1578
654 1437 1716
708 1433 1857
768 1428 2000
839 1422 2144
922 1412 2288
1017 1398 2434
1121 1379 2580
1235 1351 2726
1357 1308 2873
1485 1242 3020
400 1583 401
410 1582 726
421 1582 938
437 1581 1128
458 1580 1295
483 1579 1442
515 1578 1578
560 1576 1717
621 1573 1857
701 1570 2000
783 1565 2144
876 1558 2289
979 1548 2434
1092 1534 2580
1213 1514 2726
1340 1485 2873
1472 1441 3020
270 1722 409
280 1721 733
292 1721 942
307 1721 1130
328 1720 1297
353 1719 1444
386 1718 1579
430 1717 1717
491 1715 1858
576 1712 2000
691 1709 2144
803 1704 2289
922 1697 2434
1048 1687 2580
1179 1672 2727
1315 1652 2873
1453 1622 3020
256 1863 421
256 1863 741
256 1863 948
256 1862 1134
256 1862 1299
256 1861 1445
256 1860 1580
256 1859 1718
311 1858 1859
396 1856 2001
513 1854 2144
675 1850 2289
829 1845 2434
979 1838 2580
1129 1827 2727
1278 1813 2873
1426 1792 3020
256 2006 438
256 2006 753
256 2006 955
256 2005 1139
256 2005 1302
256 2005 1448
256 2004 1582
256 2003 1720
256 2002 1860
256 2001 2001
265 1999 2145
427 1996 2289
651 1993 2435
863 1988 2581
1048 1980 2727
1221 1970 2873
1386 1955 3020
256 2150 461
256 2150 768
256 2150 965
256 2150 1145
256 2149 1307
256 2149 1451
256 2149 1585
256 2148 1721
256 2148 1861
256 2147 2002
256 2145 2146
256 2143 2290
307 2141 2435
617 2137 2581
906 2132 2727
1129 2124 2874
1324 2114 3020
256 2295 493
256 2295 788
256 2295 978
256 2295 1154
256 2295 1313
256 2294 1456
256 2294 1588
256 2294 1724
256 2293 1863
256 2293 2004
256 2292 2147
256 2290 2291
256 2288 2436
256 2286 2581
570 2282 2727
960 2277 2874
1221 2269 3020
256 2441 537
256 2441 815
256 2441 996
256 2441 1166
256 2441 1322
256 2440 1462
256 2440 1593
256 2440 1728
256 2440 1865
256 2439 2006
256 2438 2148
256 2437 2292
256 2436 2436
256 2434 2582
256 2431 2728
505 2427 2874
1025 2422 3021
256 2587 597
256 2587 850
256 2587 1020
256 2587 1183
256 2587 1334
256 2587 1471
256 2587 1599
256 2586 1732
256 2586 1869
256 2586 2008
256 2585 2150
256 2584 2293
256 2583 2437
256 2582 2582
256 2580 2728
256 2577 2874
415 2574 3021
256 2734 681
256 2734 894
256 2733 1050
256 2733 1204
256 2733 1349
256 2733 1482
256 2733 1608
256 2733 1739
256 2733 1874
256 2733 2012
256 2732 2153
256 2732 2295
256 2731 2439
256 2730 2584
256 2728 2729
256 2727 2875
256 2724 3021
256 2880 766
256 2880 948
256 2880 1090
256 2880 1233
256 2880 1370
256 2880 1498
256 2880 1620
256 2880 1748
256 2880 1880
256 2880 2017
256 2879 2156
256 2879 2298
256 2878 2441
256 2878 2585
256 2877 2730
256 2875 2876
256 2873 3022
256 3027 861
256 3027 1014
256 3027 1139
256 3027 1269
256 3027 1397
256 3027 1519
256 3027 1636
256 3027 1760
256 3027 1890
256 3027 2024
256 3027 2161
256 3026 2301
256 3026 2443
256 3025 2587
256 3025 2731
256 3024 2877
256 3022 3023
948 377 376
952 373 708
957 368 927
964 363 1120
973 355 1290
983 345 1439
996 333 1575
1014 317 1715
1037 294 1856
1066 262 1999
1105 256 2143
1153 256 2288
1212 256 2434
1283 256 2580
1366 256 2726
1460 256 2873
1565 256 3020
934 713 378
939 710 710
944 707 928
951 702 1121
960 696 1290
971 689 1439
984 678 1576
1002 661 1715
1025 638 1856
1056 607 1999
1095 563 2143
1144 502 2288
1205 419 2434
1277 303 2580
1360 256 2726
1456 256 2873
1561 256 3020
919 933 380
924 931 711
929 929 929
936 926 1121
945 923 1291
957 918 1439
970 912 1576
989 904 1715
1013 893 1856
1044 877 1999
1084 854 2143
1135 820 2288
1196 768 2434
1269 684 2580
1354 523 2726
1451 302 2873
1557 256 3020
897 1126 383
902 1125 714
907 1124 930
915 1122 1122
924 1120 1291
936 1117 1440
951 1113 1576
970 1108 1715
995 1101 1856
1027 1091 1999
1069 1076 2143
1121 1056 2288
1184 1025 2434
1259 980 2580
1346 909 2726
1444 787 2873
1552 523 3020
866 1296 387
871 1295 716
877 1295 932
885 1293 1124
895 1292 1292
908 1290 1440
923 1287 1577
943 1284 1715
970 1279 1857
1004 1272 1999
1048 1262 2143
1102 1249 2288
1168 1229 2434
1245 1201 2580
1335 1158 2726
1435 1092 2873
1545 980 3020
824 1445 392
830 1445 720
836 1444 935
845 1443 1125
857 1442 1293
870 1441 1441
887 1439 1577
909 1436 1716
937 1433 1857
974 1428 1999
1021 1421 2143
1078 1412 2288
1147 1398 2434
1228 1379 2580
1320 1350 2726
1423 1308 2873
1536 1242 3020
766 1582 398
772 1582 725
780 1581 937
790 1581 1127
802 1580 1294
818 1579 1442
836 1578 1578
861 1576 1716
892 1573 1857
933 1570 2000
984 1565 2144
1045 1558 2288
1119 1548 2434
1205 1534 2580
1301 1514 2726
1408 1485 2873
1524 1441 3020
667 1722 407
677 1721 731
688 1721 941
700 1720 1130
715 1720 1296
734 1719 1443
756 1718 1579
785 1717 1717
822 1715 1858
869 1712 2000
927 1709 2144
996 1704 2289
1078 1696 2434
1171 1686 2580
1274 1672 2727
1387 1652 2873
1508 1622 3020
487 1863 419
497 1863 739
509 1862 947
524 1862 1133
545 1862 1299
570 1861 1445
603 1860 1580
647 1859 1718
703 1858 1858
763 1856 2001
835 1853 2144
919 1850 2289
1014 1845 2434
1119 1837 2580
1234 1827 2727
1356 1813 2873
1484 1792 3020
256 2006 436
256 2006 751
260 2006 954
276 2005 1138
296 2005 1302
322 2005 1447
354 2004 1582
398 2003 1719
460 2002 1859
544 2001 2001
661 1999 2145
783 1996 2289
907 1993 2435
1037 1987 2581
1171 1980 2727
1308 1970 2873
1449 1955 3020
256 2150 459
256 2150 766
256 2150 964
256 2150 1145
256 2149 1307
256 2149 1451
256 2149 1585
256 2148 1721
256 2147 1861
256 2146 2002
318 2145 2146
480 2143 2290
700 2140 2435
890 2137 2581
1067 2132 2727
1234 2124 2874
1395 2114 3020
256 2295 490
256 2295 787
256 2295 977
256 2295 1154
256 2295 1313
256 2294 1455
256 2294 1588
256 2294 1724
256 2293 1863
256 2293 2004
256 2292 2147
256 2290 2291
256 2288 2436
538 2285 2581
866 2282 2727
1105 2276 2874
1309 2269 3020
256 2441 534
256 2441 814
256 2441 995
256 2441 1166
256 2441 1322
256 2440 1462
256 2440 1593
256 2440 1727
256 2439 1865
256 2439 2006
256 2438 2148
256 2437 2292
256 2436 2436
256 2434 2582
309 2431 2728
830 2427 2874
1153 2422 3021
256 2587 595
256 2587 848
256 2587 1019
256 2587 1182
256 2587 1333
256 2587 1470
256 2587 1599
256 2586 1732
256 2586 1869
256 2586 2008
256 2585 2150
256 2584 2293
256 2583 2437
256 2582 2582
256 2580 2728
256 2577 2874
776 2574 3021
256 2734 679
256 2734 892
256 2733 1049
256 2733 1204
256 2733 1349
256 2733 1482
256 2733 1608
256 2733 1739
256 2733 1874
256 2733 2012
256 2732 2153
256 2732 2295
256 2731 2439
256 2730 2583
256 2728 2729
256 2727 2875
256 2724 3021
256 2880 764
256 2880 947
256 2880 1089
256 2880 1232
256 2880 1370
256 2880 1498
256 2880 1620
256 2880 1748
256 2880 1880
256 2880 2017
256 2879 2156
256 2879 2298
256 2878 2441
256 2878 2585
256 2877 2730
256 2875 2876
256 2873 3022
256 3027 860
256 3027 1013
256 3027 1138
256 3027 1269
256 3027 1397
256 3027 1518
256 3027 1636
256 3027 1760
256 3027 1889
256 3027 2024
256 3027 2161
256 3026 2301
256 3026 2443
256 3025 2587
256 3025 2731
256 3024 2877
256 3022 3023
1143 374 372
1146 370 706
1149 366 926
1153 360 1119
1159 352 1289
1166 343 1438
1175 331 1575
1187 314 1714
1202 291 1856
1223 259 1999
1251 256 2143
1286 256 2288
1331 256 2434
1387 256 2580
1454 256 2726
1533 256 2873
1623 256 3020
1134 711 374
1137 708 707
1140 705 926
1145 700 1120
1151 694 1289
1158 687 1438
1167 675 1575
1179 659 1714
1195 636 1856
1216 604 1999
1244 560 2143
1280 500 2288
1325 416 2434
1381 300 2580
1449 256 2726
1529 256 2873
