Submissions/LUTs/Samples/LUT-Calc/Lustre.3dl
# Created with LUTCalc v4.09 by Ben Turley February 2025 #
# IDENTIFICATION: LUTCalc - 3DLUT
# CREATOR: LUTCalc v4.09
# USER: LUTCalc
# DATA: 2025-01-27T04:42:38 #
# NUMBER OF COLUMNS: 3
# NUMBER OF ROWS: 35937
# NUMBER OF NODES: 33
# INPUT RANGE: 10
# OUTPUT RANGE: 12
# TITLE : Custom LUT
# DESCRIPTION : ITU Proposal (400%)/Sony S-Gamut3.cine (Venice) -> S-Log3/Sony S-Gamut3.cine, Stop Shift 0.00, Black Level 3.54% IRE, Legal Input -> Data Output
3DMESH
Mesh 5 12
0 32 64 96 128 160 192 224 256 288 320 352 384 416 448 480 512 544 576 608 640 672 704 736 768 800 832 864 896 928 960 992 1023
380 380 380
385 378 550
391 376 711
396 374 825
402 372 929
409 369 1028
418 366 1121
427 363 1209
438 359 1291
450 354 1367
464 349 1439
479 344 1508
496 337 1576
516 329 1645
540 320 1715
568 310 1785
601 298 1856
640 283 1927
686 266 1999
727 256 2071
770 256 2143
816 256 2215
865 256 2288
917 256 2361
971 256 2434
1027 256 2507
1086 256 2580
1146 256 2653
1208 256 2726
1271 256 2800
1336 256 2873
1402 256 2946
1469 256 3020
365 553 381
370 551 551
375 549 712
381 547 825
387 544 930
394 542 1029
403 539 1122
412 535 1209
423 531 1291
435 526 1367
449 521 1439
464 516 1508
481 509 1576
501 502 1645
525 493 1715
553 482 1785
586 470 1856
625 455 1927
671 438 1999
716 418 2071
760 394 2143
807 367 2215
857 334 2288
910 295 2361
965 256 2434
1022 256 2507
1081 256 2580
1142 256 2653
1204 256 2726
1268 256 2800
1333 256 2873
1400 256 2946
1467 256 3020
350 715 382
355 714 552
360 713 713
366 711 826
372 709 930
379 707 1029
387 705 1122
397 702 1209
408 699 1291
420 696 1368
434 692 1440
448 688 1508
466 682 1576
486 674 1645
510 665 1715
538 655 1785
571 642 1856
610 628 1927
656 610 1999
704 590 2071
750 567 2143
798 539 2216
849 506 2288
902 468 2361
958 422 2434
1016 369 2507
1076 306 2580
1137 256 2653
1200 256 2726
1265 256 2800
1330 256 2873
1397 256 2946
1465 256 3020
335 829 383
340 828 553
345 827 714
350 826 826
356 825 931
364 823 1029
372 821 1122
382 819 1210
393 817 1291
405 814 1368
418 811 1440
433 808 1508
450 804 1576
471 799 1645
495 794 1715
523 787 1785
556 779 1856
595 770 1928
641 758 1999
692 745 2071
739 728 2143
789 707 2216
841 681 2288
895 643 2361
951 598 2434
1010 544 2507
1071 482 2580
1133 408 2653
1196 321 2726
1261 256 2800
1327 256 2873
1395 256 2947
1463 256 3020
317 934 385
322 934 554
327 933 715
332 932 827
338 931 931
346 929 1030
354 928 1123
364 926 1210
375 924 1291
387 922 1368
400 920 1440
415 917 1508
432 914 1576
453 911 1646
477 906 1715
505 901 1786
538 895 1856
577 888 1928
623 879 1999
676 869 2071
726 856 2143
777 841 2216
830 822 2288
886 799 2361
943 770 2434
1003 734 2507
1064 687 2580
1127 614 2653
1192 527 2726
1257 425 2800
1324 306 2873
1392 256 2947
1460 256 3020
295 1034 386
301 1033 555
306 1033 716
311 1032 828
317 1031 932
324 1030 1030
333 1029 1123
342 1027 1210
353 1026 1292
365 1024 1368
379 1022 1440
394 1020 1508
411 1018 1577
431 1015 1646
455 1012 1715
483 1007 1786
517 1003 1856
556 997 1928
601 990 1999
655 982 2071
711 972 2143
763 960 2216
818 946 2288
875 928 2361
934 907 2434
995 880 2507
1057 847 2580
1121 804 2653
1186 748 2726
1252 669 2800
1320 549 2873
1388 409 2947
1457 256 3020
271 1127 388
276 1127 557
281 1126 717
286 1126 829
292 1125 932
300 1124 1031
308 1123 1124
318 1122 1211
329 1121 1292
341 1120 1369
354 1118 1440
369 1116 1508
386 1114 1577
407 1112 1646
431 1109 1716
459 1106 1786
492 1102 1857
531 1097 1928
576 1092 1999
630 1085 2071
692 1078 2143
746 1068 2216
803 1057 2288
862 1043 2361
922 1027 2434
985 1007 2507
1048 982 2580
1113 950 2653
1180 910 2726
1247 859 2800
1315 789 2873
1384 690 2947
1453 526 3020
256 1215 389
256 1215 559
256 1214 718
258 1214 830
264 1213 933
271 1212 1032
280 1212 1124
289 1211 1211
300 1210 1293
312 1209 1369
326 1207 1441
341 1206 1509
358 1204 1577
378 1202 1646
402 1200 1716
430 1197 1786
463 1194 1857
502 1190 1928
548 1186 1999
602 1181 2071
665 1174 2143
726 1167 2216
785 1158 2288
846 1147 2361
909 1134 2434
973 1118 2507
1038 1098 2580
1105 1074 2653
1172 1044 2726
1240 1006 2800
1309 957 2873
1379 891 2947
1449 800 3020
256 1297 392
256 1297 561
256 1296 720
256 1296 831
256 1295 934
256 1295 1032
256 1294 1125
257 1293 1212
268 1293 1293
280 1292 1369
294 1291 1441
309 1289 1509
326 1288 1577
346 1286 1646
370 1285 1716
398 1282 1786
432 1280 1857
470 1277 1928
516 1273 1999
570 1268 2071
633 1263 2143
703 1257 2216
765 1250 2288
828 1241 2361
893 1230 2434
959 1217 2507
1026 1202 2580
1094 1183 2653
1163 1159 2726
1233 1130 2800
1303 1093 2873
1373 1045 2947
1444 982 3020
256 1374 394
256 1373 564
256 1373 722
256 1373 832
256 1372 935
256 1372 1033
256 1371 1126
256 1371 1212
256 1370 1293
256 1369 1370
258 1368 1441
273 1367 1509
290 1366 1577
311 1365 1646
335 1363 1716
363 1361 1786
396 1359 1857
435 1357 1928
481 1353 2000
534 1350 2071
598 1345 2144
672 1340 2216
741 1334 2288
807 1327 2361
875 1318 2434
944 1307 2507
1013 1295 2580
1083 1279 2653
1153 1260 2726
1224 1237 2800
1296 1208 2873
1367 1171 2947
1439 1124 3020
256 1446 397
256 1446 566
256 1445 723
256 1445 834
256 1445 937
256 1444 1034
256 1444 1126
256 1443 1213
256 1443 1294
256 1442 1370
256 1441 1442
256 1440 1510
256 1439 1578
271 1438 1647
295 1437 1716
323 1435 1786
357 1433 1857
395 1431 1928
441 1429 2000
495 1426 2071
558 1422 2144
633 1417 2216
712 1412 2288
783 1406 2361
854 1399 2434
926 1390 2507
998 1379 2580
1070 1366 2653
1142 1351 2726
1215 1332 2800
1287 1309 2873
1360 1279 2947
1433 1243 3020
256 1514 400
256 1514 569
256 1514 726
256 1514 836
256 1513 938
256 1513 1035
256 1512 1127
256 1512 1214
256 1511 1295
256 1511 1371
256 1510 1442
256 1510 1510
256 1509 1578
256 1508 1647
256 1507 1716
280 1505 1787
313 1504 1857
352 1502 1928
398 1499 2000
451 1497 2072
515 1494 2144
589 1490 2216
677 1485 2289
754 1480 2361
830 1474 2434
905 1466 2507
980 1458 2580
1055 1447 2653
1129 1434 2726
1204 1418 2800
1278 1399 2873
1352 1375 2947
1426 1345 3020
256 1583 403
256 1583 572
256 1582 728
256 1582 838
256 1582 939
256 1582 1037
256 1581 1128
256 1581 1214
256 1580 1295
256 1580 1371
256 1579 1443
256 1579 1510
256 1578 1578
256 1577 1647
256 1576 1717
256 1575 1787
262 1574 1857
301 1572 1929
347 1570 2000
401 1568 2072
464 1565 2144
538 1562 2216
626 1558 2289
718 1554 2361
800 1548 2434
879 1542 2507
958 1534 2580
1036 1525 2653
1114 1514 2727
1191 1501 2800
1267 1485 2873
1343 1466 2947
1419 1442 3020
256 1652 407
256 1652 576
256 1652 731
256 1651 840
256 1651 941
256 1651 1038
256 1651 1129
256 1650 1215
256 1650 1296
256 1650 1372
256 1649 1443
256 1649 1511
256 1648 1579
256 1647 1648
256 1646 1717
256 1645 1787
256 1644 1858
256 1643 1929
287 1641 2000
341 1639 2072
404 1637 2144
479 1634 2216
566 1631 2289
669 1627 2361
761 1623 2434
848 1617 2507
932 1611 2580
1014 1603 2653
1095 1594 2727
1175 1583 2800
1254 1570 2873
1332 1553 2947
1409 1534 3020
256 1722 412
256 1722 581
256 1722 734
256 1721 842
256 1721 943
256 1721 1040
256 1721 1131
256 1720 1217
256 1720 1297
256 1720 1373
256 1719 1444
256 1719 1512
256 1718 1579
256 1718 1648
256 1717 1717
256 1716 1787
256 1715 1858
256 1714 1929
256 1713 2000
271 1711 2072
334 1709 2144
408 1707 2216
496 1704 2289
599 1701 2361
712 1697 2434
807 1692 2507
898 1687 2580
986 1680 2653
1072 1673 2727
1156 1663 2800
1238 1652 2873
1318 1639 2947
1398 1622 3020
256 1792 417
256 1792 587
256 1792 738
256 1792 845
256 1792 946
256 1792 1042
256 1791 1132
256 1791 1218
256 1791 1298
256 1790 1374
256 1790 1445
256 1790 1512
256 1789 1580
256 1789 1649
256 1788 1718
256 1787 1788
256 1787 1858
256 1785 1929
256 1784 2001
256 1783 2072
256 1781 2144
326 1779 2216
413 1777 2289
516 1774 2362
637 1771 2434
754 1767 2507
856 1762 2580
952 1757 2653
1043 1750 2727
1132 1743 2800
1218 1733 2873
1302 1722 2947
1384 1708 3020
256 1863 424
256 1863 593
256 1863 743
256 1863 849
256 1863 949
256 1863 1044
256 1862 1134
256 1862 1219
256 1862 1300
256 1862 1375
256 1861 1446
256 1861 1513
256 1861 1581
256 1860 1649
256 1860 1718
256 1859 1788
256 1858 1859
256 1857 1930
256 1856 2001
256 1855 2073
256 1854 2144
256 1852 2217
316 1850 2289
419 1848 2362
540 1845 2434
683 1842 2507
800 1838 2580
907 1833 2653
1007 1828 2727
1102 1821 2800
1193 1813 2873
1282 1804 2947
1367 1792 3020
256 1934 431
256 1934 601
256 1934 748
256 1934 853
256 1934 952
256 1934 1047
256 1934 1137
256 1934 1221
256 1933 1301
256 1933 1376
256 1933 1447
256 1933 1514
256 1932 1582
256 1932 1650
256 1931 1719
256 1931 1789
256 1930 1859
256 1929 1930
256 1929 2001
256 1928 2073
256 1926 2145
256 1925 2217
256 1923 2289
305 1921 2362
426 1919 2435
568 1916 2507
724 1913 2580
848 1909 2654
960 1904 2727
1065 1899 2800
1163 1892 2873
1257 1884 2947
1347 1875 3020
256 2006 440
256 2006 610
256 2006 754
256 2006 858
256 2006 956
256 2006 1050
256 2005 1139
256 2005 1224
256 2005 1303
256 2005 1378
256 2005 1448
256 2004 1515
256 2004 1583
256 2004 1651
256 2003 1720
256 2003 1789
256 2002 1860
256 2002 1930
256 2001 2002
256 2000 2073
256 1999 2145
256 1998 2217
256 1997 2289
256 1995 2362
292 1993 2435
434 1990 2508
602 1988 2581
767 1984 2654
899 1980 2727
1016 1976 2800
1124 1970 2873
1225 1964 2947
1321 1956 3020
256 2078 451
256 2078 620
256 2078 761
256 2078 864
256 2078 961
256 2078 1054
256 2078 1142
256 2077 1226
256 2077 1305
256 2077 1379
256 2077 1450
256 2077 1517
256 2076 1584
256 2076 1652
256 2076 1721
256 2075 1790
256 2075 1860
256 2074 1931
256 2074 2002
256 2073 2074
256 2072 2145
256 2071 2217
256 2070 2290
256 2068 2362
256 2067 2435
276 2065 2508
444 2062 2581
641 2060 2654
813 2056 2727
952 2052 2800
1074 2048 2874
1186 2042 2947
1289 2035 3020
256 2150 463
256 2150 633
256 2150 769
256 2150 870
256 2150 966
256 2150 1058
256 2150 1146
256 2150 1229
256 2150 1308
256 2149 1382
256 2149 1452
256 2149 1518
256 2149 1585
256 2149 1653
256 2148 1722
256 2148 1791
256 2148 1861
256 2147 1932
256 2147 2003
256 2146 2074
256 2145 2146
256 2144 2218
256 2143 2290
256 2142 2362
256 2141 2435
256 2139 2508
258 2137 2581
455 2134 2654
686 2132 2727
862 2128 2800
1007 2124 2874
1134 2120 2947
1249 2114 3020
256 2223 478
256 2223 647
256 2223 779
256 2222 878
256 2222 972
256 2222 1063
256 2222 1150
256 2222 1232
256 2222 1310
256 2222 1384
256 2222 1454
256 2222 1520
256 2221 1587
256 2221 1654
256 2221 1723
256 2221 1792
256 2220 1862
256 2220 1932
256 2220 2003
256 2219 2075
256 2218 2146
256 2218 2218
256 2217 2290
256 2216 2363
256 2214 2435
256 2213 2508
256 2211 2581
256 2209 2654
468 2207 2727
727 2204 2800
913 2201 2874
1065 2197 2947
1196 2192 3020
256 2295 495
256 2295 664
256 2295 790
256 2295 887
256 2295 979
256 2295 1069
256 2295 1155
256 2295 1237
256 2295 1314
256 2295 1387
256 2295 1456
256 2294 1522
256 2294 1589
256 2294 1656
256 2294 1724
256 2294 1793
256 2293 1863
256 2293 1933
256 2293 2004
256 2292 2075
256 2292 2147
256 2291 2219
256 2290 2291
256 2289 2363
256 2288 2436
256 2287 2508
256 2286 2581
256 2284 2654
256 2282 2727
483 2279 2801
770 2277 2874
967 2273 2947
1124 2269 3020
256 2368 515
256 2368 685
256 2368 802
256 2368 897
256 2368 987
256 2368 1076
256 2368 1160
256 2368 1241
256 2368 1318
256 2368 1390
256 2367 1459
256 2367 1525
256 2367 1591
256 2367 1658
256 2367 1726
256 2367 1795
256 2366 1864
256 2366 1934
256 2366 2005
256 2365 2076
256 2365 2147
256 2364 2219
256 2364 2291
256 2363 2363
256 2362 2436
256 2361 2509
256 2360 2581
256 2358 2654
256 2357 2728
256 2355 2801
502 2352 2874
817 2349 2947
1023 2346 3021
256 2441 539
256 2441 703
256 2441 816
256 2441 908
256 2441 997
256 2441 1084
256 2441 1167
256 2441 1247
256 2441 1322
256 2440 1394
256 2440 1462
256 2440 1528
256 2440 1593
256 2440 1660
256 2440 1728
256 2440 1796
256 2440 1866
256 2439 1935
256 2439 2006
256 2439 2077
256 2438 2148
256 2438 2220
256 2437 2292
256 2437 2364
256 2436 2436
256 2435 2509
256 2434 2582
256 2433 2655
256 2431 2728
256 2429 2801
256 2427 2874
523 2425 2947
866 2422 3021
256 2514 567
256 2514 724
256 2514 833
256 2514 922
256 2514 1008
256 2514 1093
256 2514 1175
256 2514 1253
256 2514 1328
256 2514 1399
256 2514 1466
256 2513 1531
256 2513 1596
256 2513 1663
256 2513 1730
256 2513 1798
256 2513 1867
256 2513 1937
256 2512 2007
256 2512 2078
256 2512 2149
256 2511 2221
256 2511 2292
256 2510 2364
256 2510 2437
256 2509 2509
256 2508 2582
256 2507 2655
256 2506 2728
256 2504 2801
256 2503 2874
256 2500 2948
548 2498 3021
256 2587 599
256 2587 747
256 2587 851
256 2587 937
256 2587 1020
256 2587 1103
256 2587 1183
256 2587 1260
256 2587 1334
256 2587 1404
256 2587 1471
256 2587 1535
256 2587 1600
256 2586 1666
256 2586 1733
256 2586 1800
256 2586 1869
256 2586 1938
256 2586 2008
256 2585 2079
256 2585 2150
256 2585 2221
256 2584 2293
256 2584 2365
256 2583 2437
256 2583 2510
256 2582 2583
256 2581 2655
256 2580 2728
256 2579 2801
256 2577 2874
256 2576 2948
256 2574 3021
256 2660 638
256 2660 773
256 2660 872
256 2660 954
256 2660 1035
256 2660 1115
256 2660 1193
256 2660 1269
256 2660 1341
