Submissions/LUTs/Samples/LUT-Calc/SPI1D.spi1d
Version 1
From 0 1
Length 4096
Components 1
{
	0.092864122745
	0.093187538799
	0.093510954853
	0.093834370907
	0.094157786960
	0.094481203014
	0.094804619068
	0.095128035122
	0.095451451176
	0.095774867229
	0.096098283283
	0.096421699337
	0.096745115391
	0.097068531444
	0.097391947498
	0.097715363552
	0.098038779606
	0.098362195660
	0.098685611713
	0.099009027767
	0.099332443821
	0.099655859875
	0.099979275928
	0.100302691982
	0.100626108036
	0.100949524090
	0.101272940144
	0.101596356197
	0.101919772251
	0.102243188305
	0.102566604359
	0.102890020412
	0.103213436466
	0.103536852520
	0.103860268574
	0.104183684628
	0.104507100681
	0.104830516735
	0.105153932789
	0.105477348843
	0.105800764896
	0.106124180950
	0.106447597004
	0.106771013058
	0.107094429112
	0.107417845165
	0.107741261219
	0.108064677273
	0.108388093327
	0.108711509381
	0.109034925434
	0.109358341488
	0.109681757542
	0.110005173596
	0.110328589649
	0.110652005703
	0.110975421757
	0.111298837811
	0.111622253865
	0.111945669918
	0.112269085972
	0.112592502026
	0.112915918080
	0.113239334133
	0.113562750187
	0.113886166241
	0.114209582295
	0.114532998349
	0.114856414402
	0.115179830456
	0.115503246510
	0.115826662564
	0.116150078617
	0.116473494671
	0.116796910725
	0.117120326779
	0.117443742833
	0.117767158886
	0.118090574940
	0.118413990994
	0.118737407048
	0.119060823101
	0.119384239155
	0.119707655209
	0.120031071263
	0.120354487317
	0.120677903370
	0.121001319424
	0.121324735478
	0.121648151532
	0.121971567586
	0.122294983639
	0.122618399693
	0.122941815747
	0.123265231801
	0.123588647854
	0.123912063908
	0.124235479962
	0.124558896016
	0.124882312070
	0.125205728123
	0.125529144177
	0.125852560231
	0.126175976285
	0.126499392338
	0.126822808392
	0.127146224446
	0.127469640500
	0.127793056554
	0.128116472607
	0.128439888661
	0.128763304715
	0.129086720769
	0.129410136822
	0.129733552876
	0.130056968930
	0.130380384984
	0.130703801038
	0.131027217091
	0.131350633145
	0.131674049199
	0.131997465253
	0.132320881306
	0.132644297360
	0.132967713414
	0.133291129468
	0.133614545522
	0.133937961575
	0.134261377629
	0.134584793683
	0.134908209737
	0.135231625790
	0.135555041844
	0.135878457898
	0.136201873952
	0.136525290006
	0.136848706059
	0.137172122113
	0.137495538167
	0.137818954221
	0.138142370275
	0.138465786328
	0.138789202382
	0.139112618436
	0.139436034490
	0.139759450543
	0.140082866597
	0.140406282651
	0.140729698705
	0.141053114759
	0.141376530812
	0.141699946866
	0.142023362920
	0.142346778974
	0.142670195027
	0.142993611081
	0.143317027135
	0.143640443189
	0.143963859243
	0.144287275296
	0.144610691350
	0.144934107404
	0.145257523458
	0.145580939511
	0.145904355565
	0.146227771619
	0.146551187673
	0.146874603727
	0.147198019780
	0.147521435834
	0.147844851888
	0.148168267942
	0.148491683995
	0.148815100049
	0.149138516103
	0.149461932157
	0.149785348211
	0.150108764264
	0.150432180318
	0.150755596372
	0.151079012426
	0.151402428480
	0.151725844533
	0.152049260587
	0.152372676641
	0.152696092695
	0.153019508748
	0.153342924802
	0.153666340856
	0.153989756910
	0.154313172964
	0.154636589017
	0.154960005071
	0.155283421125
	0.155606837179
	0.155930253232
	0.156253669286
	0.156577085340
	0.156900501394
	0.157223917448
	0.157547333501
	0.157870749555
	0.158194165609
	0.158517581663
	0.158840997716
	0.159164413770
	0.159487829824
	0.159811245878
	0.160134661932
	0.160458077985
	0.160781494039
	0.161104910093
	0.161428326147
	0.161751742200
	0.162075158254
	0.162398574308
	0.162721990362
	0.163045406416
	0.163368822469
	0.163692238523
	0.164015654577
	0.164339070631
	0.164662486685
	0.164985902738
	0.165309318792
	0.165632734846
	0.165956150900
	0.166279566953
	0.166602983007
	0.166926399061
	0.167249815115
	0.167528309326
	0.167782784324
	0.168036677332
	0.168289991006
	0.168542727984
	0.168794890885
	0.169046482311
	0.169297504847
	0.169547961061
	0.169797853500
	0.170047184699
	0.170295957171
	0.170544173416
	0.170791835916
	0.171038947135
	0.171285509523
	0.171531525511
	0.171776997517
	0.172021927941
	0.172266319166
	0.172510173563
	0.172753493484
	0.172996281267
	0.173238539234
	0.173480269693
	0.173721474936
	0.173962157240
	0.174202318869
	0.174441962069
	0.174681089074
	0.174919702104
	0.175157803363
	0.175395395042
	0.175632479316
	0.175869058350
	0.176105134291
	0.176340709275
	0.176575785423
	0.176810364843
	0.177044449631
	0.177278041867
	0.177511143621
	0.177743756947
	0.177975883889
	0.178207526476
	0.178438686725
	0.178669366640
	0.178899568214
	0.179129293427
	0.179358544246
	0.179587322625
	0.179815630509
	0.180043469829
	0.180270842503
	0.180497750440
	0.180724195535
	0.180950179673
	0.181175704726
	0.181400772557
	0.181625385015
	0.181849543939
	0.182073251157
	0.182296508486
	0.182519317732
	0.182741680689
	0.182963599143
	0.183185074866
	0.183406109622
	0.183626705163
	0.183846863231
	0.184066585557
	0.184285873865
	0.184504729863
	0.184723155255
	0.184941151730
	0.185158720971
	0.185375864648
	0.185592584423
	0.185808881947
	0.186024758864
	0.186240216805
	0.186455257394
	0.186669882245
	0.186884092962
	0.187097891139
	0.187311278364
	0.187524256212
	0.187736826252
	0.187948990042
	0.188160749133
	0.188372105064
	0.188583059369
	0.188793613570
	0.189003769183
	0.189213527714
	0.189422890660
	0.189631859512
	0.189840435748
	0.190048620843
	0.190256416261
	0.190463823457
	0.190670843880
	0.190877478969
	0.191086264607
	0.191292747488
	0.191499186651
	0.191705581729
	0.191911932356
	0.192118238171
	0.192324498812
	0.192530713920
	0.192736883140
	0.192943006117
	0.193149082498
	0.193355111934
	0.193561094076
	0.193767028578
	0.193972915097
	0.194178753290
	0.194384542818
	0.194590283343
	0.194795974528
	0.195001616041
	0.195207207549
	0.195412748723
	0.195618239235
	0.195823678760
	0.196029066973
	0.196234403553
	0.196439688179
	0.196644920535
	0.196850100304
	0.197055227172
	0.197260300827
	0.197465320959
	0.197670287260
	0.197875199423
	0.198080057144
	0.198284860121
	0.198489608053
	0.198694300641
	0.198898937588
	0.199103518600
	0.199308043382
	0.199512511645
	0.199716923097
	0.199921277453
	0.200125574424
	0.200329813729
	0.200533995084
	0.200738118209
	0.200942182825
	0.201146188656
	0.201350135427
	0.201554022863
	0.201757850694
	0.201961618649
	0.202165326461
	0.202368973863
	0.202572560591
	0.202776086382
	0.202979550973
	0.203182954107
	0.203386295525
	0.203589574972
	0.203792792191
	0.203995946932
	0.204199038942
	0.204402067973
	0.204605033777
	0.204807936107
	0.205010774718
	0.205213549369
	0.205416259818
	0.205618905825
	0.205821487152
	0.206024003563
	0.206226454822
	0.206428840698
	0.206631160957
	0.206833415370
	0.207035603708
	0.207237725745
	0.207439781255
	0.207641770014
	0.207843691799
	0.208045546390
	0.208247333568
	0.208449053114
	0.208650704813
	0.208852288450
	0.209053803811
	0.209255250684
	0.209456628860
	0.209657938129
	0.209859178284
	0.210060349120
	0.210261450431
	0.210462482014
	0.210663443669
	0.210864335194
	0.211065156391
	0.211265907064
	0.211466587015
	0.211667196050
	0.211867733977
	0.212068200604
	0.212268595740
	0.212468919196
	0.212669170785
	0.212869350320
	0.213069457617
	0.213269492493
	0.213469454765
	0.213669344252
	0.213869160775
	0.214068904156
	0.214268574217
	0.214468170784
	0.214667693683
	0.214867142739
	0.215066517783
	0.215265818643
	0.215465045150
	0.215664197138
	0.215863274438
	0.216062276887
	0.216261204320
	0.216460056574
	0.216658833488
	0.216857534902
	0.217056160657
	0.217254710595
	0.217453184560
	0.217651582396
	0.217849903950
	0.218048149068
	0.218246317598
	0.218444409391
	0.218642424297
	0.218840362168
	0.219038222857
	0.219236006218
	0.219433712106
	0.219631340379
	0.219828890894
	0.220026363510
	0.220223758086
	0.220421074484
	0.220618312567
	0.220815472197
	0.221012553240
	0.221209555560
	0.221406479025
	0.221603323502
	0.221800088861
	0.221996774972
	0.222193381704
	0.222389908932
	0.222586356528
	0.222782724366
	0.222979012322
	0.223175220273
	0.223371348096
	0.223567395669
	0.223763362872
	0.223959249587
	0.224155055694
	0.224350781076
	0.224546425618
	0.224741989203
	0.224937471718
	0.225132873050
	0.225328193086
	0.225523431716
	0.225718588828
	0.225913664314
	0.226108658066
	0.226303569976
	0.226498399938
	0.226693147847
	0.226887813599
	0.227082397090
	0.227276898217
	0.227471316879
	0.227665652976
	0.227859906409
	0.228054077077
	0.228248164885
	0.228442169734
	0.228636091529
	0.228829930176
	0.229023685579
	0.229217357647
	0.229410946286
	0.229604451405
	0.229797872914
	0.229991210723
	0.230184464744
	0.230377634889
	0.230570721071
	0.230763723203
	0.230956641201
	0.231149474981
	0.231342224458
	0.231534889550
	0.231727470176
	0.231919966254
	0.232112377705
	0.232304704448
	0.232496946407
	0.232689103502
	0.232881175657
	0.233073162797
	0.233265064846
	0.233456881730
	0.233648613375
	0.233840259709
	0.234031820659
	0.234223296154
	0.234414686125
	0.234605990501
	0.234797209213
	0.234988342194
	0.235179389377
	0.235370350694
	0.235561226080
	0.235752015471
	0.235942718801
	0.236133336008
	0.236323867028
	0.236514311800
	0.236704670263
	0.236894942355
	0.237085128018
	0.237275227192
	0.237465239818
	0.237655165840
	0.237845005200
	0.238034757843
	0.238224423711
	0.238414002752
	0.238603494911
	0.238792900134
	0.238982218369
	0.239171449563
	0.239360593666
	0.239549650627
	0.239738620396
	0.239927502923
	0.240116298161
	0.240305006060
	0.240493626574
	0.240682159657
	0.240870605262
	0.241058963343
	0.241247233857
	0.241435416759
	0.241623512007
	0.241811519556
	0.241999439365
	0.242187271394
	0.242375015599
	0.242562671943
	0.242750240384
	0.242937720885
	0.243125113406
	0.243312417910
	0.243499634360
	0.243686762720
	0.243873802952
	0.244060755023
	0.244247618897
	0.244434394540
	0.244621081919
	0.244807681000
	0.244994191751
	0.245180614141
	0.245366948138
	0.245553193712
	0.245739350832
	0.245925419469
	0.246111399593
	0.246297291178
	0.246483094193
	0.246668808614
	0.246854434411
	0.247039971561
	0.247225420035
	0.247410779811
	0.247596050862
	0.247781233166
	0.247966326698
	0.248151331435
	0.248336247356
	0.248521074437
	0.248705812658
	0.248890461998
	0.249075022437
	0.249259493954
	0.249443876530
	0.249628170146
	0.249812374784
	0.249996490426
	0.250180517055
	0.250364454654
	0.250548303207
	0.250732062696
	0.250915733108
	0.251099314428
	0.251282806640
	0.251466209731
	0.251649523687
	0.251832748496
	0.252015884144
	0.252198930620
	0.252381887913
	0.252564756010
	0.252747534902
	0.252930224577
	0.253112825027
	0.253295336242
	0.253477758213
	0.253660090931
	0.253842334389
	0.254024488579
	0.254206553494
	0.254388529127
	0.254570415473
	0.254752212524
	0.254933920276
	0.255115538724
	0.255297067863
	0.255478507689
	0.255659858199
	0.255841119389
	0.256022291256
	0.256203373798
	0.256384367013
	0.256565270899
	0.256746085454
	0.256926810679
	0.257107446572
	0.257287993134
	0.257468450364
	0.257648818264
	0.257829096835
	0.258009286078
	0.258189385995
	0.258369396588
	0.258549317861
	0.258729149815
	0.258908892455
	0.259088545784
	0.259268109807
	0.259447584527
	0.259626969951
	0.259806266082
	0.259985472927
	0.260164590492
	0.260343618783
	0.260522557806
	0.260701407570
	0.260880168080
	0.261058839345
	0.261237421374
	0.261415914174
	0.261594317754
	0.261772632123
	0.261950857291
	0.262128993268
	0.262307040064
	0.262484997689
	0.262662866154
	0.262840645470
	0.263018335648
	0.263195936701
	0.263373448641
	0.263550871480
	0.263728205230
	0.263905449905
	0.264082605518
	0.264259672083
	0.264436649614
	0.264613538125
	0.264790337631
	0.264967048146
	0.265143669686
	0.265320202267
	0.265496645904
	0.265673000614
	0.265849266412
	0.266025443316
	0.266201531342
	0.266377530509
	0.266553440833
	0.266729262332
	0.266904995024
	0.267080638929
	0.267256194064
	0.267431660449
	0.267607038103
	0.267782327046
	0.267957527297
	0.268132638876
	0.268307661804
	0.268482596102
	0.268657441791
	0.268832198890
	0.269006867424
	0.269181447411
	0.269355938876
	0.269530341840
	0.269704656325
	0.269878882355
	0.270053019951
	0.270227069139
	0.270401029940
	0.270574902379
	0.270748686480
	0.270922382267
	0.271095989764
	0.271269508997
	0.271442939990
	0.271616282769
	0.271789537358
	0.271962703784
	0.272135782073
	0.272308772251
	0.272481674343
	0.272654488377
	0.272827214380
	0.272999852379
	0.273172402401
	0.273344864473
	0.273517238624
	0.273689524881
	0.273861723272
	0.274033833826
	0.274205856572
	0.274377791539
	0.274549638754
	0.274721398249
	0.274893070052
	0.275064654193
	0.275236150701
	0.275407559608
	0.275578880943
	0.275750114737
	0.275921261021
	0.276092319825
	0.276263291181
	0.276434175119
	0.276604971673
	0.276775680872
	0.276946302750
	0.277116837338
	0.277287284669
	0.277457644775
	0.277627917689
	0.277798103444
	0.277968202072
	0.278138213608
	0.278308138083
	0.278477975533
	0.278647725991
	0.278817389491
	0.278986966067
	0.279156455754
	0.279325858585
	0.279495174596
	0.279664403822
	0.279833546297
	0.280002602057
	0.280171571137
	0.280340453573
	0.280509249400
	0.280677958655
	0.280846581373
	0.281015117591
	0.281183567345
	0.281351930671
	0.281520207607
	0.281688398189
	0.281856502454
	0.282024520440
	0.282192452183
	0.282360297722
	0.282528057094
	0.282695730336
	0.282863317487
	0.283030818585
	0.283198233669
	0.283365562775
	0.283532805944
	0.283699963214
	0.283867034623
	0.284034020211
	0.284200920017
	0.284367734080
	0.284534462440
	0.284701105135
	0.284867662207
	0.285034133694
	0.285200519637
	0.285366820076
	0.285533035050
	0.285699164602
	0.285865208770
	0.286031167596
	0.286197041120
	0.286362829384
	0.286528532428
	0.286694150294
	0.286859683022
	0.287025130655
	0.287190493234
	0.287355770801
	0.287520963396
	0.287686071063
	0.287851093844
	0.288016031780
	0.288180884914
	0.288345653288
	0.288510336945
	0.288674935927
	0.288839450278
	0.289003880039
	0.289168225255
	0.289332485968
	0.289496662221
	0.289660754058
	0.289824761521
	0.289988684656
	0.290152523505
	0.290316278112
	0.290479948521
	0.290643534776
	0.290807036921
	0.290970455000
	0.291133789058
	0.291297039138
	0.291460205286
	0.291623287546
	0.291786285963
	0.291949200581
	0.292112031446
	0.292274778602
	0.292437442094
	0.292600021968
	0.292762518269
	0.292924931042
	0.293087260333
	0.293249506188
	0.293411668651
	0.293573747769
	0.293735743588
	0.293897656153
	0.294059485510
	0.294221231706
	0.294382894787
	0.294544474800
	0.294705971789
	0.294867385802
	0.295028716886
	0.295189965087
	0.295351130451
	0.295512213026
	0.295673212859
	0.295834129996
	0.295994964484
	0.296155716370
	0.296316385702
	0.296476972527
	0.296637476892
	0.296797898845
	0.296958238432
	0.297118495703
	0.297278670703
	0.297438763482
	0.297598774087
	0.297758702565
	0.297918548964
	0.298078313334
	0.298237995720
	0.298397596173
	0.298557114739
	0.298716551468
	0.298875906407
	0.299035179606
	0.299194371111
	0.299353480973
	0.299512509239
	0.299671455959
	0.299830321181
	0.299989104953
	0.300147807325
	0.300306428345
	0.300464968063
	0.300623426528
	0.300781803788
	0.300940099893
	0.301098314892
	0.301256448835
	0.301414501770
	0.301572473747
	0.301730364815
	0.301888175025
	0.302045904425
	0.302203553065
	0.302361120995
	0.302518608265
	0.302676014924
	0.302833341022
	0.302990586608
	0.303147751734
	0.303304836449
	0.303461840803
	0.303618764845
	0.303775608627
	0.303932372198
	0.304089055609
	0.304245658909
	0.304402182149
	0.304558625380
	0.304714988651
	0.304871272014
	0.305027475519
	0.305183599216
	0.305339643156
	0.305495607389
	0.305651491966
	0.305807296939
	0.305963022356
	0.306118668271
	0.306274234732
	0.306429721792
	0.306585129501
	0.306740457909
	0.306895707069
	0.307050877030
	0.307205967845
	0.307360979563
	0.307515912237
	0.307670765917
	0.307825540655
	0.307980236501
	0.308134853508
	0.308289391726
	0.308443851207
	0.308598232002
	0.308752534163
	0.308906757740
	0.309060902786
	0.309214969352
	0.309368957489
	0.309522867250
	0.309676698684
	0.309830451845
	0.309984126784
	0.310137723553
	0.310291242203
	0.310444682785
	0.310598045353
	0.310751329957
	0.310904536649
	0.311057665481
	0.311210716506
	0.311363689774
	0.311516585338
	0.311669403250
	0.311822143561
	0.311974806324
	0.312127391591
	0.312279899414
	0.312432329844
	0.312584682934
	0.312736958736
	0.312889157302
	0.313041278685
	0.313193322935
	0.313345290106
	0.313497180250
	0.313648993419
	0.313800729664
	0.313952389039
	0.314103971596
	0.314255477387
	0.314406906463
	0.314558258879
	0.314709534685
	0.314860733934
	0.315011856679
	0.315162902972
	0.315313872865
	0.315464766411
	0.315615583662
	0.315766324670
	0.315916989489
	0.316067578170
	0.316218090766
	0.316368527330
	0.316518887913
	0.316669172569
	0.316819381350
	0.316969514309
	0.317119571497
	0.317269552968
	0.317419458775
	0.317569288969
	0.317719043603
	0.317868722730
	0.318018326403
	0.318167854674
	0.318317307595
	0.318466685220
	0.318615987601
	0.318765214790
	0.318914366841
	0.319063443805
	0.319212445736
	0.319361372687
	0.319510224709
	0.319659001856
	0.319807704180
	0.319956331734
	0.320104884570
	0.320253362742
	0.320401766301
	0.320550095302
	0.320698349795
	0.320846529835
	0.320994635474
	0.321142666763
	0.321290623758
	0.321438506509
	0.321586315069
	0.321734049492
	0.321881709830
	0.322029296135
	0.322176808461
	0.322324246861
	0.322471611386
	0.322618902089
	0.322766119024
	0.322913262243
	0.323060331798
	0.323207327743
	0.323354250130
	0.323501099012
	0.323647874441
	0.323794576471
	0.323941205153
	0.324087760541
	0.324234242687
	0.324380651645
	0.324526987465
	0.324673250202
	0.324819439908
	0.324965556636
	0.325111600438
	0.325257571367
	0.325403469475
	0.325549294816
	0.325695047441
	0.325840727404
	0.325986334757
	0.326131869553
	0.326277331844
	0.326422721684
	0.326568039123
	0.326713284216
	0.326858457015
	0.327003557571
	0.327148585939
	0.327293542170
	0.327438426317
	0.327583238433
	0.327727978569
	0.327872646779
	0.328017243115
	0.328161767630
	0.328306220376
	0.328450601405
	0.328594910770
	0.328739148524
	0.328883314718
	0.329027409406
	0.329171432639
	0.329315384471
	0.329459264953
	0.329603074138
	0.329746812079
	0.329890478827
	0.330034074435
	0.330177598956
	0.330321052441
	0.330464434944
	0.330607746515
	0.330750987209
	0.330894157076
	0.331037256169
	0.331180284541
	0.331323242243
	0.331466129329
	0.331608945849
	0.331751691856
	0.331894367403
	0.332036972541
	0.332179507324
	0.332321971802
	0.332464366027
	0.332606690053
	0.332748943931
	0.332891127714
	0.333033241452
	0.333175285199
	0.333317259006
	0.333459162925
	0.333600997008
	0.333742761308
	0.333884455876
	0.334026080764
	0.334167636024
	0.334309121708
	0.334450537867
	0.334591884554
	0.334733161821
	0.334874369719
	0.335015508300
	0.335156577616
	0.335297577718
	0.335438508659
	0.335579370490
	0.335720163262
	0.335860887028
	0.336001541840
	0.336142127748
	0.336282644804
	0.336423093061
	0.336563472569
	0.336703783380
	0.336844025546
	0.336984199118
	0.337124304148
	0.337264340687
	0.337404308787
	0.337544208498
	0.337684039874
	0.337823802964
	0.337963497821
	0.338103124495
	0.338242683038
	0.338382173502
	0.338521595937
	0.338660950395
	0.338800236927
	0.338939455584
	0.339078606418
	0.339217689480
	0.339356704820
	0.339495652491
	0.339634532542
	0.339773345025
	0.339912089992
	0.340050767493
	0.340189377579
	0.340327920301
	0.340466395711
	0.340604803859
	0.340743144795
	0.340881418572
	0.341019625239
	0.341157764848
	0.341295837450
	0.341433843094
	0.341571781833
	0.341709653716
	0.341847458795
	0.341985197120
	0.342122868742
	0.342260473711
	0.342398012079
	0.342535483894
	0.342672889210
	0.342810228074
	0.342947500540
	0.343084706655
	0.343221846472
	0.343358920041
	0.343495927412
	0.343632868635
	0.343769743761
	0.343906552840
	0.344043295922
	0.344179973058
	0.344316584298
	0.344453129692
	0.344589609291
	0.344726023143
	0.344862371301
	0.344998653813
	0.345134870730
	0.345271022102
	0.345407107978
	0.345543128410
	0.345679083446
	0.345814973137
	0.345950797533
	0.346086556684
	0.346222250639
	0.346357879448
	0.346493443161
	0.346628941828
	0.346764375499
	0.346899744223
	0.347035048050
	0.347170287029
	0.347305461211
	0.347440570645
	0.347575615380
	0.347710595466
	0.347845510953
	0.347980361890
	0.348115148326
	0.348249870311
	0.348384527894
	0.348519121124
	0.348653650052
	0.348788114726
	0.348922515195
	0.349056851510
	0.349191123718
	0.349325331869
	0.349459476013
	0.349593556198
	0.349727572473
	0.349861524888
	0.349995413492
	0.350129238334
	0.350262999462
	0.350396696925
	0.350530330773
	0.350663901055
	0.350797407818
	0.350930851113
	0.351064230987
	0.351197547490
	0.351330800670
	0.351463990576
	0.351597117256
	0.351730180760
	0.351863181136
	0.351996118432
	0.352128992697
	0.352261803980
	0.352394552328
	0.352527237791
	0.352659860416
	0.352792420253
	0.352924917349
	0.353057351753
	0.353189723514
	0.353322032678
	0.353454279295
	0.353586463413
	0.353718585080
	0.353850644344
	0.353982641253
	0.354114575855
	0.354246448198
	0.354378258330
	0.354510006300
	0.354641692155
	0.354773315942
	0.354904877711
	0.355036377508
	0.355167815382
	0.355299191380
	0.355430505550
	0.355561757939
	0.355692948596
	0.355824077568
	0.355955144902
	0.356086150647
	0.356217094849
	0.356347977556
	0.356478798816
	0.356609558676
	0.356740257183
	0.356870894386
	0.357001470330
	0.357131985064
	0.357262438635
	0.357392831089
	0.357523162475
	0.357653432839
	0.357783642229
	0.357913790691
	0.358043878273
	0.358173905021
	0.358303870984
	0.358433776206
	0.358563620737
	0.358693404621
	0.358823127908
	0.358952790642
	0.359082392871
	0.359211934642
	0.359341416001
	0.359470836996
	0.359600197672
	0.359729498077
	0.359858738256
	0.359987918258
	0.360117038127
	0.360246097911
	0.360375106740
	0.360504119784
	0.360633146332
	0.360762186369
	0.360891239880
	0.361020306852
	0.361149387270
	0.361278481119
	0.361407588387
	0.361536709058
	0.361665843118
	0.361794990554
	0.361924151351
	0.362053325494
	0.362182512970
	0.362311713765
	0.362440927864
	0.362570155254
	0.362699395919
	0.362828649847
	0.362957917023
	0.363087197433
	0.363216491063
	0.363345797899
	0.363475117926
	0.363604451132
	0.363733797501
	0.363863157021
	0.363992529676
	0.364121915453
	0.364251314339
	0.364380726318
	0.364510151377
	0.364639589503
	0.364769040681
	0.364898504897
	0.365027982138
	0.365157472389
	0.365286975637
	0.365416491868
	0.365546021068
	0.365675563224
	0.365805118320
	0.365934686345
	0.366064267283
	0.366193861121
	0.366323467846
	0.366453087443
	0.366582719899
	0.366712365200
	0.366842023332
	0.366971694282
	0.367101378036
	0.367231074580
	0.367360783901
	0.367490505984
	0.367620240817
	0.367749988385
	0.367879748676
	0.368009521674
	0.368139307368
	0.368269105743
	0.368398916785
	0.368528740481
	0.368658576818
	0.368788425782
	0.368918287359
	0.369048161536
	0.369178048299
	0.369307947635
	0.369437859530
	0.369567783972
	0.369697720945
	0.369827670438
	0.369957632436
	0.370087606927
	0.370217593896
	0.370347593330
	0.370477605216
	0.370607629541
	0.370737666290
	0.370867715452
	0.370997777012
	0.371127850957
	0.371257937273
	0.371388035949
	0.371518146969
	0.371648270321
	0.371778405992
	0.371908553967
	0.372038714235
	0.372168886782
	0.372299071595
	0.372429268659
	0.372559477963
	0.372689699493
	0.372819933235
	0.372950179177
	0.373080437305
	0.373210707607
	0.373340990069
	0.373471284678
	0.373601591420
	0.373731910283
	0.373862241254
	0.373992584320
	0.374122939467
	0.374253306683
	0.374383685954
	0.374514077267
	0.374644480609
	0.374774895968
	0.374905323331
	0.375035762683
	0.375166214013
	0.375296677307
	0.375427152553
	0.375557639737
	0.375688138847
	0.375818649869
	0.375949172791
	0.376079707600
	0.376210254283
	0.376340812827
	0.376471383219
	0.376601965446
	0.376732559496
	0.376863165355
	0.376993783012
	0.377124412452
	0.377255053664
	0.377385706634
	0.377516371349
	0.377647047798
	0.377777735967
	0.377908435843
	0.378039147413
	0.378169870666
	0.378300605588
	0.378431352167
	0.378562110389
	0.378692880243
	0.378823661715
	0.378954454794
	0.379085259465
	0.379216075717
	0.379346903537
	0.379477742913
	0.379608593831
